( Made using CamBam - http://www.cambam.info )
( shaft_cutout_in 10/17/2015 12:38:29 AM )
( T1 : 0.125 )
G20 G90 G64 G40
G0 Z0.125
( T1 : 0.125 )
T1 M6
( Pocket1 )
G17
M3
G0 X0.0204 Y0.0
G0 Z0.0625
G1 F10.0 Z-0.015
G1 F15.0 X0.0102 Y-0.0176
G1 X-0.0102
G1 X-0.0204 Y0.0
G1 X-0.0102 Y0.0176
G1 X0.0102
G1 X0.0204 Y0.0
G1 F10.0 X0.042 Y-0.0125
G1 F15.0 X0.0246 Y-0.0426
G1 X-0.0246
G1 X-0.0492 Y0.0
G1 X-0.0246 Y0.0426
G1 X0.0246
G1 X0.0492 Y0.0
G1 X0.042 Y-0.0125
G1 F10.0 X0.0853 Y-0.0375
G1 F15.0 X0.0535 Y-0.0926
G1 X-0.0535
G1 X-0.107 Y0.0
G1 X-0.0535 Y0.0926
G1 X0.0535
G1 X0.107 Y0.0
G1 X0.0853 Y-0.0375
G1 F10.0 X0.0204 Y0.0
G1 Z-0.03
G1 F15.0 X0.0102 Y-0.0176
G1 X-0.0102
G1 X-0.0204 Y0.0
G1 X-0.0102 Y0.0176
G1 X0.0102
G1 X0.0204 Y0.0
G1 F10.0 X0.042 Y-0.0125
G1 F15.0 X0.0246 Y-0.0426
G1 X-0.0246
G1 X-0.0492 Y0.0
G1 X-0.0246 Y0.0426
G1 X0.0246
G1 X0.0492 Y0.0
G1 X0.042 Y-0.0125
G1 F10.0 X0.0853 Y-0.0375
G1 F15.0 X0.0535 Y-0.0926
G1 X-0.0535
G1 X-0.107 Y0.0
G1 X-0.0535 Y0.0926
G1 X0.0535
G1 X0.107 Y0.0
G1 X0.0853 Y-0.0375
G1 F10.0 X0.0204 Y0.0
G1 Z-0.045
G1 F15.0 X0.0102 Y-0.0176
G1 X-0.0102
G1 X-0.0204 Y0.0
G1 X-0.0102 Y0.0176
G1 X0.0102
G1 X0.0204 Y0.0
G1 F10.0 X0.042 Y-0.0125
G1 F15.0 X0.0246 Y-0.0426
G1 X-0.0246
G1 X-0.0492 Y0.0
G1 X-0.0246 Y0.0426
G1 X0.0246
G1 X0.0492 Y0.0
G1 X0.042 Y-0.0125
G1 F10.0 X0.0853 Y-0.0375
G1 F15.0 X0.0535 Y-0.0926
G1 X-0.0535
G1 X-0.107 Y0.0
G1 X-0.0535 Y0.0926
G1 X0.0535
G1 X0.107 Y0.0
G1 X0.0853 Y-0.0375
G1 F10.0 X0.0204 Y0.0
G1 Z-0.06
G1 F15.0 X0.0102 Y-0.0176
G1 X-0.0102
G1 X-0.0204 Y0.0
G1 X-0.0102 Y0.0176
G1 X0.0102
G1 X0.0204 Y0.0
G1 F10.0 X0.042 Y-0.0125
G1 F15.0 X0.0246 Y-0.0426
G1 X-0.0246
G1 X-0.0492 Y0.0
G1 X-0.0246 Y0.0426
G1 X0.0246
G1 X0.0492 Y0.0
G1 X0.042 Y-0.0125
G1 F10.0 X0.0853 Y-0.0375
G1 F15.0 X0.0535 Y-0.0926
G1 X-0.0535
G1 X-0.107 Y0.0
G1 X-0.0535 Y0.0926
G1 X0.0535
G1 X0.107 Y0.0
G1 X0.0853 Y-0.0375
G1 F10.0 X0.0204 Y0.0
G1 Z-0.075
G1 F15.0 X0.0102 Y-0.0176
G1 X-0.0102
G1 X-0.0204 Y0.0
G1 X-0.0102 Y0.0176
G1 X0.0102
G1 X0.0204 Y0.0
G1 F10.0 X0.042 Y-0.0125
G1 F15.0 X0.0246 Y-0.0426
G1 X-0.0246
G1 X-0.0492 Y0.0
G1 X-0.0246 Y0.0426
G1 X0.0246
G1 X0.0492 Y0.0
G1 X0.042 Y-0.0125
G1 F10.0 X0.0853 Y-0.0375
G1 F15.0 X0.0535 Y-0.0926
G1 X-0.0535
G1 X-0.107 Y0.0
G1 X-0.0535 Y0.0926
G1 X0.0535
G1 X0.107 Y0.0
G1 X0.0853 Y-0.0375
G1 F10.0 X0.0204 Y0.0
G1 Z-0.09
G1 F15.0 X0.0102 Y-0.0176
G1 X-0.0102
G1 X-0.0204 Y0.0
G1 X-0.0102 Y0.0176
G1 X0.0102
G1 X0.0204 Y0.0
G1 F10.0 X0.042 Y-0.0125
G1 F15.0 X0.0246 Y-0.0426
G1 X-0.0246
G1 X-0.0492 Y0.0
G1 X-0.0246 Y0.0426
G1 X0.0246
G1 X0.0492 Y0.0
G1 X0.042 Y-0.0125
G1 F10.0 X0.0853 Y-0.0375
G1 F15.0 X0.0535 Y-0.0926
G1 X-0.0535
G1 X-0.107 Y0.0
G1 X-0.0535 Y0.0926
G1 X0.0535
G1 X0.107 Y0.0
G1 X0.0853 Y-0.0375
G1 F10.0 X0.0204 Y0.0
G1 Z-0.105
G1 F15.0 X0.0102 Y-0.0176
G1 X-0.0102
G1 X-0.0204 Y0.0
G1 X-0.0102 Y0.0176
G1 X0.0102
G1 X0.0204 Y0.0
G1 F10.0 X0.042 Y-0.0125
G1 F15.0 X0.0246 Y-0.0426
G1 X-0.0246
G1 X-0.0492 Y0.0
G1 X-0.0246 Y0.0426
G1 X0.0246
G1 X0.0492 Y0.0
G1 X0.042 Y-0.0125
G1 F10.0 X0.0853 Y-0.0375
G1 F15.0 X0.0535 Y-0.0926
G1 X-0.0535
G1 X-0.107 Y0.0
G1 X-0.0535 Y0.0926
G1 X0.0535
G1 X0.107 Y0.0
G1 X0.0853 Y-0.0375
G1 F10.0 X0.0204 Y0.0
G1 Z-0.12
G1 F15.0 X0.0102 Y-0.0176
G1 X-0.0102
G1 X-0.0204 Y0.0
G1 X-0.0102 Y0.0176
G1 X0.0102
G1 X0.0204 Y0.0
G1 F10.0 X0.042 Y-0.0125
G1 F15.0 X0.0246 Y-0.0426
G1 X-0.0246
G1 X-0.0492 Y0.0
G1 X-0.0246 Y0.0426
G1 X0.0246
G1 X0.0492 Y0.0
G1 X0.042 Y-0.0125
G1 F10.0 X0.0853 Y-0.0375
G1 F15.0 X0.0535 Y-0.0926
G1 X-0.0535
G1 X-0.107 Y0.0
G1 X-0.0535 Y0.0926
G1 X0.0535
G1 X0.107 Y0.0
G1 X0.0853 Y-0.0375
G1 F10.0 X0.0204 Y0.0
G1 Z-0.135
G1 F15.0 X0.0102 Y-0.0176
G1 X-0.0102
G1 X-0.0204 Y0.0
G1 X-0.0102 Y0.0176
G1 X0.0102
G1 X0.0204 Y0.0
G1 F10.0 X0.042 Y-0.0125
G1 F15.0 X0.0246 Y-0.0426
G1 X-0.0246
G1 X-0.0492 Y0.0
G1 X-0.0246 Y0.0426
G1 X0.0246
G1 X0.0492 Y0.0
G1 X0.042 Y-0.0125
G1 F10.0 X0.0853 Y-0.0375
G1 F15.0 X0.0535 Y-0.0926
G1 X-0.0535
G1 X-0.107 Y0.0
G1 X-0.0535 Y0.0926
G1 X0.0535
G1 X0.107 Y0.0
G1 X0.0853 Y-0.0375
G1 F10.0 X0.0204 Y0.0
G1 Z-0.15
G1 F15.0 X0.0102 Y-0.0176
G1 X-0.0102
G1 X-0.0204 Y0.0
G1 X-0.0102 Y0.0176
G1 X0.0102
G1 X0.0204 Y0.0
G1 F10.0 X0.042 Y-0.0125
G1 F15.0 X0.0246 Y-0.0426
G1 X-0.0246
G1 X-0.0492 Y0.0
G1 X-0.0246 Y0.0426
G1 X0.0246
G1 X0.0492 Y0.0
G1 X0.042 Y-0.0125
G1 F10.0 X0.0853 Y-0.0375
G1 F15.0 X0.0535 Y-0.0926
G1 X-0.0535
G1 X-0.107 Y0.0
G1 X-0.0535 Y0.0926
G1 X0.0535
G1 X0.107 Y0.0
G1 X0.0853 Y-0.0375
G1 F10.0 X0.0204 Y0.0
G1 Z-0.165
G1 F15.0 X0.0102 Y-0.0176
G1 X-0.0102
G1 X-0.0204 Y0.0
G1 X-0.0102 Y0.0176
G1 X0.0102
G1 X0.0204 Y0.0
G1 F10.0 X0.042 Y-0.0125
G1 F15.0 X0.0246 Y-0.0426
G1 X-0.0246
G1 X-0.0492 Y0.0
G1 X-0.0246 Y0.0426
G1 X0.0246
G1 X0.0492 Y0.0
G1 X0.042 Y-0.0125
G1 F10.0 X0.0853 Y-0.0375
G1 F15.0 X0.0535 Y-0.0926
G1 X-0.0535
G1 X-0.107 Y0.0
G1 X-0.0535 Y0.0926
G1 X0.0535
G1 X0.107 Y0.0
G1 X0.0853 Y-0.0375
G1 F10.0 X0.0204 Y0.0
G1 Z-0.18
G1 F15.0 X0.0102 Y-0.0176
G1 X-0.0102
G1 X-0.0204 Y0.0
G1 X-0.0102 Y0.0176
G1 X0.0102
G1 X0.0204 Y0.0
G1 F10.0 X0.042 Y-0.0125
G1 F15.0 X0.0246 Y-0.0426
G1 X-0.0246
G1 X-0.0492 Y0.0
G1 X-0.0246 Y0.0426
G1 X0.0246
G1 X0.0492 Y0.0
G1 X0.042 Y-0.0125
G1 F10.0 X0.0853 Y-0.0375
G1 F15.0 X0.0535 Y-0.0926
G1 X-0.0535
G1 X-0.107 Y0.0
G1 X-0.0535 Y0.0926
G1 X0.0535
G1 X0.107 Y0.0
G1 X0.0853 Y-0.0375
G1 F10.0 X0.0204 Y0.0
G1 Z-0.195
G1 F15.0 X0.0102 Y-0.0176
G1 X-0.0102
G1 X-0.0204 Y0.0
G1 X-0.0102 Y0.0176
G1 X0.0102
G1 X0.0204 Y0.0
G1 F10.0 X0.042 Y-0.0125
G1 F15.0 X0.0246 Y-0.0426
G1 X-0.0246
G1 X-0.0492 Y0.0
G1 X-0.0246 Y0.0426
G1 X0.0246
G1 X0.0492 Y0.0
G1 X0.042 Y-0.0125
G1 F10.0 X0.0853 Y-0.0375
G1 F15.0 X0.0535 Y-0.0926
G1 X-0.0535
G1 X-0.107 Y0.0
G1 X-0.0535 Y0.0926
G1 X0.0535
G1 X0.107 Y0.0
G1 X0.0853 Y-0.0375
G1 F10.0 X0.0204 Y0.0
G1 Z-0.21
G1 F15.0 X0.0102 Y-0.0176
G1 X-0.0102
G1 X-0.0204 Y0.0
G1 X-0.0102 Y0.0176
G1 X0.0102
G1 X0.0204 Y0.0
G1 F10.0 X0.042 Y-0.0125
G1 F15.0 X0.0246 Y-0.0426
G1 X-0.0246
G1 X-0.0492 Y0.0
G1 X-0.0246 Y0.0426
G1 X0.0246
G1 X0.0492 Y0.0
G1 X0.042 Y-0.0125
G1 F10.0 X0.0853 Y-0.0375
G1 F15.0 X0.0535 Y-0.0926
G1 X-0.0535
G1 X-0.107 Y0.0
G1 X-0.0535 Y0.0926
G1 X0.0535
G1 X0.107 Y0.0
G1 X0.0853 Y-0.0375
G1 F10.0 X0.0204 Y0.0
G1 Z-0.225
G1 F15.0 X0.0102 Y-0.0176
G1 X-0.0102
G1 X-0.0204 Y0.0
G1 X-0.0102 Y0.0176
G1 X0.0102
G1 X0.0204 Y0.0
G1 F10.0 X0.042 Y-0.0125
G1 F15.0 X0.0246 Y-0.0426
G1 X-0.0246
G1 X-0.0492 Y0.0
G1 X-0.0246 Y0.0426
G1 X0.0246
G1 X0.0492 Y0.0
G1 X0.042 Y-0.0125
G1 F10.0 X0.0853 Y-0.0375
G1 F15.0 X0.0535 Y-0.0926
G1 X-0.0535
G1 X-0.107 Y0.0
G1 X-0.0535 Y0.0926
G1 X0.0535
G1 X0.107 Y0.0
G1 X0.0853 Y-0.0375
G1 F10.0 X0.0204 Y0.0
G1 Z-0.24
G1 F15.0 X0.0102 Y-0.0176
G1 X-0.0102
G1 X-0.0204 Y0.0
G1 X-0.0102 Y0.0176
G1 X0.0102
G1 X0.0204 Y0.0
G1 F10.0 X0.042 Y-0.0125
G1 F15.0 X0.0246 Y-0.0426
G1 X-0.0246
G1 X-0.0492 Y0.0
G1 X-0.0246 Y0.0426
G1 X0.0246
G1 X0.0492 Y0.0
G1 X0.042 Y-0.0125
G1 F10.0 X0.0853 Y-0.0375
G1 F15.0 X0.0535 Y-0.0926
G1 X-0.0535
G1 X-0.107 Y0.0
G1 X-0.0535 Y0.0926
G1 X0.0535
G1 X0.107 Y0.0
G1 X0.0853 Y-0.0375
G1 F10.0 X0.0204 Y0.0
G1 Z-0.255
G1 F15.0 X0.0102 Y-0.0176
G1 X-0.0102
G1 X-0.0204 Y0.0
G1 X-0.0102 Y0.0176
G1 X0.0102
G1 X0.0204 Y0.0
G1 F10.0 X0.042 Y-0.0125
G1 F15.0 X0.0246 Y-0.0426
G1 X-0.0246
G1 X-0.0492 Y0.0
G1 X-0.0246 Y0.0426
G1 X0.0246
G1 X0.0492 Y0.0
G1 X0.042 Y-0.0125
G1 F10.0 X0.0853 Y-0.0375
G1 F15.0 X0.0535 Y-0.0926
G1 X-0.0535
G1 X-0.107 Y0.0
G1 X-0.0535 Y0.0926
G1 X0.0535
G1 X0.107 Y0.0
G1 X0.0853 Y-0.0375
G1 F10.0 X0.0204 Y0.0
G1 Z-0.27
G1 F15.0 X0.0102 Y-0.0176
G1 X-0.0102
G1 X-0.0204 Y0.0
G1 X-0.0102 Y0.0176
G1 X0.0102
G1 X0.0204 Y0.0
G1 F10.0 X0.042 Y-0.0125
G1 F15.0 X0.0246 Y-0.0426
G1 X-0.0246
G1 X-0.0492 Y0.0
G1 X-0.0246 Y0.0426
G1 X0.0246
G1 X0.0492 Y0.0
G1 X0.042 Y-0.0125
G1 F10.0 X0.0853 Y-0.0375
G1 F15.0 X0.0535 Y-0.0926
G1 X-0.0535
G1 X-0.107 Y0.0
G1 X-0.0535 Y0.0926
G1 X0.0535
G1 X0.107 Y0.0
G1 X0.0853 Y-0.0375
G1 F10.0 X0.0204 Y0.0
G1 Z-0.285
G1 F15.0 X0.0102 Y-0.0176
G1 X-0.0102
G1 X-0.0204 Y0.0
G1 X-0.0102 Y0.0176
G1 X0.0102
G1 X0.0204 Y0.0
G1 F10.0 X0.042 Y-0.0125
G1 F15.0 X0.0246 Y-0.0426
G1 X-0.0246
G1 X-0.0492 Y0.0
G1 X-0.0246 Y0.0426
G1 X0.0246
G1 X0.0492 Y0.0
G1 X0.042 Y-0.0125
G1 F10.0 X0.0853 Y-0.0375
G1 F15.0 X0.0535 Y-0.0926
G1 X-0.0535
G1 X-0.107 Y0.0
G1 X-0.0535 Y0.0926
G1 X0.0535
G1 X0.107 Y0.0
G1 X0.0853 Y-0.0375
G1 F10.0 X0.0204 Y0.0
G1 Z-0.3
G1 F15.0 X0.0102 Y-0.0176
G1 X-0.0102
G1 X-0.0204 Y0.0
G1 X-0.0102 Y0.0176
G1 X0.0102
G1 X0.0204 Y0.0
G1 F10.0 X0.042 Y-0.0125
G1 F15.0 X0.0246 Y-0.0426
G1 X-0.0246
G1 X-0.0492 Y0.0
G1 X-0.0246 Y0.0426
G1 X0.0246
G1 X0.0492 Y0.0
G1 X0.042 Y-0.0125
G1 F10.0 X0.0853 Y-0.0375
G1 F15.0 X0.0535 Y-0.0926
G1 X-0.0535
G1 X-0.107 Y0.0
G1 X-0.0535 Y0.0926
G1 X0.0535
G1 X0.107 Y0.0
G1 X0.0853 Y-0.0375
G1 F10.0 X0.0204 Y0.0
G1 Z-0.315
G1 F15.0 X0.0102 Y-0.0176
G1 X-0.0102
G1 X-0.0204 Y0.0
G1 X-0.0102 Y0.0176
G1 X0.0102
G1 X0.0204 Y0.0
G1 F10.0 X0.042 Y-0.0125
G1 F15.0 X0.0246 Y-0.0426
G1 X-0.0246
G1 X-0.0492 Y0.0
G1 X-0.0246 Y0.0426
G1 X0.0246
G1 X0.0492 Y0.0
G1 X0.042 Y-0.0125
G1 F10.0 X0.0853 Y-0.0375
G1 F15.0 X0.0535 Y-0.0926
G1 X-0.0535
G1 X-0.107 Y0.0
G1 X-0.0535 Y0.0926
G1 X0.0535
G1 X0.107 Y0.0
G1 X0.0853 Y-0.0375
G1 F10.0 X0.0204 Y0.0
G1 Z-0.33
G1 F15.0 X0.0102 Y-0.0176
G1 X-0.0102
G1 X-0.0204 Y0.0
G1 X-0.0102 Y0.0176
G1 X0.0102
G1 X0.0204 Y0.0
G1 F10.0 X0.042 Y-0.0125
G1 F15.0 X0.0246 Y-0.0426
G1 X-0.0246
G1 X-0.0492 Y0.0
G1 X-0.0246 Y0.0426
G1 X0.0246
G1 X0.0492 Y0.0
G1 X0.042 Y-0.0125
G1 F10.0 X0.0853 Y-0.0375
G1 F15.0 X0.0535 Y-0.0926
G1 X-0.0535
G1 X-0.107 Y0.0
G1 X-0.0535 Y0.0926
G1 X0.0535
G1 X0.107 Y0.0
G1 X0.0853 Y-0.0375
G1 F10.0 X0.0204 Y0.0
G1 Z-0.345
G1 F15.0 X0.0102 Y-0.0176
G1 X-0.0102
G1 X-0.0204 Y0.0
G1 X-0.0102 Y0.0176
G1 X0.0102
G1 X0.0204 Y0.0
G1 F10.0 X0.042 Y-0.0125
G1 F15.0 X0.0246 Y-0.0426
G1 X-0.0246
G1 X-0.0492 Y0.0
G1 X-0.0246 Y0.0426
G1 X0.0246
G1 X0.0492 Y0.0
G1 X0.042 Y-0.0125
G1 F10.0 X0.0853 Y-0.0375
G1 F15.0 X0.0535 Y-0.0926
G1 X-0.0535
G1 X-0.107 Y0.0
G1 X-0.0535 Y0.0926
G1 X0.0535
G1 X0.107 Y0.0
G1 X0.0853 Y-0.0375
G1 F10.0 X0.0204 Y0.0
G1 Z-0.36
G1 F15.0 X0.0102 Y-0.0176
G1 X-0.0102
G1 X-0.0204 Y0.0
G1 X-0.0102 Y0.0176
G1 X0.0102
G1 X0.0204 Y0.0
G1 F10.0 X0.042 Y-0.0125
G1 F15.0 X0.0246 Y-0.0426
G1 X-0.0246
G1 X-0.0492 Y0.0
G1 X-0.0246 Y0.0426
G1 X0.0246
G1 X0.0492 Y0.0
G1 X0.042 Y-0.0125
G1 F10.0 X0.0853 Y-0.0375
G1 F15.0 X0.0535 Y-0.0926
G1 X-0.0535
G1 X-0.107 Y0.0
G1 X-0.0535 Y0.0926
G1 X0.0535
G1 X0.107 Y0.0
G1 X0.0853 Y-0.0375
G1 F10.0 X0.0204 Y0.0
G1 Z-0.375
G1 F15.0 X0.0102 Y-0.0176
G1 X-0.0102
G1 X-0.0204 Y0.0
G1 X-0.0102 Y0.0176
G1 X0.0102
G1 X0.0204 Y0.0
G1 F10.0 X0.042 Y-0.0125
G1 F15.0 X0.0246 Y-0.0426
G1 X-0.0246
G1 X-0.0492 Y0.0
G1 X-0.0246 Y0.0426
G1 X0.0246
G1 X0.0492 Y0.0
G1 X0.042 Y-0.0125
G1 F10.0 X0.0853 Y-0.0375
G1 F15.0 X0.0535 Y-0.0926
G1 X-0.0535
G1 X-0.107 Y0.0
G1 X-0.0535 Y0.0926
G1 X0.0535
G1 X0.107 Y0.0
G1 X0.0853 Y-0.0375
G1 F10.0 X0.0204 Y0.0
G1 Z-0.39
G1 F15.0 X0.0102 Y-0.0176
G1 X-0.0102
G1 X-0.0204 Y0.0
G1 X-0.0102 Y0.0176
G1 X0.0102
G1 X0.0204 Y0.0
G1 F10.0 X0.042 Y-0.0125
G1 F15.0 X0.0246 Y-0.0426
G1 X-0.0246
G1 X-0.0492 Y0.0
G1 X-0.0246 Y0.0426
G1 X0.0246
G1 X0.0492 Y0.0
G1 X0.042 Y-0.0125
G1 F10.0 X0.0853 Y-0.0375
G1 F15.0 X0.0535 Y-0.0926
G1 X-0.0535
G1 X-0.107 Y0.0
G1 X-0.0535 Y0.0926
G1 X0.0535
G1 X0.107 Y0.0
G1 X0.0853 Y-0.0375
G1 F10.0 X0.0204 Y0.0
G1 Z-0.4
G1 F15.0 X0.0102 Y-0.0176
G1 X-0.0102
G1 X-0.0204 Y0.0
G1 X-0.0102 Y0.0176
G1 X0.0102
G1 X0.0204 Y0.0
G1 F10.0 X0.042 Y-0.0125
G1 F15.0 X0.0246 Y-0.0426
G1 X-0.0246
G1 X-0.0492 Y0.0
G1 X-0.0246 Y0.0426
G1 X0.0246
G1 X0.0492 Y0.0
G1 X0.042 Y-0.0125
G1 F10.0 X0.0853 Y-0.0375
G1 F15.0 X0.0535 Y-0.0926
G1 X-0.0535
G1 X-0.107 Y0.0
G1 X-0.0535 Y0.0926
G1 X0.0535
G1 X0.107 Y0.0
G1 X0.0853 Y-0.0375
G0 Z0.125
M5
M30
