( Made using CamBam - http://www.cambam.info )
( drve_collar_b 5/4/2016 11:19:47 PM )
( T1 : 0.125 )
G20 G90 G64 G40
G0 Z0.125
( T1 : 0.125 )
T1 M6
( 0.125_drills )
G17
M3
G0 X0.5895 Y1.4716
G0 Z0.0625
G1 F10.0 Z-0.015
G2 F15.0 X0.5557 Y1.4522 I-0.0225 J0.0
G2 Y1.4911 I0.0113 J0.0195
G2 X0.5895 Y1.4716 I0.0113 J-0.0195
G1 F10.0 Z-0.03
G2 F15.0 X0.5557 Y1.4522 I-0.0225 J0.0
G2 Y1.4911 I0.0113 J0.0195
G2 X0.5895 Y1.4716 I0.0113 J-0.0195
G1 F10.0 Z-0.045
G2 F15.0 X0.5557 Y1.4522 I-0.0225 J0.0
G2 Y1.4911 I0.0113 J0.0195
G2 X0.5895 Y1.4716 I0.0113 J-0.0195
G1 F10.0 Z-0.06
G2 F15.0 X0.5557 Y1.4522 I-0.0225 J0.0
G2 Y1.4911 I0.0113 J0.0195
G2 X0.5895 Y1.4716 I0.0113 J-0.0195
G1 F10.0 Z-0.075
G2 F15.0 X0.5557 Y1.4522 I-0.0225 J0.0
G2 Y1.4911 I0.0113 J0.0195
G2 X0.5895 Y1.4716 I0.0113 J-0.0195
G1 F10.0 Z-0.09
G2 F15.0 X0.5557 Y1.4522 I-0.0225 J0.0
G2 Y1.4911 I0.0113 J0.0195
G2 X0.5895 Y1.4716 I0.0113 J-0.0195
G1 F10.0 Z-0.105
G2 F15.0 X0.5557 Y1.4522 I-0.0225 J0.0
G2 Y1.4911 I0.0113 J0.0195
G2 X0.5895 Y1.4716 I0.0113 J-0.0195
G1 F10.0 Z-0.12
G2 F15.0 X0.5557 Y1.4522 I-0.0225 J0.0
G2 Y1.4911 I0.0113 J0.0195
G2 X0.5895 Y1.4716 I0.0113 J-0.0195
G1 F10.0 Z-0.135
G2 F15.0 X0.5557 Y1.4522 I-0.0225 J0.0
G2 Y1.4911 I0.0113 J0.0195
G2 X0.5895 Y1.4716 I0.0113 J-0.0195
G1 F10.0 Z-0.15
G2 F15.0 X0.5557 Y1.4522 I-0.0225 J0.0
G2 Y1.4911 I0.0113 J0.0195
G2 X0.5895 Y1.4716 I0.0113 J-0.0195
G1 F10.0 Z-0.165
G2 F15.0 X0.5557 Y1.4522 I-0.0225 J0.0
G2 Y1.4911 I0.0113 J0.0195
G2 X0.5895 Y1.4716 I0.0113 J-0.0195
G1 F10.0 Z-0.18
G2 F15.0 X0.5557 Y1.4522 I-0.0225 J0.0
G2 Y1.4911 I0.0113 J0.0195
G2 X0.5895 Y1.4716 I0.0113 J-0.0195
G1 F10.0 Z-0.195
G2 F15.0 X0.5557 Y1.4522 I-0.0225 J0.0
G2 Y1.4911 I0.0113 J0.0195
G2 X0.5895 Y1.4716 I0.0113 J-0.0195
G1 F10.0 Z-0.21
G2 F15.0 X0.5557 Y1.4522 I-0.0225 J0.0
G2 Y1.4911 I0.0113 J0.0195
G2 X0.5895 Y1.4716 I0.0113 J-0.0195
G1 F10.0 Z-0.225
G2 F15.0 X0.5557 Y1.4522 I-0.0225 J0.0
G2 Y1.4911 I0.0113 J0.0195
G2 X0.5895 Y1.4716 I0.0113 J-0.0195
G1 F10.0 Z-0.24
G2 F15.0 X0.5557 Y1.4522 I-0.0225 J0.0
G2 Y1.4911 I0.0113 J0.0195
G2 X0.5895 Y1.4716 I0.0113 J-0.0195
G1 F10.0 Z-0.255
G2 F15.0 X0.5557 Y1.4522 I-0.0225 J0.0
G2 Y1.4911 I0.0113 J0.0195
G2 X0.5895 Y1.4716 I0.0113 J-0.0195
G1 F10.0 Z-0.27
G2 F15.0 X0.5557 Y1.4522 I-0.0225 J0.0
G2 Y1.4911 I0.0113 J0.0195
G2 X0.5895 Y1.4716 I0.0113 J-0.0195
G1 F10.0 Z-0.285
G2 F15.0 X0.5557 Y1.4522 I-0.0225 J0.0
G2 Y1.4911 I0.0113 J0.0195
G2 X0.5895 Y1.4716 I0.0113 J-0.0195
G1 F10.0 Z-0.3
G2 F15.0 X0.5557 Y1.4522 I-0.0225 J0.0
G2 Y1.4911 I0.0113 J0.0195
G2 X0.5895 Y1.4716 I0.0113 J-0.0195
G1 F10.0 Z-0.315
G2 F15.0 X0.5557 Y1.4522 I-0.0225 J0.0
G2 Y1.4911 I0.0113 J0.0195
G2 X0.5895 Y1.4716 I0.0113 J-0.0195
G1 F10.0 Z-0.33
G2 F15.0 X0.5557 Y1.4522 I-0.0225 J0.0
G2 Y1.4911 I0.0113 J0.0195
G2 X0.5895 Y1.4716 I0.0113 J-0.0195
G1 F10.0 Z-0.345
G2 F15.0 X0.5557 Y1.4522 I-0.0225 J0.0
G2 Y1.4911 I0.0113 J0.0195
G2 X0.5895 Y1.4716 I0.0113 J-0.0195
G1 F10.0 Z-0.36
G2 F15.0 X0.5557 Y1.4522 I-0.0225 J0.0
G2 Y1.4911 I0.0113 J0.0195
G2 X0.5895 Y1.4716 I0.0113 J-0.0195
G1 F10.0 Z-0.375
G2 F15.0 X0.5557 Y1.4522 I-0.0225 J0.0
G2 Y1.4911 I0.0113 J0.0195
G2 X0.5895 Y1.4716 I0.0113 J-0.0195
G1 F10.0 Z-0.39
G2 F15.0 X0.5557 Y1.4522 I-0.0225 J0.0
G2 Y1.4911 I0.0113 J0.0195
G2 X0.5895 Y1.4716 I0.0113 J-0.0195
G0 Z0.125
G0 X1.018 Y1.658
G0 Z0.0625
G1 F10.0 Z-0.015
G2 F15.0 X1.0273 Y1.6865 I0.0206 J0.009
G2 X1.0611 Y1.667 I0.0113 J-0.0195
G2 X1.0273 Y1.6475 I-0.0225 J0.0
G2 X1.018 Y1.658 I0.0113 J0.0195
G1 F10.0 Z-0.03
G2 F15.0 X1.0273 Y1.6865 I0.0206 J0.009
G2 X1.0611 Y1.667 I0.0113 J-0.0195
G2 X1.0273 Y1.6475 I-0.0225 J0.0
G2 X1.018 Y1.658 I0.0113 J0.0195
G1 F10.0 Z-0.045
G2 F15.0 X1.0273 Y1.6865 I0.0206 J0.009
G2 X1.0611 Y1.667 I0.0113 J-0.0195
G2 X1.0273 Y1.6475 I-0.0225 J0.0
G2 X1.018 Y1.658 I0.0113 J0.0195
G1 F10.0 Z-0.06
G2 F15.0 X1.0273 Y1.6865 I0.0206 J0.009
G2 X1.0611 Y1.667 I0.0113 J-0.0195
G2 X1.0273 Y1.6475 I-0.0225 J0.0
G2 X1.018 Y1.658 I0.0113 J0.0195
G1 F10.0 Z-0.075
G2 F15.0 X1.0273 Y1.6865 I0.0206 J0.009
G2 X1.0611 Y1.667 I0.0113 J-0.0195
G2 X1.0273 Y1.6475 I-0.0225 J0.0
G2 X1.018 Y1.658 I0.0113 J0.0195
G1 F10.0 Z-0.09
G2 F15.0 X1.0273 Y1.6865 I0.0206 J0.009
G2 X1.0611 Y1.667 I0.0113 J-0.0195
G2 X1.0273 Y1.6475 I-0.0225 J0.0
G2 X1.018 Y1.658 I0.0113 J0.0195
G1 F10.0 Z-0.105
G2 F15.0 X1.0273 Y1.6865 I0.0206 J0.009
G2 X1.0611 Y1.667 I0.0113 J-0.0195
G2 X1.0273 Y1.6475 I-0.0225 J0.0
G2 X1.018 Y1.658 I0.0113 J0.0195
G1 F10.0 Z-0.12
G2 F15.0 X1.0273 Y1.6865 I0.0206 J0.009
G2 X1.0611 Y1.667 I0.0113 J-0.0195
G2 X1.0273 Y1.6475 I-0.0225 J0.0
G2 X1.018 Y1.658 I0.0113 J0.0195
G1 F10.0 Z-0.135
G2 F15.0 X1.0273 Y1.6865 I0.0206 J0.009
G2 X1.0611 Y1.667 I0.0113 J-0.0195
G2 X1.0273 Y1.6475 I-0.0225 J0.0
G2 X1.018 Y1.658 I0.0113 J0.0195
G1 F10.0 Z-0.15
G2 F15.0 X1.0273 Y1.6865 I0.0206 J0.009
G2 X1.0611 Y1.667 I0.0113 J-0.0195
G2 X1.0273 Y1.6475 I-0.0225 J0.0
G2 X1.018 Y1.658 I0.0113 J0.0195
G1 F10.0 Z-0.165
G2 F15.0 X1.0273 Y1.6865 I0.0206 J0.009
G2 X1.0611 Y1.667 I0.0113 J-0.0195
G2 X1.0273 Y1.6475 I-0.0225 J0.0
G2 X1.018 Y1.658 I0.0113 J0.0195
G1 F10.0 Z-0.18
G2 F15.0 X1.0273 Y1.6865 I0.0206 J0.009
G2 X1.0611 Y1.667 I0.0113 J-0.0195
G2 X1.0273 Y1.6475 I-0.0225 J0.0
G2 X1.018 Y1.658 I0.0113 J0.0195
G1 F10.0 Z-0.195
G2 F15.0 X1.0273 Y1.6865 I0.0206 J0.009
G2 X1.0611 Y1.667 I0.0113 J-0.0195
G2 X1.0273 Y1.6475 I-0.0225 J0.0
G2 X1.018 Y1.658 I0.0113 J0.0195
G1 F10.0 Z-0.21
G2 F15.0 X1.0273 Y1.6865 I0.0206 J0.009
G2 X1.0611 Y1.667 I0.0113 J-0.0195
G2 X1.0273 Y1.6475 I-0.0225 J0.0
G2 X1.018 Y1.658 I0.0113 J0.0195
G1 F10.0 Z-0.225
G2 F15.0 X1.0273 Y1.6865 I0.0206 J0.009
G2 X1.0611 Y1.667 I0.0113 J-0.0195
G2 X1.0273 Y1.6475 I-0.0225 J0.0
G2 X1.018 Y1.658 I0.0113 J0.0195
G1 F10.0 Z-0.24
G2 F15.0 X1.0273 Y1.6865 I0.0206 J0.009
G2 X1.0611 Y1.667 I0.0113 J-0.0195
G2 X1.0273 Y1.6475 I-0.0225 J0.0
G2 X1.018 Y1.658 I0.0113 J0.0195
G1 F10.0 Z-0.255
G2 F15.0 X1.0273 Y1.6865 I0.0206 J0.009
G2 X1.0611 Y1.667 I0.0113 J-0.0195
G2 X1.0273 Y1.6475 I-0.0225 J0.0
G2 X1.018 Y1.658 I0.0113 J0.0195
G1 F10.0 Z-0.27
G2 F15.0 X1.0273 Y1.6865 I0.0206 J0.009
G2 X1.0611 Y1.667 I0.0113 J-0.0195
G2 X1.0273 Y1.6475 I-0.0225 J0.0
G2 X1.018 Y1.658 I0.0113 J0.0195
G1 F10.0 Z-0.285
G2 F15.0 X1.0273 Y1.6865 I0.0206 J0.009
G2 X1.0611 Y1.667 I0.0113 J-0.0195
G2 X1.0273 Y1.6475 I-0.0225 J0.0
G2 X1.018 Y1.658 I0.0113 J0.0195
G1 F10.0 Z-0.3
G2 F15.0 X1.0273 Y1.6865 I0.0206 J0.009
G2 X1.0611 Y1.667 I0.0113 J-0.0195
G2 X1.0273 Y1.6475 I-0.0225 J0.0
G2 X1.018 Y1.658 I0.0113 J0.0195
G1 F10.0 Z-0.315
G2 F15.0 X1.0273 Y1.6865 I0.0206 J0.009
G2 X1.0611 Y1.667 I0.0113 J-0.0195
G2 X1.0273 Y1.6475 I-0.0225 J0.0
G2 X1.018 Y1.658 I0.0113 J0.0195
G1 F10.0 Z-0.33
G2 F15.0 X1.0273 Y1.6865 I0.0206 J0.009
G2 X1.0611 Y1.667 I0.0113 J-0.0195
G2 X1.0273 Y1.6475 I-0.0225 J0.0
G2 X1.018 Y1.658 I0.0113 J0.0195
G1 F10.0 Z-0.345
G2 F15.0 X1.0273 Y1.6865 I0.0206 J0.009
G2 X1.0611 Y1.667 I0.0113 J-0.0195
G2 X1.0273 Y1.6475 I-0.0225 J0.0
G2 X1.018 Y1.658 I0.0113 J0.0195
G1 F10.0 Z-0.36
G2 F15.0 X1.0273 Y1.6865 I0.0206 J0.009
G2 X1.0611 Y1.667 I0.0113 J-0.0195
G2 X1.0273 Y1.6475 I-0.0225 J0.0
G2 X1.018 Y1.658 I0.0113 J0.0195
G1 F10.0 Z-0.375
G2 F15.0 X1.0273 Y1.6865 I0.0206 J0.009
G2 X1.0611 Y1.667 I0.0113 J-0.0195
G2 X1.0273 Y1.6475 I-0.0225 J0.0
G2 X1.018 Y1.658 I0.0113 J0.0195
G1 F10.0 Z-0.39
G2 F15.0 X1.0273 Y1.6865 I0.0206 J0.009
G2 X1.0611 Y1.667 I0.0113 J-0.0195
G2 X1.0273 Y1.6475 I-0.0225 J0.0
G2 X1.018 Y1.658 I0.0113 J0.0195
G0 Z0.125
G0 X1.4892 Y1.4796
G0 Z0.0625
G1 F10.0 Z-0.015
G2 F15.0 X1.499 Y1.4911 I0.021 J-0.008
G2 X1.5327 Y1.4716 I0.0113 J-0.0195
G2 X1.499 Y1.4522 I-0.0225 J0.0
G2 X1.4892 Y1.4796 I0.0113 J0.0195
G1 F10.0 Z-0.03
G2 F15.0 X1.499 Y1.4911 I0.021 J-0.008
G2 X1.5327 Y1.4716 I0.0113 J-0.0195
G2 X1.499 Y1.4522 I-0.0225 J0.0
G2 X1.4892 Y1.4796 I0.0113 J0.0195
G1 F10.0 Z-0.045
G2 F15.0 X1.499 Y1.4911 I0.021 J-0.008
G2 X1.5327 Y1.4716 I0.0113 J-0.0195
G2 X1.499 Y1.4522 I-0.0225 J0.0
G2 X1.4892 Y1.4796 I0.0113 J0.0195
G1 F10.0 Z-0.06
G2 F15.0 X1.499 Y1.4911 I0.021 J-0.008
G2 X1.5327 Y1.4716 I0.0113 J-0.0195
G2 X1.499 Y1.4522 I-0.0225 J0.0
G2 X1.4892 Y1.4796 I0.0113 J0.0195
G1 F10.0 Z-0.075
G2 F15.0 X1.499 Y1.4911 I0.021 J-0.008
G2 X1.5327 Y1.4716 I0.0113 J-0.0195
G2 X1.499 Y1.4522 I-0.0225 J0.0
G2 X1.4892 Y1.4796 I0.0113 J0.0195
G1 F10.0 Z-0.09
G2 F15.0 X1.499 Y1.4911 I0.021 J-0.008
G2 X1.5327 Y1.4716 I0.0113 J-0.0195
G2 X1.499 Y1.4522 I-0.0225 J0.0
G2 X1.4892 Y1.4796 I0.0113 J0.0195
G1 F10.0 Z-0.105
G2 F15.0 X1.499 Y1.4911 I0.021 J-0.008
G2 X1.5327 Y1.4716 I0.0113 J-0.0195
G2 X1.499 Y1.4522 I-0.0225 J0.0
G2 X1.4892 Y1.4796 I0.0113 J0.0195
G1 F10.0 Z-0.12
G2 F15.0 X1.499 Y1.4911 I0.021 J-0.008
G2 X1.5327 Y1.4716 I0.0113 J-0.0195
G2 X1.499 Y1.4522 I-0.0225 J0.0
G2 X1.4892 Y1.4796 I0.0113 J0.0195
G1 F10.0 Z-0.135
G2 F15.0 X1.499 Y1.4911 I0.021 J-0.008
G2 X1.5327 Y1.4716 I0.0113 J-0.0195
G2 X1.499 Y1.4522 I-0.0225 J0.0
G2 X1.4892 Y1.4796 I0.0113 J0.0195
G1 F10.0 Z-0.15
G2 F15.0 X1.499 Y1.4911 I0.021 J-0.008
G2 X1.5327 Y1.4716 I0.0113 J-0.0195
G2 X1.499 Y1.4522 I-0.0225 J0.0
G2 X1.4892 Y1.4796 I0.0113 J0.0195
G1 F10.0 Z-0.165
G2 F15.0 X1.499 Y1.4911 I0.021 J-0.008
G2 X1.5327 Y1.4716 I0.0113 J-0.0195
G2 X1.499 Y1.4522 I-0.0225 J0.0
G2 X1.4892 Y1.4796 I0.0113 J0.0195
G1 F10.0 Z-0.18
G2 F15.0 X1.499 Y1.4911 I0.021 J-0.008
G2 X1.5327 Y1.4716 I0.0113 J-0.0195
G2 X1.499 Y1.4522 I-0.0225 J0.0
G2 X1.4892 Y1.4796 I0.0113 J0.0195
G1 F10.0 Z-0.195
G2 F15.0 X1.499 Y1.4911 I0.021 J-0.008
G2 X1.5327 Y1.4716 I0.0113 J-0.0195
G2 X1.499 Y1.4522 I-0.0225 J0.0
G2 X1.4892 Y1.4796 I0.0113 J0.0195
G1 F10.0 Z-0.21
G2 F15.0 X1.499 Y1.4911 I0.021 J-0.008
G2 X1.5327 Y1.4716 I0.0113 J-0.0195
G2 X1.499 Y1.4522 I-0.0225 J0.0
G2 X1.4892 Y1.4796 I0.0113 J0.0195
G1 F10.0 Z-0.225
G2 F15.0 X1.499 Y1.4911 I0.021 J-0.008
G2 X1.5327 Y1.4716 I0.0113 J-0.0195
G2 X1.499 Y1.4522 I-0.0225 J0.0
G2 X1.4892 Y1.4796 I0.0113 J0.0195
G1 F10.0 Z-0.24
G2 F15.0 X1.499 Y1.4911 I0.021 J-0.008
G2 X1.5327 Y1.4716 I0.0113 J-0.0195
G2 X1.499 Y1.4522 I-0.0225 J0.0
G2 X1.4892 Y1.4796 I0.0113 J0.0195
G1 F10.0 Z-0.255
G2 F15.0 X1.499 Y1.4911 I0.021 J-0.008
G2 X1.5327 Y1.4716 I0.0113 J-0.0195
G2 X1.499 Y1.4522 I-0.0225 J0.0
G2 X1.4892 Y1.4796 I0.0113 J0.0195
G1 F10.0 Z-0.27
G2 F15.0 X1.499 Y1.4911 I0.021 J-0.008
G2 X1.5327 Y1.4716 I0.0113 J-0.0195
G2 X1.499 Y1.4522 I-0.0225 J0.0
G2 X1.4892 Y1.4796 I0.0113 J0.0195
G1 F10.0 Z-0.285
G2 F15.0 X1.499 Y1.4911 I0.021 J-0.008
G2 X1.5327 Y1.4716 I0.0113 J-0.0195
G2 X1.499 Y1.4522 I-0.0225 J0.0
G2 X1.4892 Y1.4796 I0.0113 J0.0195
G1 F10.0 Z-0.3
G2 F15.0 X1.499 Y1.4911 I0.021 J-0.008
G2 X1.5327 Y1.4716 I0.0113 J-0.0195
G2 X1.499 Y1.4522 I-0.0225 J0.0
G2 X1.4892 Y1.4796 I0.0113 J0.0195
G1 F10.0 Z-0.315
G2 F15.0 X1.499 Y1.4911 I0.021 J-0.008
G2 X1.5327 Y1.4716 I0.0113 J-0.0195
G2 X1.499 Y1.4522 I-0.0225 J0.0
G2 X1.4892 Y1.4796 I0.0113 J0.0195
G1 F10.0 Z-0.33
G2 F15.0 X1.499 Y1.4911 I0.021 J-0.008
G2 X1.5327 Y1.4716 I0.0113 J-0.0195
G2 X1.499 Y1.4522 I-0.0225 J0.0
G2 X1.4892 Y1.4796 I0.0113 J0.0195
G1 F10.0 Z-0.345
G2 F15.0 X1.499 Y1.4911 I0.021 J-0.008
G2 X1.5327 Y1.4716 I0.0113 J-0.0195
G2 X1.499 Y1.4522 I-0.0225 J0.0
G2 X1.4892 Y1.4796 I0.0113 J0.0195
G1 F10.0 Z-0.36
G2 F15.0 X1.499 Y1.4911 I0.021 J-0.008
G2 X1.5327 Y1.4716 I0.0113 J-0.0195
G2 X1.499 Y1.4522 I-0.0225 J0.0
G2 X1.4892 Y1.4796 I0.0113 J0.0195
G1 F10.0 Z-0.375
G2 F15.0 X1.499 Y1.4911 I0.021 J-0.008
G2 X1.5327 Y1.4716 I0.0113 J-0.0195
G2 X1.499 Y1.4522 I-0.0225 J0.0
G2 X1.4892 Y1.4796 I0.0113 J0.0195
G1 F10.0 Z-0.39
G2 F15.0 X1.499 Y1.4911 I0.021 J-0.008
G2 X1.5327 Y1.4716 I0.0113 J-0.0195
G2 X1.499 Y1.4522 I-0.0225 J0.0
G2 X1.4892 Y1.4796 I0.0113 J0.0195
G0 Z0.125
G0 X1.6963 Y1.0205
G0 Z0.0625
G1 F10.0 Z-0.015
G2 F15.0 X1.7281 Y1.0 I0.0093 J-0.0205
G2 X1.6943 Y0.9805 I-0.0225 J0.0
G2 Y1.0195 I0.0113 J0.0195
G2 X1.6963 Y1.0205 I0.0113 J-0.0195
G1 F10.0 Z-0.03
G2 F15.0 X1.7281 Y1.0 I0.0093 J-0.0205
G2 X1.6943 Y0.9805 I-0.0225 J0.0
G2 Y1.0195 I0.0113 J0.0195
G2 X1.6963 Y1.0205 I0.0113 J-0.0195
G1 F10.0 Z-0.045
G2 F15.0 X1.7281 Y1.0 I0.0093 J-0.0205
G2 X1.6943 Y0.9805 I-0.0225 J0.0
G2 Y1.0195 I0.0113 J0.0195
G2 X1.6963 Y1.0205 I0.0113 J-0.0195
G1 F10.0 Z-0.06
G2 F15.0 X1.7281 Y1.0 I0.0093 J-0.0205
G2 X1.6943 Y0.9805 I-0.0225 J0.0
G2 Y1.0195 I0.0113 J0.0195
G2 X1.6963 Y1.0205 I0.0113 J-0.0195
G1 F10.0 Z-0.075
G2 F15.0 X1.7281 Y1.0 I0.0093 J-0.0205
G2 X1.6943 Y0.9805 I-0.0225 J0.0
G2 Y1.0195 I0.0113 J0.0195
G2 X1.6963 Y1.0205 I0.0113 J-0.0195
G1 F10.0 Z-0.09
G2 F15.0 X1.7281 Y1.0 I0.0093 J-0.0205
G2 X1.6943 Y0.9805 I-0.0225 J0.0
G2 Y1.0195 I0.0113 J0.0195
G2 X1.6963 Y1.0205 I0.0113 J-0.0195
G1 F10.0 Z-0.105
G2 F15.0 X1.7281 Y1.0 I0.0093 J-0.0205
G2 X1.6943 Y0.9805 I-0.0225 J0.0
G2 Y1.0195 I0.0113 J0.0195
G2 X1.6963 Y1.0205 I0.0113 J-0.0195
G1 F10.0 Z-0.12
G2 F15.0 X1.7281 Y1.0 I0.0093 J-0.0205
G2 X1.6943 Y0.9805 I-0.0225 J0.0
G2 Y1.0195 I0.0113 J0.0195
G2 X1.6963 Y1.0205 I0.0113 J-0.0195
G1 F10.0 Z-0.135
G2 F15.0 X1.7281 Y1.0 I0.0093 J-0.0205
G2 X1.6943 Y0.9805 I-0.0225 J0.0
G2 Y1.0195 I0.0113 J0.0195
G2 X1.6963 Y1.0205 I0.0113 J-0.0195
G1 F10.0 Z-0.15
G2 F15.0 X1.7281 Y1.0 I0.0093 J-0.0205
G2 X1.6943 Y0.9805 I-0.0225 J0.0
G2 Y1.0195 I0.0113 J0.0195
G2 X1.6963 Y1.0205 I0.0113 J-0.0195
G1 F10.0 Z-0.165
G2 F15.0 X1.7281 Y1.0 I0.0093 J-0.0205
G2 X1.6943 Y0.9805 I-0.0225 J0.0
G2 Y1.0195 I0.0113 J0.0195
G2 X1.6963 Y1.0205 I0.0113 J-0.0195
G1 F10.0 Z-0.18
G2 F15.0 X1.7281 Y1.0 I0.0093 J-0.0205
G2 X1.6943 Y0.9805 I-0.0225 J0.0
G2 Y1.0195 I0.0113 J0.0195
G2 X1.6963 Y1.0205 I0.0113 J-0.0195
G1 F10.0 Z-0.195
G2 F15.0 X1.7281 Y1.0 I0.0093 J-0.0205
G2 X1.6943 Y0.9805 I-0.0225 J0.0
G2 Y1.0195 I0.0113 J0.0195
G2 X1.6963 Y1.0205 I0.0113 J-0.0195
G1 F10.0 Z-0.21
G2 F15.0 X1.7281 Y1.0 I0.0093 J-0.0205
G2 X1.6943 Y0.9805 I-0.0225 J0.0
G2 Y1.0195 I0.0113 J0.0195
G2 X1.6963 Y1.0205 I0.0113 J-0.0195
G1 F10.0 Z-0.225
G2 F15.0 X1.7281 Y1.0 I0.0093 J-0.0205
G2 X1.6943 Y0.9805 I-0.0225 J0.0
G2 Y1.0195 I0.0113 J0.0195
G2 X1.6963 Y1.0205 I0.0113 J-0.0195
G1 F10.0 Z-0.24
G2 F15.0 X1.7281 Y1.0 I0.0093 J-0.0205
G2 X1.6943 Y0.9805 I-0.0225 J0.0
G2 Y1.0195 I0.0113 J0.0195
G2 X1.6963 Y1.0205 I0.0113 J-0.0195
G1 F10.0 Z-0.255
G2 F15.0 X1.7281 Y1.0 I0.0093 J-0.0205
G2 X1.6943 Y0.9805 I-0.0225 J0.0
G2 Y1.0195 I0.0113 J0.0195
G2 X1.6963 Y1.0205 I0.0113 J-0.0195
G1 F10.0 Z-0.27
G2 F15.0 X1.7281 Y1.0 I0.0093 J-0.0205
G2 X1.6943 Y0.9805 I-0.0225 J0.0
G2 Y1.0195 I0.0113 J0.0195
G2 X1.6963 Y1.0205 I0.0113 J-0.0195
G1 F10.0 Z-0.285
G2 F15.0 X1.7281 Y1.0 I0.0093 J-0.0205
G2 X1.6943 Y0.9805 I-0.0225 J0.0
G2 Y1.0195 I0.0113 J0.0195
G2 X1.6963 Y1.0205 I0.0113 J-0.0195
G1 F10.0 Z-0.3
G2 F15.0 X1.7281 Y1.0 I0.0093 J-0.0205
G2 X1.6943 Y0.9805 I-0.0225 J0.0
G2 Y1.0195 I0.0113 J0.0195
G2 X1.6963 Y1.0205 I0.0113 J-0.0195
G1 F10.0 Z-0.315
G2 F15.0 X1.7281 Y1.0 I0.0093 J-0.0205
G2 X1.6943 Y0.9805 I-0.0225 J0.0
G2 Y1.0195 I0.0113 J0.0195
G2 X1.6963 Y1.0205 I0.0113 J-0.0195
G1 F10.0 Z-0.33
G2 F15.0 X1.7281 Y1.0 I0.0093 J-0.0205
G2 X1.6943 Y0.9805 I-0.0225 J0.0
G2 Y1.0195 I0.0113 J0.0195
G2 X1.6963 Y1.0205 I0.0113 J-0.0195
G1 F10.0 Z-0.345
G2 F15.0 X1.7281 Y1.0 I0.0093 J-0.0205
G2 X1.6943 Y0.9805 I-0.0225 J0.0
G2 Y1.0195 I0.0113 J0.0195
G2 X1.6963 Y1.0205 I0.0113 J-0.0195
G1 F10.0 Z-0.36
G2 F15.0 X1.7281 Y1.0 I0.0093 J-0.0205
G2 X1.6943 Y0.9805 I-0.0225 J0.0
G2 Y1.0195 I0.0113 J0.0195
G2 X1.6963 Y1.0205 I0.0113 J-0.0195
G1 F10.0 Z-0.375
G2 F15.0 X1.7281 Y1.0 I0.0093 J-0.0205
G2 X1.6943 Y0.9805 I-0.0225 J0.0
G2 Y1.0195 I0.0113 J0.0195
G2 X1.6963 Y1.0205 I0.0113 J-0.0195
G1 F10.0 Z-0.39
G2 F15.0 X1.7281 Y1.0 I0.0093 J-0.0205
G2 X1.6943 Y0.9805 I-0.0225 J0.0
G2 Y1.0195 I0.0113 J0.0195
G2 X1.6963 Y1.0205 I0.0113 J-0.0195
G0 Z0.125
G0 X1.5182 Y0.5494
G0 Z0.0625
G1 F10.0 Z-0.015
G2 F15.0 X1.5327 Y0.5284 I-0.008 J-0.021
G2 X1.499 Y0.5089 I-0.0225 J0.0
G2 Y0.5478 I0.0113 J0.0195
G2 X1.5182 Y0.5494 I0.0113 J-0.0195
G1 F10.0 Z-0.03
G2 F15.0 X1.5327 Y0.5284 I-0.008 J-0.021
G2 X1.499 Y0.5089 I-0.0225 J0.0
G2 Y0.5478 I0.0113 J0.0195
G2 X1.5182 Y0.5494 I0.0113 J-0.0195
G1 F10.0 Z-0.045
G2 F15.0 X1.5327 Y0.5284 I-0.008 J-0.021
G2 X1.499 Y0.5089 I-0.0225 J0.0
G2 Y0.5478 I0.0113 J0.0195
G2 X1.5182 Y0.5494 I0.0113 J-0.0195
G1 F10.0 Z-0.06
G2 F15.0 X1.5327 Y0.5284 I-0.008 J-0.021
G2 X1.499 Y0.5089 I-0.0225 J0.0
G2 Y0.5478 I0.0113 J0.0195
G2 X1.5182 Y0.5494 I0.0113 J-0.0195
G1 F10.0 Z-0.075
G2 F15.0 X1.5327 Y0.5284 I-0.008 J-0.021
G2 X1.499 Y0.5089 I-0.0225 J0.0
G2 Y0.5478 I0.0113 J0.0195
G2 X1.5182 Y0.5494 I0.0113 J-0.0195
G1 F10.0 Z-0.09
G2 F15.0 X1.5327 Y0.5284 I-0.008 J-0.021
G2 X1.499 Y0.5089 I-0.0225 J0.0
G2 Y0.5478 I0.0113 J0.0195
G2 X1.5182 Y0.5494 I0.0113 J-0.0195
G1 F10.0 Z-0.105
G2 F15.0 X1.5327 Y0.5284 I-0.008 J-0.021
G2 X1.499 Y0.5089 I-0.0225 J0.0
G2 Y0.5478 I0.0113 J0.0195
G2 X1.5182 Y0.5494 I0.0113 J-0.0195
G1 F10.0 Z-0.12
G2 F15.0 X1.5327 Y0.5284 I-0.008 J-0.021
G2 X1.499 Y0.5089 I-0.0225 J0.0
G2 Y0.5478 I0.0113 J0.0195
G2 X1.5182 Y0.5494 I0.0113 J-0.0195
G1 F10.0 Z-0.135
G2 F15.0 X1.5327 Y0.5284 I-0.008 J-0.021
G2 X1.499 Y0.5089 I-0.0225 J0.0
G2 Y0.5478 I0.0113 J0.0195
G2 X1.5182 Y0.5494 I0.0113 J-0.0195
G1 F10.0 Z-0.15
G2 F15.0 X1.5327 Y0.5284 I-0.008 J-0.021
G2 X1.499 Y0.5089 I-0.0225 J0.0
G2 Y0.5478 I0.0113 J0.0195
G2 X1.5182 Y0.5494 I0.0113 J-0.0195
G1 F10.0 Z-0.165
G2 F15.0 X1.5327 Y0.5284 I-0.008 J-0.021
G2 X1.499 Y0.5089 I-0.0225 J0.0
G2 Y0.5478 I0.0113 J0.0195
G2 X1.5182 Y0.5494 I0.0113 J-0.0195
G1 F10.0 Z-0.18
G2 F15.0 X1.5327 Y0.5284 I-0.008 J-0.021
G2 X1.499 Y0.5089 I-0.0225 J0.0
G2 Y0.5478 I0.0113 J0.0195
G2 X1.5182 Y0.5494 I0.0113 J-0.0195
G1 F10.0 Z-0.195
G2 F15.0 X1.5327 Y0.5284 I-0.008 J-0.021
G2 X1.499 Y0.5089 I-0.0225 J0.0
G2 Y0.5478 I0.0113 J0.0195
G2 X1.5182 Y0.5494 I0.0113 J-0.0195
G1 F10.0 Z-0.21
G2 F15.0 X1.5327 Y0.5284 I-0.008 J-0.021
G2 X1.499 Y0.5089 I-0.0225 J0.0
G2 Y0.5478 I0.0113 J0.0195
G2 X1.5182 Y0.5494 I0.0113 J-0.0195
G1 F10.0 Z-0.225
G2 F15.0 X1.5327 Y0.5284 I-0.008 J-0.021
G2 X1.499 Y0.5089 I-0.0225 J0.0
G2 Y0.5478 I0.0113 J0.0195
G2 X1.5182 Y0.5494 I0.0113 J-0.0195
G1 F10.0 Z-0.24
G2 F15.0 X1.5327 Y0.5284 I-0.008 J-0.021
G2 X1.499 Y0.5089 I-0.0225 J0.0
G2 Y0.5478 I0.0113 J0.0195
G2 X1.5182 Y0.5494 I0.0113 J-0.0195
G1 F10.0 Z-0.255
G2 F15.0 X1.5327 Y0.5284 I-0.008 J-0.021
G2 X1.499 Y0.5089 I-0.0225 J0.0
G2 Y0.5478 I0.0113 J0.0195
G2 X1.5182 Y0.5494 I0.0113 J-0.0195
G1 F10.0 Z-0.27
G2 F15.0 X1.5327 Y0.5284 I-0.008 J-0.021
G2 X1.499 Y0.5089 I-0.0225 J0.0
G2 Y0.5478 I0.0113 J0.0195
G2 X1.5182 Y0.5494 I0.0113 J-0.0195
G1 F10.0 Z-0.285
G2 F15.0 X1.5327 Y0.5284 I-0.008 J-0.021
G2 X1.499 Y0.5089 I-0.0225 J0.0
G2 Y0.5478 I0.0113 J0.0195
G2 X1.5182 Y0.5494 I0.0113 J-0.0195
G1 F10.0 Z-0.3
G2 F15.0 X1.5327 Y0.5284 I-0.008 J-0.021
G2 X1.499 Y0.5089 I-0.0225 J0.0
G2 Y0.5478 I0.0113 J0.0195
G2 X1.5182 Y0.5494 I0.0113 J-0.0195
G1 F10.0 Z-0.315
G2 F15.0 X1.5327 Y0.5284 I-0.008 J-0.021
G2 X1.499 Y0.5089 I-0.0225 J0.0
G2 Y0.5478 I0.0113 J0.0195
G2 X1.5182 Y0.5494 I0.0113 J-0.0195
G1 F10.0 Z-0.33
G2 F15.0 X1.5327 Y0.5284 I-0.008 J-0.021
G2 X1.499 Y0.5089 I-0.0225 J0.0
G2 Y0.5478 I0.0113 J0.0195
G2 X1.5182 Y0.5494 I0.0113 J-0.0195
G1 F10.0 Z-0.345
G2 F15.0 X1.5327 Y0.5284 I-0.008 J-0.021
G2 X1.499 Y0.5089 I-0.0225 J0.0
G2 Y0.5478 I0.0113 J0.0195
G2 X1.5182 Y0.5494 I0.0113 J-0.0195
G1 F10.0 Z-0.36
G2 F15.0 X1.5327 Y0.5284 I-0.008 J-0.021
G2 X1.499 Y0.5089 I-0.0225 J0.0
G2 Y0.5478 I0.0113 J0.0195
G2 X1.5182 Y0.5494 I0.0113 J-0.0195
G1 F10.0 Z-0.375
G2 F15.0 X1.5327 Y0.5284 I-0.008 J-0.021
G2 X1.499 Y0.5089 I-0.0225 J0.0
G2 Y0.5478 I0.0113 J0.0195
G2 X1.5182 Y0.5494 I0.0113 J-0.0195
G1 F10.0 Z-0.39
G2 F15.0 X1.5327 Y0.5284 I-0.008 J-0.021
G2 X1.499 Y0.5089 I-0.0225 J0.0
G2 Y0.5478 I0.0113 J0.0195
G2 X1.5182 Y0.5494 I0.0113 J-0.0195
G0 Z0.125
G0 X1.0591 Y0.3423
G0 Z0.0625
G1 F10.0 Z-0.015
G2 F15.0 X1.0611 Y0.333 I-0.0205 J-0.0093
G2 X1.0273 Y0.3135 I-0.0225 J0.0
G2 Y0.3525 I0.0113 J0.0195
G2 X1.0591 Y0.3423 I0.0113 J-0.0195
G1 F10.0 Z-0.03
G2 F15.0 X1.0611 Y0.333 I-0.0205 J-0.0093
G2 X1.0273 Y0.3135 I-0.0225 J0.0
G2 Y0.3525 I0.0113 J0.0195
G2 X1.0591 Y0.3423 I0.0113 J-0.0195
G1 F10.0 Z-0.045
G2 F15.0 X1.0611 Y0.333 I-0.0205 J-0.0093
G2 X1.0273 Y0.3135 I-0.0225 J0.0
G2 Y0.3525 I0.0113 J0.0195
G2 X1.0591 Y0.3423 I0.0113 J-0.0195
G1 F10.0 Z-0.06
G2 F15.0 X1.0611 Y0.333 I-0.0205 J-0.0093
G2 X1.0273 Y0.3135 I-0.0225 J0.0
G2 Y0.3525 I0.0113 J0.0195
G2 X1.0591 Y0.3423 I0.0113 J-0.0195
G1 F10.0 Z-0.075
G2 F15.0 X1.0611 Y0.333 I-0.0205 J-0.0093
G2 X1.0273 Y0.3135 I-0.0225 J0.0
G2 Y0.3525 I0.0113 J0.0195
G2 X1.0591 Y0.3423 I0.0113 J-0.0195
G1 F10.0 Z-0.09
G2 F15.0 X1.0611 Y0.333 I-0.0205 J-0.0093
G2 X1.0273 Y0.3135 I-0.0225 J0.0
G2 Y0.3525 I0.0113 J0.0195
G2 X1.0591 Y0.3423 I0.0113 J-0.0195
G1 F10.0 Z-0.105
G2 F15.0 X1.0611 Y0.333 I-0.0205 J-0.0093
G2 X1.0273 Y0.3135 I-0.0225 J0.0
G2 Y0.3525 I0.0113 J0.0195
G2 X1.0591 Y0.3423 I0.0113 J-0.0195
G1 F10.0 Z-0.12
G2 F15.0 X1.0611 Y0.333 I-0.0205 J-0.0093
G2 X1.0273 Y0.3135 I-0.0225 J0.0
G2 Y0.3525 I0.0113 J0.0195
G2 X1.0591 Y0.3423 I0.0113 J-0.0195
G1 F10.0 Z-0.135
G2 F15.0 X1.0611 Y0.333 I-0.0205 J-0.0093
G2 X1.0273 Y0.3135 I-0.0225 J0.0
G2 Y0.3525 I0.0113 J0.0195
G2 X1.0591 Y0.3423 I0.0113 J-0.0195
G1 F10.0 Z-0.15
G2 F15.0 X1.0611 Y0.333 I-0.0205 J-0.0093
G2 X1.0273 Y0.3135 I-0.0225 J0.0
G2 Y0.3525 I0.0113 J0.0195
G2 X1.0591 Y0.3423 I0.0113 J-0.0195
G1 F10.0 Z-0.165
G2 F15.0 X1.0611 Y0.333 I-0.0205 J-0.0093
G2 X1.0273 Y0.3135 I-0.0225 J0.0
G2 Y0.3525 I0.0113 J0.0195
G2 X1.0591 Y0.3423 I0.0113 J-0.0195
G1 F10.0 Z-0.18
G2 F15.0 X1.0611 Y0.333 I-0.0205 J-0.0093
G2 X1.0273 Y0.3135 I-0.0225 J0.0
G2 Y0.3525 I0.0113 J0.0195
G2 X1.0591 Y0.3423 I0.0113 J-0.0195
G1 F10.0 Z-0.195
G2 F15.0 X1.0611 Y0.333 I-0.0205 J-0.0093
G2 X1.0273 Y0.3135 I-0.0225 J0.0
G2 Y0.3525 I0.0113 J0.0195
G2 X1.0591 Y0.3423 I0.0113 J-0.0195
G1 F10.0 Z-0.21
G2 F15.0 X1.0611 Y0.333 I-0.0205 J-0.0093
G2 X1.0273 Y0.3135 I-0.0225 J0.0
G2 Y0.3525 I0.0113 J0.0195
G2 X1.0591 Y0.3423 I0.0113 J-0.0195
G1 F10.0 Z-0.225
G2 F15.0 X1.0611 Y0.333 I-0.0205 J-0.0093
G2 X1.0273 Y0.3135 I-0.0225 J0.0
G2 Y0.3525 I0.0113 J0.0195
G2 X1.0591 Y0.3423 I0.0113 J-0.0195
G1 F10.0 Z-0.24
G2 F15.0 X1.0611 Y0.333 I-0.0205 J-0.0093
G2 X1.0273 Y0.3135 I-0.0225 J0.0
G2 Y0.3525 I0.0113 J0.0195
G2 X1.0591 Y0.3423 I0.0113 J-0.0195
G1 F10.0 Z-0.255
G2 F15.0 X1.0611 Y0.333 I-0.0205 J-0.0093
G2 X1.0273 Y0.3135 I-0.0225 J0.0
G2 Y0.3525 I0.0113 J0.0195
G2 X1.0591 Y0.3423 I0.0113 J-0.0195
G1 F10.0 Z-0.27
G2 F15.0 X1.0611 Y0.333 I-0.0205 J-0.0093
G2 X1.0273 Y0.3135 I-0.0225 J0.0
G2 Y0.3525 I0.0113 J0.0195
G2 X1.0591 Y0.3423 I0.0113 J-0.0195
G1 F10.0 Z-0.285
G2 F15.0 X1.0611 Y0.333 I-0.0205 J-0.0093
G2 X1.0273 Y0.3135 I-0.0225 J0.0
G2 Y0.3525 I0.0113 J0.0195
G2 X1.0591 Y0.3423 I0.0113 J-0.0195
G1 F10.0 Z-0.3
G2 F15.0 X1.0611 Y0.333 I-0.0205 J-0.0093
G2 X1.0273 Y0.3135 I-0.0225 J0.0
G2 Y0.3525 I0.0113 J0.0195
G2 X1.0591 Y0.3423 I0.0113 J-0.0195
G1 F10.0 Z-0.315
G2 F15.0 X1.0611 Y0.333 I-0.0205 J-0.0093
G2 X1.0273 Y0.3135 I-0.0225 J0.0
G2 Y0.3525 I0.0113 J0.0195
G2 X1.0591 Y0.3423 I0.0113 J-0.0195
G1 F10.0 Z-0.33
G2 F15.0 X1.0611 Y0.333 I-0.0205 J-0.0093
G2 X1.0273 Y0.3135 I-0.0225 J0.0
G2 Y0.3525 I0.0113 J0.0195
G2 X1.0591 Y0.3423 I0.0113 J-0.0195
G1 F10.0 Z-0.345
G2 F15.0 X1.0611 Y0.333 I-0.0205 J-0.0093
G2 X1.0273 Y0.3135 I-0.0225 J0.0
G2 Y0.3525 I0.0113 J0.0195
G2 X1.0591 Y0.3423 I0.0113 J-0.0195
G1 F10.0 Z-0.36
G2 F15.0 X1.0611 Y0.333 I-0.0205 J-0.0093
G2 X1.0273 Y0.3135 I-0.0225 J0.0
G2 Y0.3525 I0.0113 J0.0195
G2 X1.0591 Y0.3423 I0.0113 J-0.0195
G1 F10.0 Z-0.375
G2 F15.0 X1.0611 Y0.333 I-0.0205 J-0.0093
G2 X1.0273 Y0.3135 I-0.0225 J0.0
G2 Y0.3525 I0.0113 J0.0195
G2 X1.0591 Y0.3423 I0.0113 J-0.0195
G1 F10.0 Z-0.39
G2 F15.0 X1.0611 Y0.333 I-0.0205 J-0.0093
G2 X1.0273 Y0.3135 I-0.0225 J0.0
G2 Y0.3525 I0.0113 J0.0195
G2 X1.0591 Y0.3423 I0.0113 J-0.0195
G0 Z0.125
G0 X0.588 Y0.5204
G0 Z0.0625
G1 F10.0 Z-0.015
G2 F15.0 X0.5557 Y0.5089 I-0.021 J0.008
G2 Y0.5478 I0.0113 J0.0195
G2 X0.5895 Y0.5284 I0.0113 J-0.0195
G2 X0.588 Y0.5204 I-0.0225 J0.0
G1 F10.0 Z-0.03
G2 F15.0 X0.5557 Y0.5089 I-0.021 J0.008
G2 Y0.5478 I0.0113 J0.0195
G2 X0.5895 Y0.5284 I0.0113 J-0.0195
G2 X0.588 Y0.5204 I-0.0225 J0.0
G1 F10.0 Z-0.045
G2 F15.0 X0.5557 Y0.5089 I-0.021 J0.008
G2 Y0.5478 I0.0113 J0.0195
G2 X0.5895 Y0.5284 I0.0113 J-0.0195
G2 X0.588 Y0.5204 I-0.0225 J0.0
G1 F10.0 Z-0.06
G2 F15.0 X0.5557 Y0.5089 I-0.021 J0.008
G2 Y0.5478 I0.0113 J0.0195
G2 X0.5895 Y0.5284 I0.0113 J-0.0195
G2 X0.588 Y0.5204 I-0.0225 J0.0
G1 F10.0 Z-0.075
G2 F15.0 X0.5557 Y0.5089 I-0.021 J0.008
G2 Y0.5478 I0.0113 J0.0195
G2 X0.5895 Y0.5284 I0.0113 J-0.0195
G2 X0.588 Y0.5204 I-0.0225 J0.0
G1 F10.0 Z-0.09
G2 F15.0 X0.5557 Y0.5089 I-0.021 J0.008
G2 Y0.5478 I0.0113 J0.0195
G2 X0.5895 Y0.5284 I0.0113 J-0.0195
G2 X0.588 Y0.5204 I-0.0225 J0.0
G1 F10.0 Z-0.105
G2 F15.0 X0.5557 Y0.5089 I-0.021 J0.008
G2 Y0.5478 I0.0113 J0.0195
G2 X0.5895 Y0.5284 I0.0113 J-0.0195
G2 X0.588 Y0.5204 I-0.0225 J0.0
G1 F10.0 Z-0.12
G2 F15.0 X0.5557 Y0.5089 I-0.021 J0.008
G2 Y0.5478 I0.0113 J0.0195
G2 X0.5895 Y0.5284 I0.0113 J-0.0195
G2 X0.588 Y0.5204 I-0.0225 J0.0
G1 F10.0 Z-0.135
G2 F15.0 X0.5557 Y0.5089 I-0.021 J0.008
G2 Y0.5478 I0.0113 J0.0195
G2 X0.5895 Y0.5284 I0.0113 J-0.0195
G2 X0.588 Y0.5204 I-0.0225 J0.0
G1 F10.0 Z-0.15
G2 F15.0 X0.5557 Y0.5089 I-0.021 J0.008
G2 Y0.5478 I0.0113 J0.0195
G2 X0.5895 Y0.5284 I0.0113 J-0.0195
G2 X0.588 Y0.5204 I-0.0225 J0.0
G1 F10.0 Z-0.165
G2 F15.0 X0.5557 Y0.5089 I-0.021 J0.008
G2 Y0.5478 I0.0113 J0.0195
G2 X0.5895 Y0.5284 I0.0113 J-0.0195
G2 X0.588 Y0.5204 I-0.0225 J0.0
G1 F10.0 Z-0.18
G2 F15.0 X0.5557 Y0.5089 I-0.021 J0.008
G2 Y0.5478 I0.0113 J0.0195
G2 X0.5895 Y0.5284 I0.0113 J-0.0195
G2 X0.588 Y0.5204 I-0.0225 J0.0
G1 F10.0 Z-0.195
G2 F15.0 X0.5557 Y0.5089 I-0.021 J0.008
G2 Y0.5478 I0.0113 J0.0195
G2 X0.5895 Y0.5284 I0.0113 J-0.0195
G2 X0.588 Y0.5204 I-0.0225 J0.0
G1 F10.0 Z-0.21
G2 F15.0 X0.5557 Y0.5089 I-0.021 J0.008
G2 Y0.5478 I0.0113 J0.0195
G2 X0.5895 Y0.5284 I0.0113 J-0.0195
G2 X0.588 Y0.5204 I-0.0225 J0.0
G1 F10.0 Z-0.225
G2 F15.0 X0.5557 Y0.5089 I-0.021 J0.008
G2 Y0.5478 I0.0113 J0.0195
G2 X0.5895 Y0.5284 I0.0113 J-0.0195
G2 X0.588 Y0.5204 I-0.0225 J0.0
G1 F10.0 Z-0.24
G2 F15.0 X0.5557 Y0.5089 I-0.021 J0.008
G2 Y0.5478 I0.0113 J0.0195
G2 X0.5895 Y0.5284 I0.0113 J-0.0195
G2 X0.588 Y0.5204 I-0.0225 J0.0
G1 F10.0 Z-0.255
G2 F15.0 X0.5557 Y0.5089 I-0.021 J0.008
G2 Y0.5478 I0.0113 J0.0195
G2 X0.5895 Y0.5284 I0.0113 J-0.0195
G2 X0.588 Y0.5204 I-0.0225 J0.0
G1 F10.0 Z-0.27
G2 F15.0 X0.5557 Y0.5089 I-0.021 J0.008
G2 Y0.5478 I0.0113 J0.0195
G2 X0.5895 Y0.5284 I0.0113 J-0.0195
G2 X0.588 Y0.5204 I-0.0225 J0.0
G1 F10.0 Z-0.285
G2 F15.0 X0.5557 Y0.5089 I-0.021 J0.008
G2 Y0.5478 I0.0113 J0.0195
G2 X0.5895 Y0.5284 I0.0113 J-0.0195
G2 X0.588 Y0.5204 I-0.0225 J0.0
G1 F10.0 Z-0.3
G2 F15.0 X0.5557 Y0.5089 I-0.021 J0.008
G2 Y0.5478 I0.0113 J0.0195
G2 X0.5895 Y0.5284 I0.0113 J-0.0195
G2 X0.588 Y0.5204 I-0.0225 J0.0
G1 F10.0 Z-0.315
G2 F15.0 X0.5557 Y0.5089 I-0.021 J0.008
G2 Y0.5478 I0.0113 J0.0195
G2 X0.5895 Y0.5284 I0.0113 J-0.0195
G2 X0.588 Y0.5204 I-0.0225 J0.0
G1 F10.0 Z-0.33
G2 F15.0 X0.5557 Y0.5089 I-0.021 J0.008
G2 Y0.5478 I0.0113 J0.0195
G2 X0.5895 Y0.5284 I0.0113 J-0.0195
G2 X0.588 Y0.5204 I-0.0225 J0.0
G1 F10.0 Z-0.345
G2 F15.0 X0.5557 Y0.5089 I-0.021 J0.008
G2 Y0.5478 I0.0113 J0.0195
G2 X0.5895 Y0.5284 I0.0113 J-0.0195
G2 X0.588 Y0.5204 I-0.0225 J0.0
G1 F10.0 Z-0.36
G2 F15.0 X0.5557 Y0.5089 I-0.021 J0.008
G2 Y0.5478 I0.0113 J0.0195
G2 X0.5895 Y0.5284 I0.0113 J-0.0195
G2 X0.588 Y0.5204 I-0.0225 J0.0
G1 F10.0 Z-0.375
G2 F15.0 X0.5557 Y0.5089 I-0.021 J0.008
G2 Y0.5478 I0.0113 J0.0195
G2 X0.5895 Y0.5284 I0.0113 J-0.0195
G2 X0.588 Y0.5204 I-0.0225 J0.0
G1 F10.0 Z-0.39
G2 F15.0 X0.5557 Y0.5089 I-0.021 J0.008
G2 Y0.5478 I0.0113 J0.0195
G2 X0.5895 Y0.5284 I0.0113 J-0.0195
G2 X0.588 Y0.5204 I-0.0225 J0.0
G0 Z0.125
G0 X0.3809 Y0.9795
G0 Z0.0625
G1 F10.0 Z-0.015
G2 F15.0 X0.3603 Y0.9805 I-0.0093 J0.0205
G2 Y1.0195 I0.0113 J0.0195
G2 X0.3941 Y1.0 I0.0113 J-0.0195
G2 X0.3809 Y0.9795 I-0.0225 J0.0
G1 F10.0 Z-0.03
G2 F15.0 X0.3603 Y0.9805 I-0.0093 J0.0205
G2 Y1.0195 I0.0113 J0.0195
G2 X0.3941 Y1.0 I0.0113 J-0.0195
G2 X0.3809 Y0.9795 I-0.0225 J0.0
G1 F10.0 Z-0.045
G2 F15.0 X0.3603 Y0.9805 I-0.0093 J0.0205
G2 Y1.0195 I0.0113 J0.0195
G2 X0.3941 Y1.0 I0.0113 J-0.0195
G2 X0.3809 Y0.9795 I-0.0225 J0.0
G1 F10.0 Z-0.06
G2 F15.0 X0.3603 Y0.9805 I-0.0093 J0.0205
G2 Y1.0195 I0.0113 J0.0195
G2 X0.3941 Y1.0 I0.0113 J-0.0195
G2 X0.3809 Y0.9795 I-0.0225 J0.0
G1 F10.0 Z-0.075
G2 F15.0 X0.3603 Y0.9805 I-0.0093 J0.0205
G2 Y1.0195 I0.0113 J0.0195
G2 X0.3941 Y1.0 I0.0113 J-0.0195
G2 X0.3809 Y0.9795 I-0.0225 J0.0
G1 F10.0 Z-0.09
G2 F15.0 X0.3603 Y0.9805 I-0.0093 J0.0205
G2 Y1.0195 I0.0113 J0.0195
G2 X0.3941 Y1.0 I0.0113 J-0.0195
G2 X0.3809 Y0.9795 I-0.0225 J0.0
G1 F10.0 Z-0.105
G2 F15.0 X0.3603 Y0.9805 I-0.0093 J0.0205
G2 Y1.0195 I0.0113 J0.0195
G2 X0.3941 Y1.0 I0.0113 J-0.0195
G2 X0.3809 Y0.9795 I-0.0225 J0.0
G1 F10.0 Z-0.12
G2 F15.0 X0.3603 Y0.9805 I-0.0093 J0.0205
G2 Y1.0195 I0.0113 J0.0195
G2 X0.3941 Y1.0 I0.0113 J-0.0195
G2 X0.3809 Y0.9795 I-0.0225 J0.0
G1 F10.0 Z-0.135
G2 F15.0 X0.3603 Y0.9805 I-0.0093 J0.0205
G2 Y1.0195 I0.0113 J0.0195
G2 X0.3941 Y1.0 I0.0113 J-0.0195
G2 X0.3809 Y0.9795 I-0.0225 J0.0
G1 F10.0 Z-0.15
G2 F15.0 X0.3603 Y0.9805 I-0.0093 J0.0205
G2 Y1.0195 I0.0113 J0.0195
G2 X0.3941 Y1.0 I0.0113 J-0.0195
G2 X0.3809 Y0.9795 I-0.0225 J0.0
G1 F10.0 Z-0.165
G2 F15.0 X0.3603 Y0.9805 I-0.0093 J0.0205
G2 Y1.0195 I0.0113 J0.0195
G2 X0.3941 Y1.0 I0.0113 J-0.0195
G2 X0.3809 Y0.9795 I-0.0225 J0.0
G1 F10.0 Z-0.18
G2 F15.0 X0.3603 Y0.9805 I-0.0093 J0.0205
G2 Y1.0195 I0.0113 J0.0195
G2 X0.3941 Y1.0 I0.0113 J-0.0195
G2 X0.3809 Y0.9795 I-0.0225 J0.0
G1 F10.0 Z-0.195
G2 F15.0 X0.3603 Y0.9805 I-0.0093 J0.0205
G2 Y1.0195 I0.0113 J0.0195
G2 X0.3941 Y1.0 I0.0113 J-0.0195
G2 X0.3809 Y0.9795 I-0.0225 J0.0
G1 F10.0 Z-0.21
G2 F15.0 X0.3603 Y0.9805 I-0.0093 J0.0205
G2 Y1.0195 I0.0113 J0.0195
G2 X0.3941 Y1.0 I0.0113 J-0.0195
G2 X0.3809 Y0.9795 I-0.0225 J0.0
G1 F10.0 Z-0.225
G2 F15.0 X0.3603 Y0.9805 I-0.0093 J0.0205
G2 Y1.0195 I0.0113 J0.0195
G2 X0.3941 Y1.0 I0.0113 J-0.0195
G2 X0.3809 Y0.9795 I-0.0225 J0.0
G1 F10.0 Z-0.24
G2 F15.0 X0.3603 Y0.9805 I-0.0093 J0.0205
G2 Y1.0195 I0.0113 J0.0195
G2 X0.3941 Y1.0 I0.0113 J-0.0195
G2 X0.3809 Y0.9795 I-0.0225 J0.0
G1 F10.0 Z-0.255
G2 F15.0 X0.3603 Y0.9805 I-0.0093 J0.0205
G2 Y1.0195 I0.0113 J0.0195
G2 X0.3941 Y1.0 I0.0113 J-0.0195
G2 X0.3809 Y0.9795 I-0.0225 J0.0
G1 F10.0 Z-0.27
G2 F15.0 X0.3603 Y0.9805 I-0.0093 J0.0205
G2 Y1.0195 I0.0113 J0.0195
G2 X0.3941 Y1.0 I0.0113 J-0.0195
G2 X0.3809 Y0.9795 I-0.0225 J0.0
G1 F10.0 Z-0.285
G2 F15.0 X0.3603 Y0.9805 I-0.0093 J0.0205
G2 Y1.0195 I0.0113 J0.0195
G2 X0.3941 Y1.0 I0.0113 J-0.0195
G2 X0.3809 Y0.9795 I-0.0225 J0.0
G1 F10.0 Z-0.3
G2 F15.0 X0.3603 Y0.9805 I-0.0093 J0.0205
G2 Y1.0195 I0.0113 J0.0195
G2 X0.3941 Y1.0 I0.0113 J-0.0195
G2 X0.3809 Y0.9795 I-0.0225 J0.0
G1 F10.0 Z-0.315
G2 F15.0 X0.3603 Y0.9805 I-0.0093 J0.0205
G2 Y1.0195 I0.0113 J0.0195
G2 X0.3941 Y1.0 I0.0113 J-0.0195
G2 X0.3809 Y0.9795 I-0.0225 J0.0
G1 F10.0 Z-0.33
G2 F15.0 X0.3603 Y0.9805 I-0.0093 J0.0205
G2 Y1.0195 I0.0113 J0.0195
G2 X0.3941 Y1.0 I0.0113 J-0.0195
G2 X0.3809 Y0.9795 I-0.0225 J0.0
G1 F10.0 Z-0.345
G2 F15.0 X0.3603 Y0.9805 I-0.0093 J0.0205
G2 Y1.0195 I0.0113 J0.0195
G2 X0.3941 Y1.0 I0.0113 J-0.0195
G2 X0.3809 Y0.9795 I-0.0225 J0.0
G1 F10.0 Z-0.36
G2 F15.0 X0.3603 Y0.9805 I-0.0093 J0.0205
G2 Y1.0195 I0.0113 J0.0195
G2 X0.3941 Y1.0 I0.0113 J-0.0195
G2 X0.3809 Y0.9795 I-0.0225 J0.0
G1 F10.0 Z-0.375
G2 F15.0 X0.3603 Y0.9805 I-0.0093 J0.0205
G2 Y1.0195 I0.0113 J0.0195
G2 X0.3941 Y1.0 I0.0113 J-0.0195
G2 X0.3809 Y0.9795 I-0.0225 J0.0
G1 F10.0 Z-0.39
G2 F15.0 X0.3603 Y0.9805 I-0.0093 J0.0205
G2 Y1.0195 I0.0113 J0.0195
G2 X0.3941 Y1.0 I0.0113 J-0.0195
G2 X0.3809 Y0.9795 I-0.0225 J0.0
G0 Z0.125
M5
M30
