( Made using CamBam - http://www.cambam.info )
( drve_collar_b 5/4/2016 11:20:05 PM )
( T1 : 0.125 )
G20 G90 G64 G40
G0 Z0.125
( T1 : 0.125 )
T1 M6
( shaft_cutout )
G17
M3
G0 X1.0961 Y1.3866
G0 Z0.0625
G1 F10.0 Z-0.015
G1 F15.0 Y1.3229
G3 X1.1369 Y1.2643 I0.0625 J0.0
G2 Y0.7346 I-0.0983 J-0.2649
G3 X1.0961 Y0.676 I0.0217 J-0.0586
G1 Y0.6124
G1 X1.1144 Y0.594
G1 X1.0961 Y0.6124
G1 X0.9811
G1 X0.9628 Y0.594
G1 X0.9811 Y0.6124
G1 Y0.676
G3 X0.9403 Y0.7346 I-0.0625 J0.0
G2 Y1.2643 I0.0983 J0.2649
G3 X0.9811 Y1.3229 I-0.0217 J0.0586
G1 Y1.3866
G1 X0.9628 Y1.4049
G1 X0.9811 Y1.3866
G1 X1.0961
G1 X1.1144 Y1.4049
G1 X1.0961 Y1.3866
G1 F10.0 Z-0.03
G1 F15.0 Y1.3229
G3 X1.1369 Y1.2643 I0.0625 J0.0
G2 Y0.7346 I-0.0983 J-0.2649
G3 X1.0961 Y0.676 I0.0217 J-0.0586
G1 Y0.6124
G1 X1.1144 Y0.594
G1 X1.0961 Y0.6124
G1 X0.9811
G1 X0.9628 Y0.594
G1 X0.9811 Y0.6124
G1 Y0.676
G3 X0.9403 Y0.7346 I-0.0625 J0.0
G2 Y1.2643 I0.0983 J0.2649
G3 X0.9811 Y1.3229 I-0.0217 J0.0586
G1 Y1.3866
G1 X0.9628 Y1.4049
G1 X0.9811 Y1.3866
G1 X1.0961
G1 X1.1144 Y1.4049
G1 X1.0961 Y1.3866
G1 F10.0 Z-0.045
G1 F15.0 Y1.3229
G3 X1.1369 Y1.2643 I0.0625 J0.0
G2 Y0.7346 I-0.0983 J-0.2649
G3 X1.0961 Y0.676 I0.0217 J-0.0586
G1 Y0.6124
G1 X1.1144 Y0.594
G1 X1.0961 Y0.6124
G1 X0.9811
G1 X0.9628 Y0.594
G1 X0.9811 Y0.6124
G1 Y0.676
G3 X0.9403 Y0.7346 I-0.0625 J0.0
G2 Y1.2643 I0.0983 J0.2649
G3 X0.9811 Y1.3229 I-0.0217 J0.0586
G1 Y1.3866
G1 X0.9628 Y1.4049
G1 X0.9811 Y1.3866
G1 X1.0961
G1 X1.1144 Y1.4049
G1 X1.0961 Y1.3866
G1 F10.0 Z-0.06
G1 F15.0 Y1.3229
G3 X1.1369 Y1.2643 I0.0625 J0.0
G2 Y0.7346 I-0.0983 J-0.2649
G3 X1.0961 Y0.676 I0.0217 J-0.0586
G1 Y0.6124
G1 X1.1144 Y0.594
G1 X1.0961 Y0.6124
G1 X0.9811
G1 X0.9628 Y0.594
G1 X0.9811 Y0.6124
G1 Y0.676
G3 X0.9403 Y0.7346 I-0.0625 J0.0
G2 Y1.2643 I0.0983 J0.2649
G3 X0.9811 Y1.3229 I-0.0217 J0.0586
G1 Y1.3866
G1 X0.9628 Y1.4049
G1 X0.9811 Y1.3866
G1 X1.0961
G1 X1.1144 Y1.4049
G1 X1.0961 Y1.3866
G1 F10.0 Z-0.075
G1 F15.0 Y1.3229
G3 X1.1369 Y1.2643 I0.0625 J0.0
G2 Y0.7346 I-0.0983 J-0.2649
G3 X1.0961 Y0.676 I0.0217 J-0.0586
G1 Y0.6124
G1 X1.1144 Y0.594
G1 X1.0961 Y0.6124
G1 X0.9811
G1 X0.9628 Y0.594
G1 X0.9811 Y0.6124
G1 Y0.676
G3 X0.9403 Y0.7346 I-0.0625 J0.0
G2 Y1.2643 I0.0983 J0.2649
G3 X0.9811 Y1.3229 I-0.0217 J0.0586
G1 Y1.3866
G1 X0.9628 Y1.4049
G1 X0.9811 Y1.3866
G1 X1.0961
G1 X1.1144 Y1.4049
G1 X1.0961 Y1.3866
G1 F10.0 Z-0.09
G1 F15.0 Y1.3229
G3 X1.1369 Y1.2643 I0.0625 J0.0
G2 Y0.7346 I-0.0983 J-0.2649
G3 X1.0961 Y0.676 I0.0217 J-0.0586
G1 Y0.6124
G1 X1.1144 Y0.594
G1 X1.0961 Y0.6124
G1 X0.9811
G1 X0.9628 Y0.594
G1 X0.9811 Y0.6124
G1 Y0.676
G3 X0.9403 Y0.7346 I-0.0625 J0.0
G2 Y1.2643 I0.0983 J0.2649
G3 X0.9811 Y1.3229 I-0.0217 J0.0586
G1 Y1.3866
G1 X0.9628 Y1.4049
G1 X0.9811 Y1.3866
G1 X1.0961
G1 X1.1144 Y1.4049
G1 X1.0961 Y1.3866
G1 F10.0 Z-0.105
G1 F15.0 Y1.3229
G3 X1.1369 Y1.2643 I0.0625 J0.0
G2 Y0.7346 I-0.0983 J-0.2649
G3 X1.0961 Y0.676 I0.0217 J-0.0586
G1 Y0.6124
G1 X1.1144 Y0.594
G1 X1.0961 Y0.6124
G1 X0.9811
G1 X0.9628 Y0.594
G1 X0.9811 Y0.6124
G1 Y0.676
G3 X0.9403 Y0.7346 I-0.0625 J0.0
G2 Y1.2643 I0.0983 J0.2649
G3 X0.9811 Y1.3229 I-0.0217 J0.0586
G1 Y1.3866
G1 X0.9628 Y1.4049
G1 X0.9811 Y1.3866
G1 X1.0961
G1 X1.1144 Y1.4049
G1 X1.0961 Y1.3866
G1 F10.0 Z-0.12
G1 F15.0 Y1.3229
G3 X1.1369 Y1.2643 I0.0625 J0.0
G2 Y0.7346 I-0.0983 J-0.2649
G3 X1.0961 Y0.676 I0.0217 J-0.0586
G1 Y0.6124
G1 X1.1144 Y0.594
G1 X1.0961 Y0.6124
G1 X0.9811
G1 X0.9628 Y0.594
G1 X0.9811 Y0.6124
G1 Y0.676
G3 X0.9403 Y0.7346 I-0.0625 J0.0
G2 Y1.2643 I0.0983 J0.2649
G3 X0.9811 Y1.3229 I-0.0217 J0.0586
G1 Y1.3866
G1 X0.9628 Y1.4049
G1 X0.9811 Y1.3866
G1 X1.0961
G1 X1.1144 Y1.4049
G1 X1.0961 Y1.3866
G1 F10.0 Z-0.135
G1 F15.0 Y1.3229
G3 X1.1369 Y1.2643 I0.0625 J0.0
G2 Y0.7346 I-0.0983 J-0.2649
G3 X1.0961 Y0.676 I0.0217 J-0.0586
G1 Y0.6124
G1 X1.1144 Y0.594
G1 X1.0961 Y0.6124
G1 X0.9811
G1 X0.9628 Y0.594
G1 X0.9811 Y0.6124
G1 Y0.676
G3 X0.9403 Y0.7346 I-0.0625 J0.0
G2 Y1.2643 I0.0983 J0.2649
G3 X0.9811 Y1.3229 I-0.0217 J0.0586
G1 Y1.3866
G1 X0.9628 Y1.4049
G1 X0.9811 Y1.3866
G1 X1.0961
G1 X1.1144 Y1.4049
G1 X1.0961 Y1.3866
G1 F10.0 Z-0.15
G1 F15.0 Y1.3229
G3 X1.1369 Y1.2643 I0.0625 J0.0
G2 Y0.7346 I-0.0983 J-0.2649
G3 X1.0961 Y0.676 I0.0217 J-0.0586
G1 Y0.6124
G1 X1.1144 Y0.594
G1 X1.0961 Y0.6124
G1 X0.9811
G1 X0.9628 Y0.594
G1 X0.9811 Y0.6124
G1 Y0.676
G3 X0.9403 Y0.7346 I-0.0625 J0.0
G2 Y1.2643 I0.0983 J0.2649
G3 X0.9811 Y1.3229 I-0.0217 J0.0586
G1 Y1.3866
G1 X0.9628 Y1.4049
G1 X0.9811 Y1.3866
G1 X1.0961
G1 X1.1144 Y1.4049
G1 X1.0961 Y1.3866
G1 F10.0 Z-0.165
G1 F15.0 Y1.3229
G3 X1.1369 Y1.2643 I0.0625 J0.0
G2 Y0.7346 I-0.0983 J-0.2649
G3 X1.0961 Y0.676 I0.0217 J-0.0586
G1 Y0.6124
G1 X1.1144 Y0.594
G1 X1.0961 Y0.6124
G1 X0.9811
G1 X0.9628 Y0.594
G1 X0.9811 Y0.6124
G1 Y0.676
G3 X0.9403 Y0.7346 I-0.0625 J0.0
G2 Y1.2643 I0.0983 J0.2649
G3 X0.9811 Y1.3229 I-0.0217 J0.0586
G1 Y1.3866
G1 X0.9628 Y1.4049
G1 X0.9811 Y1.3866
G1 X1.0961
G1 X1.1144 Y1.4049
G1 X1.0961 Y1.3866
G1 F10.0 Z-0.18
G1 F15.0 Y1.3229
G3 X1.1369 Y1.2643 I0.0625 J0.0
G2 Y0.7346 I-0.0983 J-0.2649
G3 X1.0961 Y0.676 I0.0217 J-0.0586
G1 Y0.6124
G1 X1.1144 Y0.594
G1 X1.0961 Y0.6124
G1 X0.9811
G1 X0.9628 Y0.594
G1 X0.9811 Y0.6124
G1 Y0.676
G3 X0.9403 Y0.7346 I-0.0625 J0.0
G2 Y1.2643 I0.0983 J0.2649
G3 X0.9811 Y1.3229 I-0.0217 J0.0586
G1 Y1.3866
G1 X0.9628 Y1.4049
G1 X0.9811 Y1.3866
G1 X1.0961
G1 X1.1144 Y1.4049
G1 X1.0961 Y1.3866
G1 F10.0 Z-0.195
G1 F15.0 Y1.3229
G3 X1.1369 Y1.2643 I0.0625 J0.0
G2 Y0.7346 I-0.0983 J-0.2649
G3 X1.0961 Y0.676 I0.0217 J-0.0586
G1 Y0.6124
G1 X1.1144 Y0.594
G1 X1.0961 Y0.6124
G1 X0.9811
G1 X0.9628 Y0.594
G1 X0.9811 Y0.6124
G1 Y0.676
G3 X0.9403 Y0.7346 I-0.0625 J0.0
G2 Y1.2643 I0.0983 J0.2649
G3 X0.9811 Y1.3229 I-0.0217 J0.0586
G1 Y1.3866
G1 X0.9628 Y1.4049
G1 X0.9811 Y1.3866
G1 X1.0961
G1 X1.1144 Y1.4049
G1 X1.0961 Y1.3866
G1 F10.0 Z-0.21
G1 F15.0 Y1.3229
G3 X1.1369 Y1.2643 I0.0625 J0.0
G2 Y0.7346 I-0.0983 J-0.2649
G3 X1.0961 Y0.676 I0.0217 J-0.0586
G1 Y0.6124
G1 X1.1144 Y0.594
G1 X1.0961 Y0.6124
G1 X0.9811
G1 X0.9628 Y0.594
G1 X0.9811 Y0.6124
G1 Y0.676
G3 X0.9403 Y0.7346 I-0.0625 J0.0
G2 Y1.2643 I0.0983 J0.2649
G3 X0.9811 Y1.3229 I-0.0217 J0.0586
G1 Y1.3866
G1 X0.9628 Y1.4049
G1 X0.9811 Y1.3866
G1 X1.0961
G1 X1.1144 Y1.4049
G1 X1.0961 Y1.3866
G1 F10.0 Z-0.225
G1 F15.0 Y1.3229
G3 X1.1369 Y1.2643 I0.0625 J0.0
G2 Y0.7346 I-0.0983 J-0.2649
G3 X1.0961 Y0.676 I0.0217 J-0.0586
G1 Y0.6124
G1 X1.1144 Y0.594
G1 X1.0961 Y0.6124
G1 X0.9811
G1 X0.9628 Y0.594
G1 X0.9811 Y0.6124
G1 Y0.676
G3 X0.9403 Y0.7346 I-0.0625 J0.0
G2 Y1.2643 I0.0983 J0.2649
G3 X0.9811 Y1.3229 I-0.0217 J0.0586
G1 Y1.3866
G1 X0.9628 Y1.4049
G1 X0.9811 Y1.3866
G1 X1.0961
G1 X1.1144 Y1.4049
G1 X1.0961 Y1.3866
G1 F10.0 Z-0.24
G1 F15.0 Y1.3229
G3 X1.1369 Y1.2643 I0.0625 J0.0
G2 Y0.7346 I-0.0983 J-0.2649
G3 X1.0961 Y0.676 I0.0217 J-0.0586
G1 Y0.6124
G1 X1.1144 Y0.594
G1 X1.0961 Y0.6124
G1 X0.9811
G1 X0.9628 Y0.594
G1 X0.9811 Y0.6124
G1 Y0.676
G3 X0.9403 Y0.7346 I-0.0625 J0.0
G2 Y1.2643 I0.0983 J0.2649
G3 X0.9811 Y1.3229 I-0.0217 J0.0586
G1 Y1.3866
G1 X0.9628 Y1.4049
G1 X0.9811 Y1.3866
G1 X1.0961
G1 X1.1144 Y1.4049
G1 X1.0961 Y1.3866
G1 F10.0 Z-0.255
G1 F15.0 Y1.3229
G3 X1.1369 Y1.2643 I0.0625 J0.0
G2 Y0.7346 I-0.0983 J-0.2649
G3 X1.0961 Y0.676 I0.0217 J-0.0586
G1 Y0.6124
G1 X1.1144 Y0.594
G1 X1.0961 Y0.6124
G1 X0.9811
G1 X0.9628 Y0.594
G1 X0.9811 Y0.6124
G1 Y0.676
G3 X0.9403 Y0.7346 I-0.0625 J0.0
G2 Y1.2643 I0.0983 J0.2649
G3 X0.9811 Y1.3229 I-0.0217 J0.0586
G1 Y1.3866
G1 X0.9628 Y1.4049
G1 X0.9811 Y1.3866
G1 X1.0961
G1 X1.1144 Y1.4049
G1 X1.0961 Y1.3866
G1 F10.0 Z-0.27
G1 F15.0 Y1.3229
G3 X1.1369 Y1.2643 I0.0625 J0.0
G2 Y0.7346 I-0.0983 J-0.2649
G3 X1.0961 Y0.676 I0.0217 J-0.0586
G1 Y0.6124
G1 X1.1144 Y0.594
G1 X1.0961 Y0.6124
G1 X0.9811
G1 X0.9628 Y0.594
G1 X0.9811 Y0.6124
G1 Y0.676
G3 X0.9403 Y0.7346 I-0.0625 J0.0
G2 Y1.2643 I0.0983 J0.2649
G3 X0.9811 Y1.3229 I-0.0217 J0.0586
G1 Y1.3866
G1 X0.9628 Y1.4049
G1 X0.9811 Y1.3866
G1 X1.0961
G1 X1.1144 Y1.4049
G1 X1.0961 Y1.3866
G1 F10.0 Z-0.285
G1 F15.0 Y1.3229
G3 X1.1369 Y1.2643 I0.0625 J0.0
G2 Y0.7346 I-0.0983 J-0.2649
G3 X1.0961 Y0.676 I0.0217 J-0.0586
G1 Y0.6124
G1 X1.1144 Y0.594
G1 X1.0961 Y0.6124
G1 X0.9811
G1 X0.9628 Y0.594
G1 X0.9811 Y0.6124
G1 Y0.676
G3 X0.9403 Y0.7346 I-0.0625 J0.0
G2 Y1.2643 I0.0983 J0.2649
G3 X0.9811 Y1.3229 I-0.0217 J0.0586
G1 Y1.3866
G1 X0.9628 Y1.4049
G1 X0.9811 Y1.3866
G1 X1.0961
G1 X1.1144 Y1.4049
G1 X1.0961 Y1.3866
G1 F10.0 Z-0.3
G1 F15.0 Y1.3229
G3 X1.1369 Y1.2643 I0.0625 J0.0
G2 Y0.7346 I-0.0983 J-0.2649
G3 X1.0961 Y0.676 I0.0217 J-0.0586
G1 Y0.6124
G1 X1.1144 Y0.594
G1 X1.0961 Y0.6124
G1 X0.9811
G1 X0.9628 Y0.594
G1 X0.9811 Y0.6124
G1 Y0.676
G3 X0.9403 Y0.7346 I-0.0625 J0.0
G2 Y1.2643 I0.0983 J0.2649
G3 X0.9811 Y1.3229 I-0.0217 J0.0586
G1 Y1.3866
G1 X0.9628 Y1.4049
G1 X0.9811 Y1.3866
G1 X1.0961
G1 X1.1144 Y1.4049
G1 X1.0961 Y1.3866
G1 F10.0 Z-0.315
G1 F15.0 Y1.3229
G3 X1.1369 Y1.2643 I0.0625 J0.0
G2 Y0.7346 I-0.0983 J-0.2649
G3 X1.0961 Y0.676 I0.0217 J-0.0586
G1 Y0.6124
G1 X1.1144 Y0.594
G1 X1.0961 Y0.6124
G1 X0.9811
G1 X0.9628 Y0.594
G1 X0.9811 Y0.6124
G1 Y0.676
G3 X0.9403 Y0.7346 I-0.0625 J0.0
G2 Y1.2643 I0.0983 J0.2649
G3 X0.9811 Y1.3229 I-0.0217 J0.0586
G1 Y1.3866
G1 X0.9628 Y1.4049
G1 X0.9811 Y1.3866
G1 X1.0961
G1 X1.1144 Y1.4049
G1 X1.0961 Y1.3866
G1 F10.0 Z-0.33
G1 F15.0 Y1.3229
G3 X1.1369 Y1.2643 I0.0625 J0.0
G2 Y0.7346 I-0.0983 J-0.2649
G3 X1.0961 Y0.676 I0.0217 J-0.0586
G1 Y0.6124
G1 X1.1144 Y0.594
G1 X1.0961 Y0.6124
G1 X0.9811
G1 X0.9628 Y0.594
G1 X0.9811 Y0.6124
G1 Y0.676
G3 X0.9403 Y0.7346 I-0.0625 J0.0
G2 Y1.2643 I0.0983 J0.2649
G3 X0.9811 Y1.3229 I-0.0217 J0.0586
G1 Y1.3866
G1 X0.9628 Y1.4049
G1 X0.9811 Y1.3866
G1 X1.0961
G1 X1.1144 Y1.4049
G1 X1.0961 Y1.3866
G1 F10.0 Z-0.345
G1 F15.0 Y1.3229
G3 X1.1369 Y1.2643 I0.0625 J0.0
G2 Y0.7346 I-0.0983 J-0.2649
G3 X1.0961 Y0.676 I0.0217 J-0.0586
G1 Y0.6124
G1 X1.1144 Y0.594
G1 X1.0961 Y0.6124
G1 X0.9811
G1 X0.9628 Y0.594
G1 X0.9811 Y0.6124
G1 Y0.676
G3 X0.9403 Y0.7346 I-0.0625 J0.0
G2 Y1.2643 I0.0983 J0.2649
G3 X0.9811 Y1.3229 I-0.0217 J0.0586
G1 Y1.3866
G1 X0.9628 Y1.4049
G1 X0.9811 Y1.3866
G1 X1.0961
G1 X1.1144 Y1.4049
G1 X1.0961 Y1.3866
G1 F10.0 Z-0.36
G1 F15.0 Y1.3229
G3 X1.1369 Y1.2643 I0.0625 J0.0
G2 Y0.7346 I-0.0983 J-0.2649
G3 X1.0961 Y0.676 I0.0217 J-0.0586
G1 Y0.6124
G1 X1.1144 Y0.594
G1 X1.0961 Y0.6124
G1 X0.9811
G1 X0.9628 Y0.594
G1 X0.9811 Y0.6124
G1 Y0.676
G3 X0.9403 Y0.7346 I-0.0625 J0.0
G2 Y1.2643 I0.0983 J0.2649
G3 X0.9811 Y1.3229 I-0.0217 J0.0586
G1 Y1.3866
G1 X0.9628 Y1.4049
G1 X0.9811 Y1.3866
G1 X1.0961
G1 X1.1144 Y1.4049
G1 X1.0961 Y1.3866
G1 F10.0 Z-0.375
G1 F15.0 Y1.3229
G3 X1.1369 Y1.2643 I0.0625 J0.0
G2 Y0.7346 I-0.0983 J-0.2649
G3 X1.0961 Y0.676 I0.0217 J-0.0586
G1 Y0.6124
G1 X1.1144 Y0.594
G1 X1.0961 Y0.6124
G1 X0.9811
G1 X0.9628 Y0.594
G1 X0.9811 Y0.6124
G1 Y0.676
G3 X0.9403 Y0.7346 I-0.0625 J0.0
G2 Y1.2643 I0.0983 J0.2649
G3 X0.9811 Y1.3229 I-0.0217 J0.0586
G1 Y1.3866
G1 X0.9628 Y1.4049
G1 X0.9811 Y1.3866
G1 X1.0961
G1 X1.1144 Y1.4049
G1 X1.0961 Y1.3866
G1 F10.0 Z-0.39
G1 F15.0 Y1.3229
G3 X1.1369 Y1.2643 I0.0625 J0.0
G2 Y0.7346 I-0.0983 J-0.2649
G3 X1.0961 Y0.676 I0.0217 J-0.0586
G1 Y0.6124
G1 X1.1144 Y0.594
G1 X1.0961 Y0.6124
G1 X0.9811
G1 X0.9628 Y0.594
G1 X0.9811 Y0.6124
G1 Y0.676
G3 X0.9403 Y0.7346 I-0.0625 J0.0
G2 Y1.2643 I0.0983 J0.2649
G3 X0.9811 Y1.3229 I-0.0217 J0.0586
G1 Y1.3866
G1 X0.9628 Y1.4049
G1 X0.9811 Y1.3866
G1 X1.0961
G1 X1.1144 Y1.4049
G1 X1.0961 Y1.3866
( outline )
G0 Z0.125
G0 X2.1011 Y0.9995
G0 Z0.0625
G1 F10.0 Z-0.015
G3 F15.0 X0.5073 Y1.9196 I-1.0625 J0.0
G3 Y0.0793 I0.5312 J-0.9202
G3 X2.1011 Y0.9995 I0.5312 J0.9202
G1 F10.0 Z-0.03
G3 F15.0 X0.5073 Y1.9196 I-1.0625 J0.0
G3 Y0.0793 I0.5312 J-0.9202
G3 X2.1011 Y0.9995 I0.5312 J0.9202
G1 F10.0 Z-0.045
G3 F15.0 X0.5073 Y1.9196 I-1.0625 J0.0
G3 Y0.0793 I0.5312 J-0.9202
G3 X2.1011 Y0.9995 I0.5312 J0.9202
G1 F10.0 Z-0.06
G3 F15.0 X0.5073 Y1.9196 I-1.0625 J0.0
G3 Y0.0793 I0.5312 J-0.9202
G3 X2.1011 Y0.9995 I0.5312 J0.9202
G1 F10.0 Z-0.075
G3 F15.0 X0.5073 Y1.9196 I-1.0625 J0.0
G3 Y0.0793 I0.5312 J-0.9202
G3 X2.1011 Y0.9995 I0.5312 J0.9202
G1 F10.0 Z-0.09
G3 F15.0 X0.5073 Y1.9196 I-1.0625 J0.0
G3 Y0.0793 I0.5312 J-0.9202
G3 X2.1011 Y0.9995 I0.5312 J0.9202
G1 F10.0 Z-0.105
G3 F15.0 X0.5073 Y1.9196 I-1.0625 J0.0
G3 Y0.0793 I0.5312 J-0.9202
G3 X2.1011 Y0.9995 I0.5312 J0.9202
G1 F10.0 Z-0.12
G3 F15.0 X0.5073 Y1.9196 I-1.0625 J0.0
G3 Y0.0793 I0.5312 J-0.9202
G3 X2.1011 Y0.9995 I0.5312 J0.9202
G1 F10.0 Z-0.135
G3 F15.0 X0.5073 Y1.9196 I-1.0625 J0.0
G3 Y0.0793 I0.5312 J-0.9202
G3 X2.1011 Y0.9995 I0.5312 J0.9202
G1 F10.0 Z-0.15
G3 F15.0 X0.5073 Y1.9196 I-1.0625 J0.0
G3 Y0.0793 I0.5312 J-0.9202
G3 X2.1011 Y0.9995 I0.5312 J0.9202
G1 F10.0 Z-0.165
G3 F15.0 X0.5073 Y1.9196 I-1.0625 J0.0
G3 Y0.0793 I0.5312 J-0.9202
G3 X2.1011 Y0.9995 I0.5312 J0.9202
G1 F10.0 Z-0.18
G3 F15.0 X0.5073 Y1.9196 I-1.0625 J0.0
G3 Y0.0793 I0.5312 J-0.9202
G3 X2.1011 Y0.9995 I0.5312 J0.9202
G1 F10.0 Z-0.195
G3 F15.0 X0.5073 Y1.9196 I-1.0625 J0.0
G3 Y0.0793 I0.5312 J-0.9202
G3 X2.1011 Y0.9995 I0.5312 J0.9202
G1 F10.0 Z-0.21
G3 F15.0 X0.5073 Y1.9196 I-1.0625 J0.0
G3 Y0.0793 I0.5312 J-0.9202
G3 X2.1011 Y0.9995 I0.5312 J0.9202
G1 F10.0 Z-0.225
G3 F15.0 X0.5073 Y1.9196 I-1.0625 J0.0
G3 Y0.0793 I0.5312 J-0.9202
G3 X2.1011 Y0.9995 I0.5312 J0.9202
G1 F10.0 Z-0.24
G3 F15.0 X0.5073 Y1.9196 I-1.0625 J0.0
G3 Y0.0793 I0.5312 J-0.9202
G3 X2.1011 Y0.9995 I0.5312 J0.9202
G1 F10.0 Z-0.255
G3 F15.0 X0.5073 Y1.9196 I-1.0625 J0.0
G3 Y0.0793 I0.5312 J-0.9202
G3 X2.1011 Y0.9995 I0.5312 J0.9202
G1 F10.0 Z-0.27
G3 F15.0 X0.5073 Y1.9196 I-1.0625 J0.0
G3 Y0.0793 I0.5312 J-0.9202
G3 X2.1011 Y0.9995 I0.5312 J0.9202
G1 F10.0 Z-0.285
G3 F15.0 X0.5073 Y1.9196 I-1.0625 J0.0
G3 Y0.0793 I0.5312 J-0.9202
G3 X2.1011 Y0.9995 I0.5312 J0.9202
G1 F10.0 Z-0.3
G3 F15.0 X0.5073 Y1.9196 I-1.0625 J0.0
G3 Y0.0793 I0.5312 J-0.9202
G3 X2.1011 Y0.9995 I0.5312 J0.9202
G1 F10.0 Z-0.315
G3 F15.0 X0.5073 Y1.9196 I-1.0625 J0.0
G3 Y0.0793 I0.5312 J-0.9202
G3 X2.1011 Y0.9995 I0.5312 J0.9202
G1 F10.0 Z-0.33
G3 F15.0 X0.5073 Y1.9196 I-1.0625 J0.0
G3 Y0.0793 I0.5312 J-0.9202
G3 X2.1011 Y0.9995 I0.5312 J0.9202
G1 F10.0 Z-0.345
G3 F15.0 X0.5073 Y1.9196 I-1.0625 J0.0
G3 Y0.0793 I0.5312 J-0.9202
G3 X2.1011 Y0.9995 I0.5312 J0.9202
G1 F10.0 Z-0.36
G3 F15.0 X0.5073 Y1.9196 I-1.0625 J0.0
G3 Y0.0793 I0.5312 J-0.9202
G3 X2.1011 Y0.9995 I0.5312 J0.9202
G1 F10.0 Z-0.375
G3 F15.0 X0.5073 Y1.9196 I-1.0625 J0.0
G3 Y0.0793 I0.5312 J-0.9202
G3 X2.1011 Y0.9995 I0.5312 J0.9202
G1 F10.0 Z-0.39
G3 F15.0 X0.5073 Y1.9196 I-1.0625 J0.0
G3 Y0.0793 I0.5312 J-0.9202
G3 X2.1011 Y0.9995 I0.5312 J0.9202
G0 Z0.125
M5
M30
