( Made using CamBam - http://www.cambam.info )
( drive_coupler_b_x2 5/4/2016 10:41:29 PM )
( T2 : 0.25 )
G20 G90 G64 G40
G0 Z0.125
( T2 : 0.25 )
T2 M6
( pockets )
G17
M3
G0 X1.6581 Y1.4248
G0 Z0.0625
G1 F10.0 Z-0.015
G2 F80.0 X1.6206 Y1.4032 I-0.025 J0.0
G2 Y1.4465 I0.0125 J0.0217
G2 X1.6581 Y1.4248 I0.0125 J-0.0217
G1 F10.0 X1.7081
G2 F80.0 X1.5956 Y1.3599 I-0.075 J0.0
G2 Y1.4898 I0.0375 J0.065
G2 X1.7081 Y1.4248 I0.0375 J-0.065
G1 F10.0 X1.8081
G2 F80.0 X1.5456 Y1.2733 I-0.175 J0.0
G2 Y1.5764 I0.0875 J0.1516
G2 X1.8081 Y1.4248 I0.0875 J-0.1516
G1 F10.0 X1.9081
G2 F80.0 X1.4956 Y1.1867 I-0.275 J0.0
G2 Y1.663 I0.1375 J0.2382
G2 X1.9081 Y1.4248 I0.1375 J-0.2382
G1 F10.0 X2.0081
G2 F80.0 X1.4456 Y1.1001 I-0.375 J0.0
G2 Y1.7496 I0.1875 J0.3248
G2 X2.0081 Y1.4248 I0.1875 J-0.3248
G0 Z0.125
G0 X1.6581
G0 Z0.0475
G1 F10.0 Z-0.03
G2 F80.0 X1.6206 Y1.4032 I-0.025 J0.0
G2 Y1.4465 I0.0125 J0.0217
G2 X1.6581 Y1.4248 I0.0125 J-0.0217
G1 F10.0 X1.7081
G2 F80.0 X1.5956 Y1.3599 I-0.075 J0.0
G2 Y1.4898 I0.0375 J0.065
G2 X1.7081 Y1.4248 I0.0375 J-0.065
G1 F10.0 X1.8081
G2 F80.0 X1.5456 Y1.2733 I-0.175 J0.0
G2 Y1.5764 I0.0875 J0.1516
G2 X1.8081 Y1.4248 I0.0875 J-0.1516
G1 F10.0 X1.9081
G2 F80.0 X1.4956 Y1.1867 I-0.275 J0.0
G2 Y1.663 I0.1375 J0.2382
G2 X1.9081 Y1.4248 I0.1375 J-0.2382
G1 F10.0 X2.0081
G2 F80.0 X1.4456 Y1.1001 I-0.375 J0.0
G2 Y1.7496 I0.1875 J0.3248
G2 X2.0081 Y1.4248 I0.1875 J-0.3248
G0 Z0.125
G0 X1.6581
G0 Z0.0325
G1 F10.0 Z-0.045
G2 F80.0 X1.6206 Y1.4032 I-0.025 J0.0
G2 Y1.4465 I0.0125 J0.0217
G2 X1.6581 Y1.4248 I0.0125 J-0.0217
G1 F10.0 X1.7081
G2 F80.0 X1.5956 Y1.3599 I-0.075 J0.0
G2 Y1.4898 I0.0375 J0.065
G2 X1.7081 Y1.4248 I0.0375 J-0.065
G1 F10.0 X1.8081
G2 F80.0 X1.5456 Y1.2733 I-0.175 J0.0
G2 Y1.5764 I0.0875 J0.1516
G2 X1.8081 Y1.4248 I0.0875 J-0.1516
G1 F10.0 X1.9081
G2 F80.0 X1.4956 Y1.1867 I-0.275 J0.0
G2 Y1.663 I0.1375 J0.2382
G2 X1.9081 Y1.4248 I0.1375 J-0.2382
G1 F10.0 X2.0081
G2 F80.0 X1.4456 Y1.1001 I-0.375 J0.0
G2 Y1.7496 I0.1875 J0.3248
G2 X2.0081 Y1.4248 I0.1875 J-0.3248
G0 Z0.125
G0 X1.6581
G0 Z0.0175
G1 F10.0 Z-0.06
G2 F80.0 X1.6206 Y1.4032 I-0.025 J0.0
G2 Y1.4465 I0.0125 J0.0217
G2 X1.6581 Y1.4248 I0.0125 J-0.0217
G1 F10.0 X1.7081
G2 F80.0 X1.5956 Y1.3599 I-0.075 J0.0
G2 Y1.4898 I0.0375 J0.065
G2 X1.7081 Y1.4248 I0.0375 J-0.065
G1 F10.0 X1.8081
G2 F80.0 X1.5456 Y1.2733 I-0.175 J0.0
G2 Y1.5764 I0.0875 J0.1516
G2 X1.8081 Y1.4248 I0.0875 J-0.1516
G1 F10.0 X1.9081
G2 F80.0 X1.4956 Y1.1867 I-0.275 J0.0
G2 Y1.663 I0.1375 J0.2382
G2 X1.9081 Y1.4248 I0.1375 J-0.2382
G1 F10.0 X2.0081
G2 F80.0 X1.4456 Y1.1001 I-0.375 J0.0
G2 Y1.7496 I0.1875 J0.3248
G2 X2.0081 Y1.4248 I0.1875 J-0.3248
G0 Z0.125
G0 X1.6581
G0 Z0.0025
G1 F10.0 Z-0.075
G2 F80.0 X1.6206 Y1.4032 I-0.025 J0.0
G2 Y1.4465 I0.0125 J0.0217
G2 X1.6581 Y1.4248 I0.0125 J-0.0217
G1 F10.0 X1.7081
G2 F80.0 X1.5956 Y1.3599 I-0.075 J0.0
G2 Y1.4898 I0.0375 J0.065
G2 X1.7081 Y1.4248 I0.0375 J-0.065
G1 F10.0 X1.8081
G2 F80.0 X1.5456 Y1.2733 I-0.175 J0.0
G2 Y1.5764 I0.0875 J0.1516
G2 X1.8081 Y1.4248 I0.0875 J-0.1516
G1 F10.0 X1.9081
G2 F80.0 X1.4956 Y1.1867 I-0.275 J0.0
G2 Y1.663 I0.1375 J0.2382
G2 X1.9081 Y1.4248 I0.1375 J-0.2382
G1 F10.0 X2.0081
G2 F80.0 X1.4456 Y1.1001 I-0.375 J0.0
G2 Y1.7496 I0.1875 J0.3248
G2 X2.0081 Y1.4248 I0.1875 J-0.3248
G0 Z0.125
G0 X1.6581
G0 Z-0.0125
G1 F10.0 Z-0.09
G2 F80.0 X1.6206 Y1.4032 I-0.025 J0.0
G2 Y1.4465 I0.0125 J0.0217
G2 X1.6581 Y1.4248 I0.0125 J-0.0217
G1 F10.0 X1.7081
G2 F80.0 X1.5956 Y1.3599 I-0.075 J0.0
G2 Y1.4898 I0.0375 J0.065
G2 X1.7081 Y1.4248 I0.0375 J-0.065
G1 F10.0 X1.8081
G2 F80.0 X1.5456 Y1.2733 I-0.175 J0.0
G2 Y1.5764 I0.0875 J0.1516
G2 X1.8081 Y1.4248 I0.0875 J-0.1516
G1 F10.0 X1.9081
G2 F80.0 X1.4956 Y1.1867 I-0.275 J0.0
G2 Y1.663 I0.1375 J0.2382
G2 X1.9081 Y1.4248 I0.1375 J-0.2382
G1 F10.0 X2.0081
G2 F80.0 X1.4456 Y1.1001 I-0.375 J0.0
G2 Y1.7496 I0.1875 J0.3248
G2 X2.0081 Y1.4248 I0.1875 J-0.3248
G0 Z0.125
G0 X1.6581
G0 Z-0.0275
G1 F10.0 Z-0.105
G2 F80.0 X1.6206 Y1.4032 I-0.025 J0.0
G2 Y1.4465 I0.0125 J0.0217
G2 X1.6581 Y1.4248 I0.0125 J-0.0217
G1 F10.0 X1.7081
G2 F80.0 X1.5956 Y1.3599 I-0.075 J0.0
G2 Y1.4898 I0.0375 J0.065
G2 X1.7081 Y1.4248 I0.0375 J-0.065
G1 F10.0 X1.8081
G2 F80.0 X1.5456 Y1.2733 I-0.175 J0.0
G2 Y1.5764 I0.0875 J0.1516
G2 X1.8081 Y1.4248 I0.0875 J-0.1516
G1 F10.0 X1.9081
G2 F80.0 X1.4956 Y1.1867 I-0.275 J0.0
G2 Y1.663 I0.1375 J0.2382
G2 X1.9081 Y1.4248 I0.1375 J-0.2382
G1 F10.0 X2.0081
G2 F80.0 X1.4456 Y1.1001 I-0.375 J0.0
G2 Y1.7496 I0.1875 J0.3248
G2 X2.0081 Y1.4248 I0.1875 J-0.3248
G0 Z0.125
G0 X1.6581
G0 Z-0.0425
G1 F10.0 Z-0.12
G2 F80.0 X1.6206 Y1.4032 I-0.025 J0.0
G2 Y1.4465 I0.0125 J0.0217
G2 X1.6581 Y1.4248 I0.0125 J-0.0217
G1 F10.0 X1.7081
G2 F80.0 X1.5956 Y1.3599 I-0.075 J0.0
G2 Y1.4898 I0.0375 J0.065
G2 X1.7081 Y1.4248 I0.0375 J-0.065
G1 F10.0 X1.8081
G2 F80.0 X1.5456 Y1.2733 I-0.175 J0.0
G2 Y1.5764 I0.0875 J0.1516
G2 X1.8081 Y1.4248 I0.0875 J-0.1516
G1 F10.0 X1.9081
G2 F80.0 X1.4956 Y1.1867 I-0.275 J0.0
G2 Y1.663 I0.1375 J0.2382
G2 X1.9081 Y1.4248 I0.1375 J-0.2382
G1 F10.0 X2.0081
G2 F80.0 X1.4456 Y1.1001 I-0.375 J0.0
G2 Y1.7496 I0.1875 J0.3248
G2 X2.0081 Y1.4248 I0.1875 J-0.3248
G0 Z0.125
G0 X1.6581
G0 Z-0.0575
G1 F10.0 Z-0.135
G2 F80.0 X1.6206 Y1.4032 I-0.025 J0.0
G2 Y1.4465 I0.0125 J0.0217
G2 X1.6581 Y1.4248 I0.0125 J-0.0217
G1 F10.0 X1.7081
G2 F80.0 X1.5956 Y1.3599 I-0.075 J0.0
G2 Y1.4898 I0.0375 J0.065
G2 X1.7081 Y1.4248 I0.0375 J-0.065
G1 F10.0 X1.8081
G2 F80.0 X1.5456 Y1.2733 I-0.175 J0.0
G2 Y1.5764 I0.0875 J0.1516
G2 X1.8081 Y1.4248 I0.0875 J-0.1516
G1 F10.0 X1.9081
G2 F80.0 X1.4956 Y1.1867 I-0.275 J0.0
G2 Y1.663 I0.1375 J0.2382
G2 X1.9081 Y1.4248 I0.1375 J-0.2382
G1 F10.0 X2.0081
G2 F80.0 X1.4456 Y1.1001 I-0.375 J0.0
G2 Y1.7496 I0.1875 J0.3248
G2 X2.0081 Y1.4248 I0.1875 J-0.3248
G0 Z0.125
G0 X1.6581
G0 Z-0.0725
G1 F10.0 Z-0.15
G2 F80.0 X1.6206 Y1.4032 I-0.025 J0.0
G2 Y1.4465 I0.0125 J0.0217
G2 X1.6581 Y1.4248 I0.0125 J-0.0217
G1 F10.0 X1.7081
G2 F80.0 X1.5956 Y1.3599 I-0.075 J0.0
G2 Y1.4898 I0.0375 J0.065
G2 X1.7081 Y1.4248 I0.0375 J-0.065
G1 F10.0 X1.8081
G2 F80.0 X1.5456 Y1.2733 I-0.175 J0.0
G2 Y1.5764 I0.0875 J0.1516
G2 X1.8081 Y1.4248 I0.0875 J-0.1516
G1 F10.0 X1.9081
G2 F80.0 X1.4956 Y1.1867 I-0.275 J0.0
G2 Y1.663 I0.1375 J0.2382
G2 X1.9081 Y1.4248 I0.1375 J-0.2382
G1 F10.0 X2.0081
G2 F80.0 X1.4456 Y1.1001 I-0.375 J0.0
G2 Y1.7496 I0.1875 J0.3248
G2 X2.0081 Y1.4248 I0.1875 J-0.3248
G0 Z0.125
G0 X1.6581
G0 Z-0.0875
G1 F10.0 Z-0.165
G2 F80.0 X1.6206 Y1.4032 I-0.025 J0.0
G2 Y1.4465 I0.0125 J0.0217
G2 X1.6581 Y1.4248 I0.0125 J-0.0217
G1 F10.0 X1.7081
G2 F80.0 X1.5956 Y1.3599 I-0.075 J0.0
G2 Y1.4898 I0.0375 J0.065
G2 X1.7081 Y1.4248 I0.0375 J-0.065
G1 F10.0 X1.8081
G2 F80.0 X1.5456 Y1.2733 I-0.175 J0.0
G2 Y1.5764 I0.0875 J0.1516
G2 X1.8081 Y1.4248 I0.0875 J-0.1516
G1 F10.0 X1.9081
G2 F80.0 X1.4956 Y1.1867 I-0.275 J0.0
G2 Y1.663 I0.1375 J0.2382
G2 X1.9081 Y1.4248 I0.1375 J-0.2382
G1 F10.0 X2.0081
G2 F80.0 X1.4456 Y1.1001 I-0.375 J0.0
G2 Y1.7496 I0.1875 J0.3248
G2 X2.0081 Y1.4248 I0.1875 J-0.3248
G0 Z0.125
G0 X1.6581
G0 Z-0.1025
G1 F10.0 Z-0.18
G2 F80.0 X1.6206 Y1.4032 I-0.025 J0.0
G2 Y1.4465 I0.0125 J0.0217
G2 X1.6581 Y1.4248 I0.0125 J-0.0217
G1 F10.0 X1.7081
G2 F80.0 X1.5956 Y1.3599 I-0.075 J0.0
G2 Y1.4898 I0.0375 J0.065
G2 X1.7081 Y1.4248 I0.0375 J-0.065
G1 F10.0 X1.8081
G2 F80.0 X1.5456 Y1.2733 I-0.175 J0.0
G2 Y1.5764 I0.0875 J0.1516
G2 X1.8081 Y1.4248 I0.0875 J-0.1516
G1 F10.0 X1.9081
G2 F80.0 X1.4956 Y1.1867 I-0.275 J0.0
G2 Y1.663 I0.1375 J0.2382
G2 X1.9081 Y1.4248 I0.1375 J-0.2382
G1 F10.0 X2.0081
G2 F80.0 X1.4456 Y1.1001 I-0.375 J0.0
G2 Y1.7496 I0.1875 J0.3248
G2 X2.0081 Y1.4248 I0.1875 J-0.3248
G0 Z0.125
G0 X1.6581
G0 Z-0.1175
G1 F10.0 Z-0.195
G2 F80.0 X1.6206 Y1.4032 I-0.025 J0.0
G2 Y1.4465 I0.0125 J0.0217
G2 X1.6581 Y1.4248 I0.0125 J-0.0217
G1 F10.0 X1.7081
G2 F80.0 X1.5956 Y1.3599 I-0.075 J0.0
G2 Y1.4898 I0.0375 J0.065
G2 X1.7081 Y1.4248 I0.0375 J-0.065
G1 F10.0 X1.8081
G2 F80.0 X1.5456 Y1.2733 I-0.175 J0.0
G2 Y1.5764 I0.0875 J0.1516
G2 X1.8081 Y1.4248 I0.0875 J-0.1516
G1 F10.0 X1.9081
G2 F80.0 X1.4956 Y1.1867 I-0.275 J0.0
G2 Y1.663 I0.1375 J0.2382
G2 X1.9081 Y1.4248 I0.1375 J-0.2382
G1 F10.0 X2.0081
G2 F80.0 X1.4456 Y1.1001 I-0.375 J0.0
G2 Y1.7496 I0.1875 J0.3248
G2 X2.0081 Y1.4248 I0.1875 J-0.3248
G0 Z0.125
G0 X1.6581
G0 Z-0.1325
G1 F10.0 Z-0.21
G2 F80.0 X1.6206 Y1.4032 I-0.025 J0.0
G2 Y1.4465 I0.0125 J0.0217
G2 X1.6581 Y1.4248 I0.0125 J-0.0217
G1 F10.0 X1.7081
G2 F80.0 X1.5956 Y1.3599 I-0.075 J0.0
G2 Y1.4898 I0.0375 J0.065
G2 X1.7081 Y1.4248 I0.0375 J-0.065
G1 F10.0 X1.8081
G2 F80.0 X1.5456 Y1.2733 I-0.175 J0.0
G2 Y1.5764 I0.0875 J0.1516
G2 X1.8081 Y1.4248 I0.0875 J-0.1516
G1 F10.0 X1.9081
G2 F80.0 X1.4956 Y1.1867 I-0.275 J0.0
G2 Y1.663 I0.1375 J0.2382
G2 X1.9081 Y1.4248 I0.1375 J-0.2382
G1 F10.0 X2.0081
G2 F80.0 X1.4456 Y1.1001 I-0.375 J0.0
G2 Y1.7496 I0.1875 J0.3248
G2 X2.0081 Y1.4248 I0.1875 J-0.3248
G0 Z0.125
G0 X1.6581
G0 Z-0.1475
G1 F10.0 Z-0.225
G2 F80.0 X1.6206 Y1.4032 I-0.025 J0.0
G2 Y1.4465 I0.0125 J0.0217
G2 X1.6581 Y1.4248 I0.0125 J-0.0217
G1 F10.0 X1.7081
G2 F80.0 X1.5956 Y1.3599 I-0.075 J0.0
G2 Y1.4898 I0.0375 J0.065
G2 X1.7081 Y1.4248 I0.0375 J-0.065
G1 F10.0 X1.8081
G2 F80.0 X1.5456 Y1.2733 I-0.175 J0.0
G2 Y1.5764 I0.0875 J0.1516
G2 X1.8081 Y1.4248 I0.0875 J-0.1516
G1 F10.0 X1.9081
G2 F80.0 X1.4956 Y1.1867 I-0.275 J0.0
G2 Y1.663 I0.1375 J0.2382
G2 X1.9081 Y1.4248 I0.1375 J-0.2382
G1 F10.0 X2.0081
G2 F80.0 X1.4456 Y1.1001 I-0.375 J0.0
G2 Y1.7496 I0.1875 J0.3248
G2 X2.0081 Y1.4248 I0.1875 J-0.3248
G0 Z0.125
G0 X1.6581
G0 Z-0.1625
G1 F10.0 Z-0.24
G2 F80.0 X1.6206 Y1.4032 I-0.025 J0.0
G2 Y1.4465 I0.0125 J0.0217
G2 X1.6581 Y1.4248 I0.0125 J-0.0217
G1 F10.0 X1.7081
G2 F80.0 X1.5956 Y1.3599 I-0.075 J0.0
G2 Y1.4898 I0.0375 J0.065
G2 X1.7081 Y1.4248 I0.0375 J-0.065
G1 F10.0 X1.8081
G2 F80.0 X1.5456 Y1.2733 I-0.175 J0.0
G2 Y1.5764 I0.0875 J0.1516
G2 X1.8081 Y1.4248 I0.0875 J-0.1516
G1 F10.0 X1.9081
G2 F80.0 X1.4956 Y1.1867 I-0.275 J0.0
G2 Y1.663 I0.1375 J0.2382
G2 X1.9081 Y1.4248 I0.1375 J-0.2382
G1 F10.0 X2.0081
G2 F80.0 X1.4456 Y1.1001 I-0.375 J0.0
G2 Y1.7496 I0.1875 J0.3248
G2 X2.0081 Y1.4248 I0.1875 J-0.3248
G0 Z0.125
G0 X1.6581
G0 Z-0.1775
G1 F10.0 Z-0.25
G2 F80.0 X1.6206 Y1.4032 I-0.025 J0.0
G2 Y1.4465 I0.0125 J0.0217
G2 X1.6581 Y1.4248 I0.0125 J-0.0217
G1 F10.0 X1.7081
G2 F80.0 X1.5956 Y1.3599 I-0.075 J0.0
G2 Y1.4898 I0.0375 J0.065
G2 X1.7081 Y1.4248 I0.0375 J-0.065
G1 F10.0 X1.8081
G2 F80.0 X1.5456 Y1.2733 I-0.175 J0.0
G2 Y1.5764 I0.0875 J0.1516
G2 X1.8081 Y1.4248 I0.0875 J-0.1516
G1 F10.0 X1.9081
G2 F80.0 X1.4956 Y1.1867 I-0.275 J0.0
G2 Y1.663 I0.1375 J0.2382
G2 X1.9081 Y1.4248 I0.1375 J-0.2382
G1 F10.0 X2.0081
G2 F80.0 X1.4456 Y1.1001 I-0.375 J0.0
G2 Y1.7496 I0.1875 J0.3248
G2 X2.0081 Y1.4248 I0.1875 J-0.3248
G0 Z0.125
G0 X5.2542
G0 Z0.0625
G1 F10.0 Z-0.015
G2 F80.0 X5.2667 Y1.4465 I0.025 J0.0
G2 X5.3042 Y1.4248 I0.0125 J-0.0217
G2 X5.2667 Y1.4032 I-0.025 J0.0
G2 X5.2542 Y1.4248 I0.0125 J0.0217
G1 F10.0 X5.2042
G2 F80.0 X5.2417 Y1.4898 I0.075 J0.0
G2 X5.3542 Y1.4248 I0.0375 J-0.065
G2 X5.2417 Y1.3599 I-0.075 J0.0
G2 X5.2042 Y1.4248 I0.0375 J0.065
G1 F10.0 X5.1042
G2 F80.0 X5.1917 Y1.5764 I0.175 J0.0
G2 X5.4542 Y1.4248 I0.0875 J-0.1516
G2 X5.1917 Y1.2733 I-0.175 J0.0
G2 X5.1042 Y1.4248 I0.0875 J0.1516
G1 F10.0 X5.0042
G2 F80.0 X5.1417 Y1.663 I0.275 J0.0
G2 X5.5542 Y1.4248 I0.1375 J-0.2382
G2 X5.1417 Y1.1867 I-0.275 J0.0
G2 X5.0042 Y1.4248 I0.1375 J0.2382
G1 F10.0 X4.9042
G2 F80.0 X5.0917 Y1.7496 I0.375 J0.0
G2 X5.6542 Y1.4248 I0.1875 J-0.3248
G2 X5.0917 Y1.1001 I-0.375 J0.0
G2 X4.9042 Y1.4248 I0.1875 J0.3248
G0 Z0.125
G0 X5.2542
G0 Z0.0475
G1 F10.0 Z-0.03
G2 F80.0 X5.2667 Y1.4465 I0.025 J0.0
G2 X5.3042 Y1.4248 I0.0125 J-0.0217
G2 X5.2667 Y1.4032 I-0.025 J0.0
G2 X5.2542 Y1.4248 I0.0125 J0.0217
G1 F10.0 X5.2042
G2 F80.0 X5.2417 Y1.4898 I0.075 J0.0
G2 X5.3542 Y1.4248 I0.0375 J-0.065
G2 X5.2417 Y1.3599 I-0.075 J0.0
G2 X5.2042 Y1.4248 I0.0375 J0.065
G1 F10.0 X5.1042
G2 F80.0 X5.1917 Y1.5764 I0.175 J0.0
G2 X5.4542 Y1.4248 I0.0875 J-0.1516
G2 X5.1917 Y1.2733 I-0.175 J0.0
G2 X5.1042 Y1.4248 I0.0875 J0.1516
G1 F10.0 X5.0042
G2 F80.0 X5.1417 Y1.663 I0.275 J0.0
G2 X5.5542 Y1.4248 I0.1375 J-0.2382
G2 X5.1417 Y1.1867 I-0.275 J0.0
G2 X5.0042 Y1.4248 I0.1375 J0.2382
G1 F10.0 X4.9042
G2 F80.0 X5.0917 Y1.7496 I0.375 J0.0
G2 X5.6542 Y1.4248 I0.1875 J-0.3248
G2 X5.0917 Y1.1001 I-0.375 J0.0
G2 X4.9042 Y1.4248 I0.1875 J0.3248
G0 Z0.125
G0 X5.2542
G0 Z0.0325
G1 F10.0 Z-0.045
G2 F80.0 X5.2667 Y1.4465 I0.025 J0.0
G2 X5.3042 Y1.4248 I0.0125 J-0.0217
G2 X5.2667 Y1.4032 I-0.025 J0.0
G2 X5.2542 Y1.4248 I0.0125 J0.0217
G1 F10.0 X5.2042
G2 F80.0 X5.2417 Y1.4898 I0.075 J0.0
G2 X5.3542 Y1.4248 I0.0375 J-0.065
G2 X5.2417 Y1.3599 I-0.075 J0.0
G2 X5.2042 Y1.4248 I0.0375 J0.065
G1 F10.0 X5.1042
G2 F80.0 X5.1917 Y1.5764 I0.175 J0.0
G2 X5.4542 Y1.4248 I0.0875 J-0.1516
G2 X5.1917 Y1.2733 I-0.175 J0.0
G2 X5.1042 Y1.4248 I0.0875 J0.1516
G1 F10.0 X5.0042
G2 F80.0 X5.1417 Y1.663 I0.275 J0.0
G2 X5.5542 Y1.4248 I0.1375 J-0.2382
G2 X5.1417 Y1.1867 I-0.275 J0.0
G2 X5.0042 Y1.4248 I0.1375 J0.2382
G1 F10.0 X4.9042
G2 F80.0 X5.0917 Y1.7496 I0.375 J0.0
G2 X5.6542 Y1.4248 I0.1875 J-0.3248
G2 X5.0917 Y1.1001 I-0.375 J0.0
G2 X4.9042 Y1.4248 I0.1875 J0.3248
G0 Z0.125
G0 X5.2542
G0 Z0.0175
G1 F10.0 Z-0.06
G2 F80.0 X5.2667 Y1.4465 I0.025 J0.0
G2 X5.3042 Y1.4248 I0.0125 J-0.0217
G2 X5.2667 Y1.4032 I-0.025 J0.0
G2 X5.2542 Y1.4248 I0.0125 J0.0217
G1 F10.0 X5.2042
G2 F80.0 X5.2417 Y1.4898 I0.075 J0.0
G2 X5.3542 Y1.4248 I0.0375 J-0.065
G2 X5.2417 Y1.3599 I-0.075 J0.0
G2 X5.2042 Y1.4248 I0.0375 J0.065
G1 F10.0 X5.1042
G2 F80.0 X5.1917 Y1.5764 I0.175 J0.0
G2 X5.4542 Y1.4248 I0.0875 J-0.1516
G2 X5.1917 Y1.2733 I-0.175 J0.0
G2 X5.1042 Y1.4248 I0.0875 J0.1516
G1 F10.0 X5.0042
G2 F80.0 X5.1417 Y1.663 I0.275 J0.0
G2 X5.5542 Y1.4248 I0.1375 J-0.2382
G2 X5.1417 Y1.1867 I-0.275 J0.0
G2 X5.0042 Y1.4248 I0.1375 J0.2382
G1 F10.0 X4.9042
G2 F80.0 X5.0917 Y1.7496 I0.375 J0.0
G2 X5.6542 Y1.4248 I0.1875 J-0.3248
G2 X5.0917 Y1.1001 I-0.375 J0.0
G2 X4.9042 Y1.4248 I0.1875 J0.3248
G0 Z0.125
G0 X5.2542
G0 Z0.0025
G1 F10.0 Z-0.075
G2 F80.0 X5.2667 Y1.4465 I0.025 J0.0
G2 X5.3042 Y1.4248 I0.0125 J-0.0217
G2 X5.2667 Y1.4032 I-0.025 J0.0
G2 X5.2542 Y1.4248 I0.0125 J0.0217
G1 F10.0 X5.2042
G2 F80.0 X5.2417 Y1.4898 I0.075 J0.0
G2 X5.3542 Y1.4248 I0.0375 J-0.065
G2 X5.2417 Y1.3599 I-0.075 J0.0
G2 X5.2042 Y1.4248 I0.0375 J0.065
G1 F10.0 X5.1042
G2 F80.0 X5.1917 Y1.5764 I0.175 J0.0
G2 X5.4542 Y1.4248 I0.0875 J-0.1516
G2 X5.1917 Y1.2733 I-0.175 J0.0
G2 X5.1042 Y1.4248 I0.0875 J0.1516
G1 F10.0 X5.0042
G2 F80.0 X5.1417 Y1.663 I0.275 J0.0
G2 X5.5542 Y1.4248 I0.1375 J-0.2382
G2 X5.1417 Y1.1867 I-0.275 J0.0
G2 X5.0042 Y1.4248 I0.1375 J0.2382
G1 F10.0 X4.9042
G2 F80.0 X5.0917 Y1.7496 I0.375 J0.0
G2 X5.6542 Y1.4248 I0.1875 J-0.3248
G2 X5.0917 Y1.1001 I-0.375 J0.0
G2 X4.9042 Y1.4248 I0.1875 J0.3248
G0 Z0.125
G0 X5.2542
G0 Z-0.0125
G1 F10.0 Z-0.09
G2 F80.0 X5.2667 Y1.4465 I0.025 J0.0
G2 X5.3042 Y1.4248 I0.0125 J-0.0217
G2 X5.2667 Y1.4032 I-0.025 J0.0
G2 X5.2542 Y1.4248 I0.0125 J0.0217
G1 F10.0 X5.2042
G2 F80.0 X5.2417 Y1.4898 I0.075 J0.0
G2 X5.3542 Y1.4248 I0.0375 J-0.065
G2 X5.2417 Y1.3599 I-0.075 J0.0
G2 X5.2042 Y1.4248 I0.0375 J0.065
G1 F10.0 X5.1042
G2 F80.0 X5.1917 Y1.5764 I0.175 J0.0
G2 X5.4542 Y1.4248 I0.0875 J-0.1516
G2 X5.1917 Y1.2733 I-0.175 J0.0
G2 X5.1042 Y1.4248 I0.0875 J0.1516
G1 F10.0 X5.0042
G2 F80.0 X5.1417 Y1.663 I0.275 J0.0
G2 X5.5542 Y1.4248 I0.1375 J-0.2382
G2 X5.1417 Y1.1867 I-0.275 J0.0
G2 X5.0042 Y1.4248 I0.1375 J0.2382
G1 F10.0 X4.9042
G2 F80.0 X5.0917 Y1.7496 I0.375 J0.0
G2 X5.6542 Y1.4248 I0.1875 J-0.3248
G2 X5.0917 Y1.1001 I-0.375 J0.0
G2 X4.9042 Y1.4248 I0.1875 J0.3248
G0 Z0.125
G0 X5.2542
G0 Z-0.0275
G1 F10.0 Z-0.105
G2 F80.0 X5.2667 Y1.4465 I0.025 J0.0
G2 X5.3042 Y1.4248 I0.0125 J-0.0217
G2 X5.2667 Y1.4032 I-0.025 J0.0
G2 X5.2542 Y1.4248 I0.0125 J0.0217
G1 F10.0 X5.2042
G2 F80.0 X5.2417 Y1.4898 I0.075 J0.0
G2 X5.3542 Y1.4248 I0.0375 J-0.065
G2 X5.2417 Y1.3599 I-0.075 J0.0
G2 X5.2042 Y1.4248 I0.0375 J0.065
G1 F10.0 X5.1042
G2 F80.0 X5.1917 Y1.5764 I0.175 J0.0
G2 X5.4542 Y1.4248 I0.0875 J-0.1516
G2 X5.1917 Y1.2733 I-0.175 J0.0
G2 X5.1042 Y1.4248 I0.0875 J0.1516
G1 F10.0 X5.0042
G2 F80.0 X5.1417 Y1.663 I0.275 J0.0
G2 X5.5542 Y1.4248 I0.1375 J-0.2382
G2 X5.1417 Y1.1867 I-0.275 J0.0
G2 X5.0042 Y1.4248 I0.1375 J0.2382
G1 F10.0 X4.9042
G2 F80.0 X5.0917 Y1.7496 I0.375 J0.0
G2 X5.6542 Y1.4248 I0.1875 J-0.3248
G2 X5.0917 Y1.1001 I-0.375 J0.0
G2 X4.9042 Y1.4248 I0.1875 J0.3248
G0 Z0.125
G0 X5.2542
G0 Z-0.0425
G1 F10.0 Z-0.12
G2 F80.0 X5.2667 Y1.4465 I0.025 J0.0
G2 X5.3042 Y1.4248 I0.0125 J-0.0217
G2 X5.2667 Y1.4032 I-0.025 J0.0
G2 X5.2542 Y1.4248 I0.0125 J0.0217
G1 F10.0 X5.2042
G2 F80.0 X5.2417 Y1.4898 I0.075 J0.0
G2 X5.3542 Y1.4248 I0.0375 J-0.065
G2 X5.2417 Y1.3599 I-0.075 J0.0
G2 X5.2042 Y1.4248 I0.0375 J0.065
G1 F10.0 X5.1042
G2 F80.0 X5.1917 Y1.5764 I0.175 J0.0
G2 X5.4542 Y1.4248 I0.0875 J-0.1516
G2 X5.1917 Y1.2733 I-0.175 J0.0
G2 X5.1042 Y1.4248 I0.0875 J0.1516
G1 F10.0 X5.0042
G2 F80.0 X5.1417 Y1.663 I0.275 J0.0
G2 X5.5542 Y1.4248 I0.1375 J-0.2382
G2 X5.1417 Y1.1867 I-0.275 J0.0
G2 X5.0042 Y1.4248 I0.1375 J0.2382
G1 F10.0 X4.9042
G2 F80.0 X5.0917 Y1.7496 I0.375 J0.0
G2 X5.6542 Y1.4248 I0.1875 J-0.3248
G2 X5.0917 Y1.1001 I-0.375 J0.0
G2 X4.9042 Y1.4248 I0.1875 J0.3248
G0 Z0.125
G0 X5.2542
G0 Z-0.0575
G1 F10.0 Z-0.135
G2 F80.0 X5.2667 Y1.4465 I0.025 J0.0
G2 X5.3042 Y1.4248 I0.0125 J-0.0217
G2 X5.2667 Y1.4032 I-0.025 J0.0
G2 X5.2542 Y1.4248 I0.0125 J0.0217
G1 F10.0 X5.2042
G2 F80.0 X5.2417 Y1.4898 I0.075 J0.0
G2 X5.3542 Y1.4248 I0.0375 J-0.065
G2 X5.2417 Y1.3599 I-0.075 J0.0
G2 X5.2042 Y1.4248 I0.0375 J0.065
G1 F10.0 X5.1042
G2 F80.0 X5.1917 Y1.5764 I0.175 J0.0
G2 X5.4542 Y1.4248 I0.0875 J-0.1516
G2 X5.1917 Y1.2733 I-0.175 J0.0
G2 X5.1042 Y1.4248 I0.0875 J0.1516
G1 F10.0 X5.0042
G2 F80.0 X5.1417 Y1.663 I0.275 J0.0
G2 X5.5542 Y1.4248 I0.1375 J-0.2382
G2 X5.1417 Y1.1867 I-0.275 J0.0
G2 X5.0042 Y1.4248 I0.1375 J0.2382
G1 F10.0 X4.9042
G2 F80.0 X5.0917 Y1.7496 I0.375 J0.0
G2 X5.6542 Y1.4248 I0.1875 J-0.3248
G2 X5.0917 Y1.1001 I-0.375 J0.0
G2 X4.9042 Y1.4248 I0.1875 J0.3248
G0 Z0.125
G0 X5.2542
G0 Z-0.0725
G1 F10.0 Z-0.15
G2 F80.0 X5.2667 Y1.4465 I0.025 J0.0
G2 X5.3042 Y1.4248 I0.0125 J-0.0217
G2 X5.2667 Y1.4032 I-0.025 J0.0
G2 X5.2542 Y1.4248 I0.0125 J0.0217
G1 F10.0 X5.2042
G2 F80.0 X5.2417 Y1.4898 I0.075 J0.0
G2 X5.3542 Y1.4248 I0.0375 J-0.065
G2 X5.2417 Y1.3599 I-0.075 J0.0
G2 X5.2042 Y1.4248 I0.0375 J0.065
G1 F10.0 X5.1042
G2 F80.0 X5.1917 Y1.5764 I0.175 J0.0
G2 X5.4542 Y1.4248 I0.0875 J-0.1516
G2 X5.1917 Y1.2733 I-0.175 J0.0
G2 X5.1042 Y1.4248 I0.0875 J0.1516
G1 F10.0 X5.0042
G2 F80.0 X5.1417 Y1.663 I0.275 J0.0
G2 X5.5542 Y1.4248 I0.1375 J-0.2382
G2 X5.1417 Y1.1867 I-0.275 J0.0
G2 X5.0042 Y1.4248 I0.1375 J0.2382
G1 F10.0 X4.9042
G2 F80.0 X5.0917 Y1.7496 I0.375 J0.0
G2 X5.6542 Y1.4248 I0.1875 J-0.3248
G2 X5.0917 Y1.1001 I-0.375 J0.0
G2 X4.9042 Y1.4248 I0.1875 J0.3248
G0 Z0.125
G0 X5.2542
G0 Z-0.0875
G1 F10.0 Z-0.165
G2 F80.0 X5.2667 Y1.4465 I0.025 J0.0
G2 X5.3042 Y1.4248 I0.0125 J-0.0217
G2 X5.2667 Y1.4032 I-0.025 J0.0
G2 X5.2542 Y1.4248 I0.0125 J0.0217
G1 F10.0 X5.2042
G2 F80.0 X5.2417 Y1.4898 I0.075 J0.0
G2 X5.3542 Y1.4248 I0.0375 J-0.065
G2 X5.2417 Y1.3599 I-0.075 J0.0
G2 X5.2042 Y1.4248 I0.0375 J0.065
G1 F10.0 X5.1042
G2 F80.0 X5.1917 Y1.5764 I0.175 J0.0
G2 X5.4542 Y1.4248 I0.0875 J-0.1516
G2 X5.1917 Y1.2733 I-0.175 J0.0
G2 X5.1042 Y1.4248 I0.0875 J0.1516
G1 F10.0 X5.0042
G2 F80.0 X5.1417 Y1.663 I0.275 J0.0
G2 X5.5542 Y1.4248 I0.1375 J-0.2382
G2 X5.1417 Y1.1867 I-0.275 J0.0
G2 X5.0042 Y1.4248 I0.1375 J0.2382
G1 F10.0 X4.9042
G2 F80.0 X5.0917 Y1.7496 I0.375 J0.0
G2 X5.6542 Y1.4248 I0.1875 J-0.3248
G2 X5.0917 Y1.1001 I-0.375 J0.0
G2 X4.9042 Y1.4248 I0.1875 J0.3248
G0 Z0.125
G0 X5.2542
G0 Z-0.1025
G1 F10.0 Z-0.18
G2 F80.0 X5.2667 Y1.4465 I0.025 J0.0
G2 X5.3042 Y1.4248 I0.0125 J-0.0217
G2 X5.2667 Y1.4032 I-0.025 J0.0
G2 X5.2542 Y1.4248 I0.0125 J0.0217
G1 F10.0 X5.2042
G2 F80.0 X5.2417 Y1.4898 I0.075 J0.0
G2 X5.3542 Y1.4248 I0.0375 J-0.065
G2 X5.2417 Y1.3599 I-0.075 J0.0
G2 X5.2042 Y1.4248 I0.0375 J0.065
G1 F10.0 X5.1042
G2 F80.0 X5.1917 Y1.5764 I0.175 J0.0
G2 X5.4542 Y1.4248 I0.0875 J-0.1516
G2 X5.1917 Y1.2733 I-0.175 J0.0
G2 X5.1042 Y1.4248 I0.0875 J0.1516
G1 F10.0 X5.0042
G2 F80.0 X5.1417 Y1.663 I0.275 J0.0
G2 X5.5542 Y1.4248 I0.1375 J-0.2382
G2 X5.1417 Y1.1867 I-0.275 J0.0
G2 X5.0042 Y1.4248 I0.1375 J0.2382
G1 F10.0 X4.9042
G2 F80.0 X5.0917 Y1.7496 I0.375 J0.0
G2 X5.6542 Y1.4248 I0.1875 J-0.3248
G2 X5.0917 Y1.1001 I-0.375 J0.0
G2 X4.9042 Y1.4248 I0.1875 J0.3248
G0 Z0.125
G0 X5.2542
G0 Z-0.1175
G1 F10.0 Z-0.195
G2 F80.0 X5.2667 Y1.4465 I0.025 J0.0
G2 X5.3042 Y1.4248 I0.0125 J-0.0217
G2 X5.2667 Y1.4032 I-0.025 J0.0
G2 X5.2542 Y1.4248 I0.0125 J0.0217
G1 F10.0 X5.2042
G2 F80.0 X5.2417 Y1.4898 I0.075 J0.0
G2 X5.3542 Y1.4248 I0.0375 J-0.065
G2 X5.2417 Y1.3599 I-0.075 J0.0
G2 X5.2042 Y1.4248 I0.0375 J0.065
G1 F10.0 X5.1042
G2 F80.0 X5.1917 Y1.5764 I0.175 J0.0
G2 X5.4542 Y1.4248 I0.0875 J-0.1516
G2 X5.1917 Y1.2733 I-0.175 J0.0
G2 X5.1042 Y1.4248 I0.0875 J0.1516
G1 F10.0 X5.0042
G2 F80.0 X5.1417 Y1.663 I0.275 J0.0
G2 X5.5542 Y1.4248 I0.1375 J-0.2382
G2 X5.1417 Y1.1867 I-0.275 J0.0
G2 X5.0042 Y1.4248 I0.1375 J0.2382
G1 F10.0 X4.9042
G2 F80.0 X5.0917 Y1.7496 I0.375 J0.0
G2 X5.6542 Y1.4248 I0.1875 J-0.3248
G2 X5.0917 Y1.1001 I-0.375 J0.0
G2 X4.9042 Y1.4248 I0.1875 J0.3248
G0 Z0.125
G0 X5.2542
G0 Z-0.1325
G1 F10.0 Z-0.21
G2 F80.0 X5.2667 Y1.4465 I0.025 J0.0
G2 X5.3042 Y1.4248 I0.0125 J-0.0217
G2 X5.2667 Y1.4032 I-0.025 J0.0
G2 X5.2542 Y1.4248 I0.0125 J0.0217
G1 F10.0 X5.2042
G2 F80.0 X5.2417 Y1.4898 I0.075 J0.0
G2 X5.3542 Y1.4248 I0.0375 J-0.065
G2 X5.2417 Y1.3599 I-0.075 J0.0
G2 X5.2042 Y1.4248 I0.0375 J0.065
G1 F10.0 X5.1042
G2 F80.0 X5.1917 Y1.5764 I0.175 J0.0
G2 X5.4542 Y1.4248 I0.0875 J-0.1516
G2 X5.1917 Y1.2733 I-0.175 J0.0
G2 X5.1042 Y1.4248 I0.0875 J0.1516
G1 F10.0 X5.0042
G2 F80.0 X5.1417 Y1.663 I0.275 J0.0
G2 X5.5542 Y1.4248 I0.1375 J-0.2382
G2 X5.1417 Y1.1867 I-0.275 J0.0
G2 X5.0042 Y1.4248 I0.1375 J0.2382
G1 F10.0 X4.9042
G2 F80.0 X5.0917 Y1.7496 I0.375 J0.0
G2 X5.6542 Y1.4248 I0.1875 J-0.3248
G2 X5.0917 Y1.1001 I-0.375 J0.0
G2 X4.9042 Y1.4248 I0.1875 J0.3248
G0 Z0.125
G0 X5.2542
G0 Z-0.1475
G1 F10.0 Z-0.225
G2 F80.0 X5.2667 Y1.4465 I0.025 J0.0
G2 X5.3042 Y1.4248 I0.0125 J-0.0217
G2 X5.2667 Y1.4032 I-0.025 J0.0
G2 X5.2542 Y1.4248 I0.0125 J0.0217
G1 F10.0 X5.2042
G2 F80.0 X5.2417 Y1.4898 I0.075 J0.0
G2 X5.3542 Y1.4248 I0.0375 J-0.065
G2 X5.2417 Y1.3599 I-0.075 J0.0
G2 X5.2042 Y1.4248 I0.0375 J0.065
G1 F10.0 X5.1042
G2 F80.0 X5.1917 Y1.5764 I0.175 J0.0
G2 X5.4542 Y1.4248 I0.0875 J-0.1516
G2 X5.1917 Y1.2733 I-0.175 J0.0
G2 X5.1042 Y1.4248 I0.0875 J0.1516
G1 F10.0 X5.0042
G2 F80.0 X5.1417 Y1.663 I0.275 J0.0
G2 X5.5542 Y1.4248 I0.1375 J-0.2382
G2 X5.1417 Y1.1867 I-0.275 J0.0
G2 X5.0042 Y1.4248 I0.1375 J0.2382
G1 F10.0 X4.9042
G2 F80.0 X5.0917 Y1.7496 I0.375 J0.0
G2 X5.6542 Y1.4248 I0.1875 J-0.3248
G2 X5.0917 Y1.1001 I-0.375 J0.0
G2 X4.9042 Y1.4248 I0.1875 J0.3248
G0 Z0.125
G0 X5.2542
G0 Z-0.1625
G1 F10.0 Z-0.24
G2 F80.0 X5.2667 Y1.4465 I0.025 J0.0
G2 X5.3042 Y1.4248 I0.0125 J-0.0217
G2 X5.2667 Y1.4032 I-0.025 J0.0
G2 X5.2542 Y1.4248 I0.0125 J0.0217
G1 F10.0 X5.2042
G2 F80.0 X5.2417 Y1.4898 I0.075 J0.0
G2 X5.3542 Y1.4248 I0.0375 J-0.065
G2 X5.2417 Y1.3599 I-0.075 J0.0
G2 X5.2042 Y1.4248 I0.0375 J0.065
G1 F10.0 X5.1042
G2 F80.0 X5.1917 Y1.5764 I0.175 J0.0
G2 X5.4542 Y1.4248 I0.0875 J-0.1516
G2 X5.1917 Y1.2733 I-0.175 J0.0
G2 X5.1042 Y1.4248 I0.0875 J0.1516
G1 F10.0 X5.0042
G2 F80.0 X5.1417 Y1.663 I0.275 J0.0
G2 X5.5542 Y1.4248 I0.1375 J-0.2382
G2 X5.1417 Y1.1867 I-0.275 J0.0
G2 X5.0042 Y1.4248 I0.1375 J0.2382
G1 F10.0 X4.9042
G2 F80.0 X5.0917 Y1.7496 I0.375 J0.0
G2 X5.6542 Y1.4248 I0.1875 J-0.3248
G2 X5.0917 Y1.1001 I-0.375 J0.0
G2 X4.9042 Y1.4248 I0.1875 J0.3248
G0 Z0.125
G0 X5.2542
G0 Z-0.1775
G1 F10.0 Z-0.25
G2 F80.0 X5.2667 Y1.4465 I0.025 J0.0
G2 X5.3042 Y1.4248 I0.0125 J-0.0217
G2 X5.2667 Y1.4032 I-0.025 J0.0
G2 X5.2542 Y1.4248 I0.0125 J0.0217
G1 F10.0 X5.2042
G2 F80.0 X5.2417 Y1.4898 I0.075 J0.0
G2 X5.3542 Y1.4248 I0.0375 J-0.065
G2 X5.2417 Y1.3599 I-0.075 J0.0
G2 X5.2042 Y1.4248 I0.0375 J0.065
G1 F10.0 X5.1042
G2 F80.0 X5.1917 Y1.5764 I0.175 J0.0
G2 X5.4542 Y1.4248 I0.0875 J-0.1516
G2 X5.1917 Y1.2733 I-0.175 J0.0
G2 X5.1042 Y1.4248 I0.0875 J0.1516
G1 F10.0 X5.0042
G2 F80.0 X5.1417 Y1.663 I0.275 J0.0
G2 X5.5542 Y1.4248 I0.1375 J-0.2382
G2 X5.1417 Y1.1867 I-0.275 J0.0
G2 X5.0042 Y1.4248 I0.1375 J0.2382
G1 F10.0 X4.9042
G2 F80.0 X5.0917 Y1.7496 I0.375 J0.0
G2 X5.6542 Y1.4248 I0.1875 J-0.3248
G2 X5.0917 Y1.1001 I-0.375 J0.0
G2 X4.9042 Y1.4248 I0.1875 J0.3248
( center_cutout )
G0 Z0.125
G0 X1.7031
G0 Z0.0625
G1 F10.0 Z-0.015
G2 F80.0 X1.5981 Y1.3642 I-0.07 J0.0
G2 Y1.4855 I0.035 J0.0606
G2 X1.7031 Y1.4248 I0.035 J-0.0606
G1 F10.0 Z-0.03
G2 F80.0 X1.5981 Y1.3642 I-0.07 J0.0
G2 Y1.4855 I0.035 J0.0606
G2 X1.7031 Y1.4248 I0.035 J-0.0606
G1 F10.0 Z-0.045
G2 F80.0 X1.5981 Y1.3642 I-0.07 J0.0
G2 Y1.4855 I0.035 J0.0606
G2 X1.7031 Y1.4248 I0.035 J-0.0606
G1 F10.0 Z-0.06
G2 F80.0 X1.5981 Y1.3642 I-0.07 J0.0
G2 Y1.4855 I0.035 J0.0606
G2 X1.7031 Y1.4248 I0.035 J-0.0606
G1 F10.0 Z-0.075
G2 F80.0 X1.5981 Y1.3642 I-0.07 J0.0
G2 Y1.4855 I0.035 J0.0606
G2 X1.7031 Y1.4248 I0.035 J-0.0606
G1 F10.0 Z-0.09
G2 F80.0 X1.5981 Y1.3642 I-0.07 J0.0
G2 Y1.4855 I0.035 J0.0606
G2 X1.7031 Y1.4248 I0.035 J-0.0606
G1 F10.0 Z-0.105
G2 F80.0 X1.5981 Y1.3642 I-0.07 J0.0
G2 Y1.4855 I0.035 J0.0606
G2 X1.7031 Y1.4248 I0.035 J-0.0606
G1 F10.0 Z-0.12
G2 F80.0 X1.5981 Y1.3642 I-0.07 J0.0
G2 Y1.4855 I0.035 J0.0606
G2 X1.7031 Y1.4248 I0.035 J-0.0606
G1 F10.0 Z-0.135
G2 F80.0 X1.5981 Y1.3642 I-0.07 J0.0
G2 Y1.4855 I0.035 J0.0606
G2 X1.7031 Y1.4248 I0.035 J-0.0606
G1 F10.0 Z-0.15
G2 F80.0 X1.5981 Y1.3642 I-0.07 J0.0
G2 Y1.4855 I0.035 J0.0606
G2 X1.7031 Y1.4248 I0.035 J-0.0606
G1 F10.0 Z-0.165
G2 F80.0 X1.5981 Y1.3642 I-0.07 J0.0
G2 Y1.4855 I0.035 J0.0606
G2 X1.7031 Y1.4248 I0.035 J-0.0606
G1 F10.0 Z-0.18
G2 F80.0 X1.5981 Y1.3642 I-0.07 J0.0
G2 Y1.4855 I0.035 J0.0606
G2 X1.7031 Y1.4248 I0.035 J-0.0606
G1 F10.0 Z-0.195
G2 F80.0 X1.5981 Y1.3642 I-0.07 J0.0
G2 Y1.4855 I0.035 J0.0606
G2 X1.7031 Y1.4248 I0.035 J-0.0606
G1 F10.0 Z-0.21
G2 F80.0 X1.5981 Y1.3642 I-0.07 J0.0
G2 Y1.4855 I0.035 J0.0606
G2 X1.7031 Y1.4248 I0.035 J-0.0606
G1 F10.0 Z-0.225
G2 F80.0 X1.5981 Y1.3642 I-0.07 J0.0
G2 Y1.4855 I0.035 J0.0606
G2 X1.7031 Y1.4248 I0.035 J-0.0606
G1 F10.0 Z-0.24
G2 F80.0 X1.5981 Y1.3642 I-0.07 J0.0
G2 Y1.4855 I0.035 J0.0606
G2 X1.7031 Y1.4248 I0.035 J-0.0606
G1 F10.0 Z-0.255
G2 F80.0 X1.5981 Y1.3642 I-0.07 J0.0
G2 Y1.4855 I0.035 J0.0606
G2 X1.7031 Y1.4248 I0.035 J-0.0606
G1 F10.0 Z-0.27
G2 F80.0 X1.5981 Y1.3642 I-0.07 J0.0
G2 Y1.4855 I0.035 J0.0606
G2 X1.7031 Y1.4248 I0.035 J-0.0606
G1 F10.0 Z-0.285
G2 F80.0 X1.5981 Y1.3642 I-0.07 J0.0
G2 Y1.4855 I0.035 J0.0606
G2 X1.7031 Y1.4248 I0.035 J-0.0606
G1 F10.0 Z-0.3
G2 F80.0 X1.5981 Y1.3642 I-0.07 J0.0
G2 Y1.4855 I0.035 J0.0606
G2 X1.7031 Y1.4248 I0.035 J-0.0606
G1 F10.0 Z-0.315
G2 F80.0 X1.5981 Y1.3642 I-0.07 J0.0
G2 Y1.4855 I0.035 J0.0606
G2 X1.7031 Y1.4248 I0.035 J-0.0606
G1 F10.0 Z-0.33
G2 F80.0 X1.5981 Y1.3642 I-0.07 J0.0
G2 Y1.4855 I0.035 J0.0606
G2 X1.7031 Y1.4248 I0.035 J-0.0606
G1 F10.0 Z-0.345
G2 F80.0 X1.5981 Y1.3642 I-0.07 J0.0
G2 Y1.4855 I0.035 J0.0606
G2 X1.7031 Y1.4248 I0.035 J-0.0606
G1 F10.0 Z-0.36
G2 F80.0 X1.5981 Y1.3642 I-0.07 J0.0
G2 Y1.4855 I0.035 J0.0606
G2 X1.7031 Y1.4248 I0.035 J-0.0606
G1 F10.0 Z-0.375
G2 F80.0 X1.5981 Y1.3642 I-0.07 J0.0
G2 Y1.4855 I0.035 J0.0606
G2 X1.7031 Y1.4248 I0.035 J-0.0606
G1 F10.0 Z-0.39
G2 F80.0 X1.5981 Y1.3642 I-0.07 J0.0
G2 Y1.4855 I0.035 J0.0606
G2 X1.7031 Y1.4248 I0.035 J-0.0606
G0 Z0.125
G0 X5.2092
G0 Z0.0625
G1 F10.0 Z-0.015
G2 F80.0 X5.2442 Y1.4854 I0.07 J0.0
G2 X5.3492 Y1.4248 I0.035 J-0.0606
G2 X5.2442 Y1.3642 I-0.07 J0.0
G2 X5.2092 Y1.4248 I0.035 J0.0606
G1 F10.0 Z-0.03
G2 F80.0 X5.2442 Y1.4854 I0.07 J0.0
G2 X5.3492 Y1.4248 I0.035 J-0.0606
G2 X5.2442 Y1.3642 I-0.07 J0.0
G2 X5.2092 Y1.4248 I0.035 J0.0606
G1 F10.0 Z-0.045
G2 F80.0 X5.2442 Y1.4854 I0.07 J0.0
G2 X5.3492 Y1.4248 I0.035 J-0.0606
G2 X5.2442 Y1.3642 I-0.07 J0.0
G2 X5.2092 Y1.4248 I0.035 J0.0606
G1 F10.0 Z-0.06
G2 F80.0 X5.2442 Y1.4854 I0.07 J0.0
G2 X5.3492 Y1.4248 I0.035 J-0.0606
G2 X5.2442 Y1.3642 I-0.07 J0.0
G2 X5.2092 Y1.4248 I0.035 J0.0606
G1 F10.0 Z-0.075
G2 F80.0 X5.2442 Y1.4854 I0.07 J0.0
G2 X5.3492 Y1.4248 I0.035 J-0.0606
G2 X5.2442 Y1.3642 I-0.07 J0.0
G2 X5.2092 Y1.4248 I0.035 J0.0606
G1 F10.0 Z-0.09
G2 F80.0 X5.2442 Y1.4854 I0.07 J0.0
G2 X5.3492 Y1.4248 I0.035 J-0.0606
G2 X5.2442 Y1.3642 I-0.07 J0.0
G2 X5.2092 Y1.4248 I0.035 J0.0606
G1 F10.0 Z-0.105
G2 F80.0 X5.2442 Y1.4854 I0.07 J0.0
G2 X5.3492 Y1.4248 I0.035 J-0.0606
G2 X5.2442 Y1.3642 I-0.07 J0.0
G2 X5.2092 Y1.4248 I0.035 J0.0606
G1 F10.0 Z-0.12
G2 F80.0 X5.2442 Y1.4854 I0.07 J0.0
G2 X5.3492 Y1.4248 I0.035 J-0.0606
G2 X5.2442 Y1.3642 I-0.07 J0.0
G2 X5.2092 Y1.4248 I0.035 J0.0606
G1 F10.0 Z-0.135
G2 F80.0 X5.2442 Y1.4854 I0.07 J0.0
G2 X5.3492 Y1.4248 I0.035 J-0.0606
G2 X5.2442 Y1.3642 I-0.07 J0.0
G2 X5.2092 Y1.4248 I0.035 J0.0606
G1 F10.0 Z-0.15
G2 F80.0 X5.2442 Y1.4854 I0.07 J0.0
G2 X5.3492 Y1.4248 I0.035 J-0.0606
G2 X5.2442 Y1.3642 I-0.07 J0.0
G2 X5.2092 Y1.4248 I0.035 J0.0606
G1 F10.0 Z-0.165
G2 F80.0 X5.2442 Y1.4854 I0.07 J0.0
G2 X5.3492 Y1.4248 I0.035 J-0.0606
G2 X5.2442 Y1.3642 I-0.07 J0.0
G2 X5.2092 Y1.4248 I0.035 J0.0606
G1 F10.0 Z-0.18
G2 F80.0 X5.2442 Y1.4854 I0.07 J0.0
G2 X5.3492 Y1.4248 I0.035 J-0.0606
G2 X5.2442 Y1.3642 I-0.07 J0.0
G2 X5.2092 Y1.4248 I0.035 J0.0606
G1 F10.0 Z-0.195
G2 F80.0 X5.2442 Y1.4854 I0.07 J0.0
G2 X5.3492 Y1.4248 I0.035 J-0.0606
G2 X5.2442 Y1.3642 I-0.07 J0.0
G2 X5.2092 Y1.4248 I0.035 J0.0606
G1 F10.0 Z-0.21
G2 F80.0 X5.2442 Y1.4854 I0.07 J0.0
G2 X5.3492 Y1.4248 I0.035 J-0.0606
G2 X5.2442 Y1.3642 I-0.07 J0.0
G2 X5.2092 Y1.4248 I0.035 J0.0606
G1 F10.0 Z-0.225
G2 F80.0 X5.2442 Y1.4854 I0.07 J0.0
G2 X5.3492 Y1.4248 I0.035 J-0.0606
G2 X5.2442 Y1.3642 I-0.07 J0.0
G2 X5.2092 Y1.4248 I0.035 J0.0606
G1 F10.0 Z-0.24
G2 F80.0 X5.2442 Y1.4854 I0.07 J0.0
G2 X5.3492 Y1.4248 I0.035 J-0.0606
G2 X5.2442 Y1.3642 I-0.07 J0.0
G2 X5.2092 Y1.4248 I0.035 J0.0606
G1 F10.0 Z-0.255
G2 F80.0 X5.2442 Y1.4854 I0.07 J0.0
G2 X5.3492 Y1.4248 I0.035 J-0.0606
G2 X5.2442 Y1.3642 I-0.07 J0.0
G2 X5.2092 Y1.4248 I0.035 J0.0606
G1 F10.0 Z-0.27
G2 F80.0 X5.2442 Y1.4854 I0.07 J0.0
G2 X5.3492 Y1.4248 I0.035 J-0.0606
G2 X5.2442 Y1.3642 I-0.07 J0.0
G2 X5.2092 Y1.4248 I0.035 J0.0606
G1 F10.0 Z-0.285
G2 F80.0 X5.2442 Y1.4854 I0.07 J0.0
G2 X5.3492 Y1.4248 I0.035 J-0.0606
G2 X5.2442 Y1.3642 I-0.07 J0.0
G2 X5.2092 Y1.4248 I0.035 J0.0606
G1 F10.0 Z-0.3
G2 F80.0 X5.2442 Y1.4854 I0.07 J0.0
G2 X5.3492 Y1.4248 I0.035 J-0.0606
G2 X5.2442 Y1.3642 I-0.07 J0.0
G2 X5.2092 Y1.4248 I0.035 J0.0606
G1 F10.0 Z-0.315
G2 F80.0 X5.2442 Y1.4854 I0.07 J0.0
G2 X5.3492 Y1.4248 I0.035 J-0.0606
G2 X5.2442 Y1.3642 I-0.07 J0.0
G2 X5.2092 Y1.4248 I0.035 J0.0606
G1 F10.0 Z-0.33
G2 F80.0 X5.2442 Y1.4854 I0.07 J0.0
G2 X5.3492 Y1.4248 I0.035 J-0.0606
G2 X5.2442 Y1.3642 I-0.07 J0.0
G2 X5.2092 Y1.4248 I0.035 J0.0606
G1 F10.0 Z-0.345
G2 F80.0 X5.2442 Y1.4854 I0.07 J0.0
G2 X5.3492 Y1.4248 I0.035 J-0.0606
G2 X5.2442 Y1.3642 I-0.07 J0.0
G2 X5.2092 Y1.4248 I0.035 J0.0606
G1 F10.0 Z-0.36
G2 F80.0 X5.2442 Y1.4854 I0.07 J0.0
G2 X5.3492 Y1.4248 I0.035 J-0.0606
G2 X5.2442 Y1.3642 I-0.07 J0.0
G2 X5.2092 Y1.4248 I0.035 J0.0606
G1 F10.0 Z-0.375
G2 F80.0 X5.2442 Y1.4854 I0.07 J0.0
G2 X5.3492 Y1.4248 I0.035 J-0.0606
G2 X5.2442 Y1.3642 I-0.07 J0.0
G2 X5.2092 Y1.4248 I0.035 J0.0606
G1 F10.0 Z-0.39
G2 F80.0 X5.2442 Y1.4854 I0.07 J0.0
G2 X5.3492 Y1.4248 I0.035 J-0.0606
G2 X5.2442 Y1.3642 I-0.07 J0.0
G2 X5.2092 Y1.4248 I0.035 J0.0606
( Profile1 )
G0 Z0.125
G0 X3.1015 Y2.2403
G0 Z0.0625
G1 F10.0 Z-0.015
G1 F80.0 X2.5093 Y2.3758
G2 X2.2705 Y2.5499 I0.0836 J0.3656
G1 X1.9556 Y3.0803
G3 X1.3107 I-0.3224 J-0.1914
G1 X0.9958 Y2.5499
G2 X0.7569 Y2.3758 I-0.3224 J0.1914
G1 X0.1648 Y2.2403
G3 X-0.0341 Y1.6282 I0.0836 J-0.3656
G1 X0.3688 Y1.1665
G2 X0.4598 Y0.8875 I-0.2825 J-0.2466
G1 X0.4073 Y0.2824
G3 X0.9277 Y-0.0951 I0.3736 J-0.0324
G1 X1.4867 Y0.1428
G2 X1.7802 I0.1468 J-0.3451
G1 X2.3399 Y-0.095
G3 X2.8601 Y0.283 I0.1466 J0.3451
G1 X2.807 Y0.8878
G2 X2.898 Y1.1672 I0.3736 J0.0328
G1 X3.3003 Y1.6282
G3 X3.1015 Y2.2403 I-0.2825 J0.2466
G0 Z0.125
G0 X3.554 Y2.0317
G0 Z0.0625
G1 F10.0 Z-0.015
G3 F80.0 X3.612 Y1.6282 I0.3406 J-0.157
G1 X4.0149 Y1.1665
G2 X4.106 Y0.8875 I-0.2825 J-0.2466
G1 X4.0534 Y0.2824
G3 X4.5738 Y-0.0951 I0.3736 J-0.0324
G1 X5.1328 Y0.1428
G2 X5.4263 I0.1468 J-0.3451
G1 X5.986 Y-0.095
G3 X6.5062 Y0.283 I0.1466 J0.3451
G1 X6.4531 Y0.8878
G2 X6.5442 Y1.1672 I0.3736 J0.0328
G1 X6.9465 Y1.6282
G3 X6.7476 Y2.2403 I-0.2825 J0.2466
G1 X6.1554 Y2.3758
G2 X5.9166 Y2.5499 I0.0836 J0.3656
G1 X5.6017 Y3.0803
G3 X4.9568 I-0.3224 J-0.1914
G1 X4.6419 Y2.5499
G2 X4.4031 Y2.3758 I-0.3224 J0.1914
G1 X3.8109 Y2.2403
G3 X3.554 Y2.0317 I0.0836 J-0.3656
G1 F10.0 Z-0.03
G3 F80.0 X3.612 Y1.6282 I0.3406 J-0.157
G1 X4.0149 Y1.1665
G2 X4.106 Y0.8875 I-0.2825 J-0.2466
G1 X4.0534 Y0.2824
G3 X4.5738 Y-0.0951 I0.3736 J-0.0324
G1 X5.1328 Y0.1428
G2 X5.4263 I0.1468 J-0.3451
G1 X5.986 Y-0.095
G3 X6.5062 Y0.283 I0.1466 J0.3451
G1 X6.4531 Y0.8878
G2 X6.5442 Y1.1672 I0.3736 J0.0328
G1 X6.9465 Y1.6282
G3 X6.7476 Y2.2403 I-0.2825 J0.2466
G1 X6.1554 Y2.3758
G2 X5.9166 Y2.5499 I0.0836 J0.3656
G1 X5.6017 Y3.0803
G3 X4.9568 I-0.3224 J-0.1914
G1 X4.6419 Y2.5499
G2 X4.4031 Y2.3758 I-0.3224 J0.1914
G1 X3.8109 Y2.2403
G3 X3.554 Y2.0317 I0.0836 J-0.3656
G0 Z0.125
G0 X3.3777 Y1.9801
G0 Z0.0475
G1 F10.0 Z-0.03
G3 F80.0 X3.1015 Y2.2403 I-0.3599 J-0.1054
G1 X2.5093 Y2.3758
G2 X2.2705 Y2.5499 I0.0836 J0.3656
G1 X1.9556 Y3.0803
G3 X1.3107 I-0.3224 J-0.1914
G1 X0.9958 Y2.5499
G2 X0.7569 Y2.3758 I-0.3224 J0.1914
G1 X0.1648 Y2.2403
G3 X-0.0341 Y1.6282 I0.0836 J-0.3656
G1 X0.3688 Y1.1665
G2 X0.4598 Y0.8875 I-0.2825 J-0.2466
G1 X0.4073 Y0.2824
G3 X0.9277 Y-0.0951 I0.3736 J-0.0324
G1 X1.4867 Y0.1428
G2 X1.7802 I0.1468 J-0.3451
G1 X2.3399 Y-0.095
G3 X2.8601 Y0.283 I0.1466 J0.3451
G1 X2.807 Y0.8878
G2 X2.898 Y1.1672 I0.3736 J0.0328
G1 X3.3003 Y1.6282
G3 X3.3777 Y1.9801 I-0.2825 J0.2466
G1 F10.0 Z-0.045
G3 F80.0 X3.1015 Y2.2403 I-0.3599 J-0.1054
G1 X2.5093 Y2.3758
G2 X2.2705 Y2.5499 I0.0836 J0.3656
G1 X1.9556 Y3.0803
G3 X1.3107 I-0.3224 J-0.1914
G1 X0.9958 Y2.5499
G2 X0.7569 Y2.3758 I-0.3224 J0.1914
G1 X0.1648 Y2.2403
G3 X-0.0341 Y1.6282 I0.0836 J-0.3656
G1 X0.3688 Y1.1665
G2 X0.4598 Y0.8875 I-0.2825 J-0.2466
G1 X0.4073 Y0.2824
G3 X0.9277 Y-0.0951 I0.3736 J-0.0324
G1 X1.4867 Y0.1428
G2 X1.7802 I0.1468 J-0.3451
G1 X2.3399 Y-0.095
G3 X2.8601 Y0.283 I0.1466 J0.3451
G1 X2.807 Y0.8878
G2 X2.898 Y1.1672 I0.3736 J0.0328
G1 X3.3003 Y1.6282
G3 X3.3777 Y1.9801 I-0.2825 J0.2466
G1 F10.0 X3.5271 Y1.9497
G3 F80.0 X3.612 Y1.6282 I0.3674 J-0.0749
G1 X4.0149 Y1.1665
G2 X4.106 Y0.8875 I-0.2825 J-0.2466
G1 X4.0534 Y0.2824
G3 X4.5738 Y-0.0951 I0.3736 J-0.0324
G1 X5.1328 Y0.1428
G2 X5.4263 I0.1468 J-0.3451
G1 X5.986 Y-0.095
G3 X6.5062 Y0.283 I0.1466 J0.3451
G1 X6.4531 Y0.8878
G2 X6.5442 Y1.1672 I0.3736 J0.0328
G1 X6.9465 Y1.6282
G3 X6.7476 Y2.2403 I-0.2825 J0.2466
G1 X6.1554 Y2.3758
G2 X5.9166 Y2.5499 I0.0836 J0.3656
G1 X5.6017 Y3.0803
G3 X4.9568 I-0.3224 J-0.1914
G1 X4.6419 Y2.5499
G2 X4.4031 Y2.3758 I-0.3224 J0.1914
G1 X3.8109 Y2.2403
G3 X3.5271 Y1.9497 I0.0836 J-0.3656
G1 F10.0 Z-0.06
G3 F80.0 X3.612 Y1.6282 I0.3674 J-0.0749
G1 X4.0149 Y1.1665
G2 X4.106 Y0.8875 I-0.2825 J-0.2466
G1 X4.0534 Y0.2824
G3 X4.5738 Y-0.0951 I0.3736 J-0.0324
G1 X5.1328 Y0.1428
G2 X5.4263 I0.1468 J-0.3451
G1 X5.986 Y-0.095
G3 X6.5062 Y0.283 I0.1466 J0.3451
G1 X6.4531 Y0.8878
G2 X6.5442 Y1.1672 I0.3736 J0.0328
G1 X6.9465 Y1.6282
G3 X6.7476 Y2.2403 I-0.2825 J0.2466
G1 X6.1554 Y2.3758
G2 X5.9166 Y2.5499 I0.0836 J0.3656
G1 X5.6017 Y3.0803
G3 X4.9568 I-0.3224 J-0.1914
G1 X4.6419 Y2.5499
G2 X4.4031 Y2.3758 I-0.3224 J0.1914
G1 X3.8109 Y2.2403
G3 X3.5271 Y1.9497 I0.0836 J-0.3656
G1 F10.0 X3.3888 Y1.9293
G3 F80.0 X3.1015 Y2.2403 I-0.371 J-0.0546
G1 X2.5093 Y2.3758
G2 X2.2705 Y2.5499 I0.0836 J0.3656
G1 X1.9556 Y3.0803
G3 X1.3107 I-0.3224 J-0.1914
G1 X0.9958 Y2.5499
G2 X0.7569 Y2.3758 I-0.3224 J0.1914
G1 X0.1648 Y2.2403
G3 X-0.0341 Y1.6282 I0.0836 J-0.3656
G1 X0.3688 Y1.1665
G2 X0.4598 Y0.8875 I-0.2825 J-0.2466
G1 X0.4073 Y0.2824
G3 X0.9277 Y-0.0951 I0.3736 J-0.0324
G1 X1.4867 Y0.1428
G2 X1.7802 I0.1468 J-0.3451
G1 X2.3399 Y-0.095
G3 X2.8601 Y0.283 I0.1466 J0.3451
G1 X2.807 Y0.8878
G2 X2.898 Y1.1672 I0.3736 J0.0328
G1 X3.3003 Y1.6282
G3 X3.3888 Y1.9293 I-0.2825 J0.2466
G1 F10.0 Z-0.075
G3 F80.0 X3.1015 Y2.2403 I-0.371 J-0.0546
G1 X2.5093 Y2.3758
G2 X2.2705 Y2.5499 I0.0836 J0.3656
G1 X1.9556 Y3.0803
G3 X1.3107 I-0.3224 J-0.1914
G1 X0.9958 Y2.5499
G2 X0.7569 Y2.3758 I-0.3224 J0.1914
G1 X0.1648 Y2.2403
G3 X-0.0341 Y1.6282 I0.0836 J-0.3656
G1 X0.3688 Y1.1665
G2 X0.4598 Y0.8875 I-0.2825 J-0.2466
G1 X0.4073 Y0.2824
G3 X0.9277 Y-0.0951 I0.3736 J-0.0324
G1 X1.4867 Y0.1428
G2 X1.7802 I0.1468 J-0.3451
G1 X2.3399 Y-0.095
G3 X2.8601 Y0.283 I0.1466 J0.3451
G1 X2.807 Y0.8878
G2 X2.898 Y1.1672 I0.3736 J0.0328
G1 X3.3003 Y1.6282
G3 X3.3888 Y1.9293 I-0.2825 J0.2466
G1 F10.0 X3.5217 Y1.915
G3 F80.0 X3.612 Y1.6282 I0.3728 J-0.0402
G1 X4.0149 Y1.1665
G2 X4.106 Y0.8875 I-0.2825 J-0.2466
G1 X4.0534 Y0.2824
G3 X4.5738 Y-0.0951 I0.3736 J-0.0324
G1 X5.1328 Y0.1428
G2 X5.4263 I0.1468 J-0.3451
G1 X5.986 Y-0.095
G3 X6.5062 Y0.283 I0.1466 J0.3451
G1 X6.4531 Y0.8878
G2 X6.5442 Y1.1672 I0.3736 J0.0328
G1 X6.9465 Y1.6282
G3 X6.7476 Y2.2403 I-0.2825 J0.2466
G1 X6.1554 Y2.3758
G2 X5.9166 Y2.5499 I0.0836 J0.3656
G1 X5.6017 Y3.0803
G3 X4.9568 I-0.3224 J-0.1914
G1 X4.6419 Y2.5499
G2 X4.4031 Y2.3758 I-0.3224 J0.1914
G1 X3.8109 Y2.2403
G3 X3.5217 Y1.915 I0.0836 J-0.3656
G1 F10.0 Z-0.09
G3 F80.0 X3.612 Y1.6282 I0.3728 J-0.0402
G1 X4.0149 Y1.1665
G2 X4.106 Y0.8875 I-0.2825 J-0.2466
G1 X4.0534 Y0.2824
G3 X4.5738 Y-0.0951 I0.3736 J-0.0324
G1 X5.1328 Y0.1428
G2 X5.4263 I0.1468 J-0.3451
G1 X5.986 Y-0.095
G3 X6.5062 Y0.283 I0.1466 J0.3451
G1 X6.4531 Y0.8878
G2 X6.5442 Y1.1672 I0.3736 J0.0328
G1 X6.9465 Y1.6282
G3 X6.7476 Y2.2403 I-0.2825 J0.2466
G1 X6.1554 Y2.3758
G2 X5.9166 Y2.5499 I0.0836 J0.3656
G1 X5.6017 Y3.0803
G3 X4.9568 I-0.3224 J-0.1914
G1 X4.6419 Y2.5499
G2 X4.4031 Y2.3758 I-0.3224 J0.1914
G1 X3.8109 Y2.2403
G3 X3.5217 Y1.915 I0.0836 J-0.3656
G1 F10.0 X3.3916 Y1.9046
G3 F80.0 X3.1015 Y2.2403 I-0.3738 J-0.0299
G1 X2.5093 Y2.3758
G2 X2.2705 Y2.5499 I0.0836 J0.3656
G1 X1.9556 Y3.0803
G3 X1.3107 I-0.3224 J-0.1914
G1 X0.9958 Y2.5499
G2 X0.7569 Y2.3758 I-0.3224 J0.1914
G1 X0.1648 Y2.2403
G3 X-0.0341 Y1.6282 I0.0836 J-0.3656
G1 X0.3688 Y1.1665
G2 X0.4598 Y0.8875 I-0.2825 J-0.2466
G1 X0.4073 Y0.2824
G3 X0.9277 Y-0.0951 I0.3736 J-0.0324
G1 X1.4867 Y0.1428
G2 X1.7802 I0.1468 J-0.3451
G1 X2.3399 Y-0.095
G3 X2.8601 Y0.283 I0.1466 J0.3451
G1 X2.807 Y0.8878
G2 X2.898 Y1.1672 I0.3736 J0.0328
G1 X3.3003 Y1.6282
G3 X3.3916 Y1.9046 I-0.2825 J0.2466
G1 F10.0 Z-0.105
G3 F80.0 X3.1015 Y2.2403 I-0.3738 J-0.0299
G1 X2.5093 Y2.3758
G2 X2.2705 Y2.5499 I0.0836 J0.3656
G1 X1.9556 Y3.0803
G3 X1.3107 I-0.3224 J-0.1914
G1 X0.9958 Y2.5499
G2 X0.7569 Y2.3758 I-0.3224 J0.1914
G1 X0.1648 Y2.2403
G3 X-0.0341 Y1.6282 I0.0836 J-0.3656
G1 X0.3688 Y1.1665
G2 X0.4598 Y0.8875 I-0.2825 J-0.2466
G1 X0.4073 Y0.2824
G3 X0.9277 Y-0.0951 I0.3736 J-0.0324
G1 X1.4867 Y0.1428
G2 X1.7802 I0.1468 J-0.3451
G1 X2.3399 Y-0.095
G3 X2.8601 Y0.283 I0.1466 J0.3451
G1 X2.807 Y0.8878
G2 X2.898 Y1.1672 I0.3736 J0.0328
G1 X3.3003 Y1.6282
G3 X3.3916 Y1.9046 I-0.2825 J0.2466
G1 F10.0 X3.5202 Y1.897
G3 F80.0 X3.612 Y1.6282 I0.3743 J-0.0222
G1 X4.0149 Y1.1665
G2 X4.106 Y0.8875 I-0.2825 J-0.2466
G1 X4.0534 Y0.2824
G3 X4.5738 Y-0.0951 I0.3736 J-0.0324
G1 X5.1328 Y0.1428
G2 X5.4263 I0.1468 J-0.3451
G1 X5.986 Y-0.095
G3 X6.5062 Y0.283 I0.1466 J0.3451
G1 X6.4531 Y0.8878
G2 X6.5442 Y1.1672 I0.3736 J0.0328
G1 X6.9465 Y1.6282
G3 X6.7476 Y2.2403 I-0.2825 J0.2466
G1 X6.1554 Y2.3758
G2 X5.9166 Y2.5499 I0.0836 J0.3656
G1 X5.6017 Y3.0803
G3 X4.9568 I-0.3224 J-0.1914
G1 X4.6419 Y2.5499
G2 X4.4031 Y2.3758 I-0.3224 J0.1914
G1 X3.8109 Y2.2403
G3 X3.5202 Y1.897 I0.0836 J-0.3656
G1 F10.0 Z-0.12
G3 F80.0 X3.612 Y1.6282 I0.3743 J-0.0222
G1 X4.0149 Y1.1665
G2 X4.106 Y0.8875 I-0.2825 J-0.2466
G1 X4.0534 Y0.2824
G3 X4.5738 Y-0.0951 I0.3736 J-0.0324
G1 X5.1328 Y0.1428
G2 X5.4263 I0.1468 J-0.3451
G1 X5.986 Y-0.095
G3 X6.5062 Y0.283 I0.1466 J0.3451
G1 X6.4531 Y0.8878
G2 X6.5442 Y1.1672 I0.3736 J0.0328
G1 X6.9465 Y1.6282
G3 X6.7476 Y2.2403 I-0.2825 J0.2466
G1 X6.1554 Y2.3758
G2 X5.9166 Y2.5499 I0.0836 J0.3656
G1 X5.6017 Y3.0803
G3 X4.9568 I-0.3224 J-0.1914
G1 X4.6419 Y2.5499
G2 X4.4031 Y2.3758 I-0.3224 J0.1914
G1 X3.8109 Y2.2403
G3 X3.5202 Y1.897 I0.0836 J-0.3656
G1 F10.0 X3.3925 Y1.8913
G3 F80.0 X3.1015 Y2.2403 I-0.3746 J-0.0166
G1 X2.5093 Y2.3758
G2 X2.2705 Y2.5499 I0.0836 J0.3656
G1 X1.9556 Y3.0803
G3 X1.3107 I-0.3224 J-0.1914
G1 X0.9958 Y2.5499
G2 X0.7569 Y2.3758 I-0.3224 J0.1914
G1 X0.1648 Y2.2403
G3 X-0.0341 Y1.6282 I0.0836 J-0.3656
G1 X0.3688 Y1.1665
G2 X0.4598 Y0.8875 I-0.2825 J-0.2466
G1 X0.4073 Y0.2824
G3 X0.9277 Y-0.0951 I0.3736 J-0.0324
G1 X1.4867 Y0.1428
G2 X1.7802 I0.1468 J-0.3451
G1 X2.3399 Y-0.095
G3 X2.8601 Y0.283 I0.1466 J0.3451
G1 X2.807 Y0.8878
G2 X2.898 Y1.1672 I0.3736 J0.0328
G1 X3.3003 Y1.6282
G3 X3.3925 Y1.8913 I-0.2825 J0.2466
G1 F10.0 Z-0.135
G3 F80.0 X3.1015 Y2.2403 I-0.3746 J-0.0166
G1 X2.5093 Y2.3758
G2 X2.2705 Y2.5499 I0.0836 J0.3656
G1 X1.9556 Y3.0803
G3 X1.3107 I-0.3224 J-0.1914
G1 X0.9958 Y2.5499
G2 X0.7569 Y2.3758 I-0.3224 J0.1914
G1 X0.1648 Y2.2403
G3 X-0.0341 Y1.6282 I0.0836 J-0.3656
G1 X0.3688 Y1.1665
G2 X0.4598 Y0.8875 I-0.2825 J-0.2466
G1 X0.4073 Y0.2824
G3 X0.9277 Y-0.0951 I0.3736 J-0.0324
G1 X1.4867 Y0.1428
G2 X1.7802 I0.1468 J-0.3451
G1 X2.3399 Y-0.095
G3 X2.8601 Y0.283 I0.1466 J0.3451
G1 X2.807 Y0.8878
G2 X2.898 Y1.1672 I0.3736 J0.0328
G1 X3.3003 Y1.6282
G3 X3.3925 Y1.8913 I-0.2825 J0.2466
G1 F10.0 X3.5197 Y1.8871
G3 F80.0 X3.612 Y1.6282 I0.3748 J-0.0124
G1 X4.0149 Y1.1665
G2 X4.106 Y0.8875 I-0.2825 J-0.2466
G1 X4.0534 Y0.2824
G3 X4.5738 Y-0.0951 I0.3736 J-0.0324
G1 X5.1328 Y0.1428
G2 X5.4263 I0.1468 J-0.3451
G1 X5.986 Y-0.095
G3 X6.5062 Y0.283 I0.1466 J0.3451
G1 X6.4531 Y0.8878
G2 X6.5442 Y1.1672 I0.3736 J0.0328
G1 X6.9465 Y1.6282
G3 X6.7476 Y2.2403 I-0.2825 J0.2466
G1 X6.1554 Y2.3758
G2 X5.9166 Y2.5499 I0.0836 J0.3656
G1 X5.6017 Y3.0803
G3 X4.9568 I-0.3224 J-0.1914
G1 X4.6419 Y2.5499
G2 X4.4031 Y2.3758 I-0.3224 J0.1914
G1 X3.8109 Y2.2403
G3 X3.5197 Y1.8871 I0.0836 J-0.3656
G1 F10.0 Z-0.15
G3 F80.0 X3.612 Y1.6282 I0.3748 J-0.0124
G1 X4.0149 Y1.1665
G2 X4.106 Y0.8875 I-0.2825 J-0.2466
G1 X4.0534 Y0.2824
G3 X4.5738 Y-0.0951 I0.3736 J-0.0324
G1 X5.1328 Y0.1428
G2 X5.4263 I0.1468 J-0.3451
G1 X5.986 Y-0.095
G3 X6.5062 Y0.283 I0.1466 J0.3451
G1 X6.4531 Y0.8878
G2 X6.5442 Y1.1672 I0.3736 J0.0328
G1 X6.9465 Y1.6282
G3 X6.7476 Y2.2403 I-0.2825 J0.2466
G1 X6.1554 Y2.3758
G2 X5.9166 Y2.5499 I0.0836 J0.3656
G1 X5.6017 Y3.0803
G3 X4.9568 I-0.3224 J-0.1914
G1 X4.6419 Y2.5499
G2 X4.4031 Y2.3758 I-0.3224 J0.1914
G1 X3.8109 Y2.2403
G3 X3.5197 Y1.8871 I0.0836 J-0.3656
G1 F10.0 X3.3927 Y1.884
G3 F80.0 X3.1015 Y2.2403 I-0.3749 J-0.0092
G1 X2.5093 Y2.3758
G2 X2.2705 Y2.5499 I0.0836 J0.3656
G1 X1.9556 Y3.0803
G3 X1.3107 I-0.3224 J-0.1914
G1 X0.9958 Y2.5499
G2 X0.7569 Y2.3758 I-0.3224 J0.1914
G1 X0.1648 Y2.2403
G3 X-0.0341 Y1.6282 I0.0836 J-0.3656
G1 X0.3688 Y1.1665
G2 X0.4598 Y0.8875 I-0.2825 J-0.2466
G1 X0.4073 Y0.2824
G3 X0.9277 Y-0.0951 I0.3736 J-0.0324
G1 X1.4867 Y0.1428
G2 X1.7802 I0.1468 J-0.3451
G1 X2.3399 Y-0.095
G3 X2.8601 Y0.283 I0.1466 J0.3451
G1 X2.807 Y0.8878
G2 X2.898 Y1.1672 I0.3736 J0.0328
G1 X3.3003 Y1.6282
G3 X3.3927 Y1.884 I-0.2825 J0.2466
G1 F10.0 Z-0.165
G3 F80.0 X3.1015 Y2.2403 I-0.3749 J-0.0092
G1 X2.5093 Y2.3758
G2 X2.2705 Y2.5499 I0.0836 J0.3656
G1 X1.9556 Y3.0803
G3 X1.3107 I-0.3224 J-0.1914
G1 X0.9958 Y2.5499
G2 X0.7569 Y2.3758 I-0.3224 J0.1914
G1 X0.1648 Y2.2403
G3 X-0.0341 Y1.6282 I0.0836 J-0.3656
G1 X0.3688 Y1.1665
G2 X0.4598 Y0.8875 I-0.2825 J-0.2466
G1 X0.4073 Y0.2824
G3 X0.9277 Y-0.0951 I0.3736 J-0.0324
G1 X1.4867 Y0.1428
G2 X1.7802 I0.1468 J-0.3451
G1 X2.3399 Y-0.095
G3 X2.8601 Y0.283 I0.1466 J0.3451
G1 X2.807 Y0.8878
G2 X2.898 Y1.1672 I0.3736 J0.0328
G1 X3.3003 Y1.6282
G3 X3.3927 Y1.884 I-0.2825 J0.2466
G1 F10.0 X3.5196 Y1.8816
G3 F80.0 X3.612 Y1.6282 I0.3749 J-0.0069
G1 X4.0149 Y1.1665
G2 X4.106 Y0.8875 I-0.2825 J-0.2466
G1 X4.0534 Y0.2824
G3 X4.5738 Y-0.0951 I0.3736 J-0.0324
G1 X5.1328 Y0.1428
G2 X5.4263 I0.1468 J-0.3451
G1 X5.986 Y-0.095
G3 X6.5062 Y0.283 I0.1466 J0.3451
G1 X6.4531 Y0.8878
G2 X6.5442 Y1.1672 I0.3736 J0.0328
G1 X6.9465 Y1.6282
G3 X6.7476 Y2.2403 I-0.2825 J0.2466
G1 X6.1554 Y2.3758
G2 X5.9166 Y2.5499 I0.0836 J0.3656
G1 X5.6017 Y3.0803
G3 X4.9568 I-0.3224 J-0.1914
G1 X4.6419 Y2.5499
G2 X4.4031 Y2.3758 I-0.3224 J0.1914
G1 X3.8109 Y2.2403
G3 X3.5196 Y1.8816 I0.0836 J-0.3656
G1 F10.0 Z-0.18
G3 F80.0 X3.612 Y1.6282 I0.3749 J-0.0069
G1 X4.0149 Y1.1665
G2 X4.106 Y0.8875 I-0.2825 J-0.2466
G1 X4.0534 Y0.2824
G3 X4.5738 Y-0.0951 I0.3736 J-0.0324
G1 X5.1328 Y0.1428
G2 X5.4263 I0.1468 J-0.3451
G1 X5.986 Y-0.095
G3 X6.5062 Y0.283 I0.1466 J0.3451
G1 X6.4531 Y0.8878
G2 X6.5442 Y1.1672 I0.3736 J0.0328
G1 X6.9465 Y1.6282
G3 X6.7476 Y2.2403 I-0.2825 J0.2466
G1 X6.1554 Y2.3758
G2 X5.9166 Y2.5499 I0.0836 J0.3656
G1 X5.6017 Y3.0803
G3 X4.9568 I-0.3224 J-0.1914
G1 X4.6419 Y2.5499
G2 X4.4031 Y2.3758 I-0.3224 J0.1914
G1 X3.8109 Y2.2403
G3 X3.5196 Y1.8816 I0.0836 J-0.3656
G1 F10.0 X3.3928 Y1.8799
G3 F80.0 X3.1015 Y2.2403 I-0.375 J-0.0052
G1 X2.5093 Y2.3758
G2 X2.2705 Y2.5499 I0.0836 J0.3656
G1 X1.9556 Y3.0803
G3 X1.3107 I-0.3224 J-0.1914
G1 X0.9958 Y2.5499
G2 X0.7569 Y2.3758 I-0.3224 J0.1914
G1 X0.1648 Y2.2403
G3 X-0.0341 Y1.6282 I0.0836 J-0.3656
G1 X0.3688 Y1.1665
G2 X0.4598 Y0.8875 I-0.2825 J-0.2466
G1 X0.4073 Y0.2824
G3 X0.9277 Y-0.0951 I0.3736 J-0.0324
G1 X1.4867 Y0.1428
G2 X1.7802 I0.1468 J-0.3451
G1 X2.3399 Y-0.095
G3 X2.8601 Y0.283 I0.1466 J0.3451
G1 X2.807 Y0.8878
G2 X2.898 Y1.1672 I0.3736 J0.0328
G1 X3.3003 Y1.6282
G3 X3.3928 Y1.8799 I-0.2825 J0.2466
G1 F10.0 Z-0.195
G3 F80.0 X3.1015 Y2.2403 I-0.375 J-0.0052
G1 X2.5093 Y2.3758
G2 X2.2705 Y2.5499 I0.0836 J0.3656
G1 X1.9556 Y3.0803
G3 X1.3107 I-0.3224 J-0.1914
G1 X0.9958 Y2.5499
G2 X0.7569 Y2.3758 I-0.3224 J0.1914
G1 X0.1648 Y2.2403
G3 X-0.0341 Y1.6282 I0.0836 J-0.3656
G1 X0.3688 Y1.1665
G2 X0.4598 Y0.8875 I-0.2825 J-0.2466
G1 X0.4073 Y0.2824
G3 X0.9277 Y-0.0951 I0.3736 J-0.0324
G1 X1.4867 Y0.1428
G2 X1.7802 I0.1468 J-0.3451
G1 X2.3399 Y-0.095
G3 X2.8601 Y0.283 I0.1466 J0.3451
G1 X2.807 Y0.8878
G2 X2.898 Y1.1672 I0.3736 J0.0328
G1 X3.3003 Y1.6282
G3 X3.3928 Y1.8799 I-0.2825 J0.2466
G1 F10.0 X3.5195 Y1.8786
G3 F80.0 X3.612 Y1.6282 I0.375 J-0.0039
G1 X4.0149 Y1.1665
G2 X4.106 Y0.8875 I-0.2825 J-0.2466
G1 X4.0534 Y0.2824
G3 X4.5738 Y-0.0951 I0.3736 J-0.0324
G1 X5.1328 Y0.1428
G2 X5.4263 I0.1468 J-0.3451
G1 X5.986 Y-0.095
G3 X6.5062 Y0.283 I0.1466 J0.3451
G1 X6.4531 Y0.8878
G2 X6.5442 Y1.1672 I0.3736 J0.0328
G1 X6.9465 Y1.6282
G3 X6.7476 Y2.2403 I-0.2825 J0.2466
G1 X6.1554 Y2.3758
G2 X5.9166 Y2.5499 I0.0836 J0.3656
G1 X5.6017 Y3.0803
G3 X4.9568 I-0.3224 J-0.1914
G1 X4.6419 Y2.5499
G2 X4.4031 Y2.3758 I-0.3224 J0.1914
G1 X3.8109 Y2.2403
G3 X3.5195 Y1.8786 I0.0836 J-0.3656
G1 F10.0 Z-0.21
G3 F80.0 X3.612 Y1.6282 I0.375 J-0.0039
G1 X4.0149 Y1.1665
G2 X4.106 Y0.8875 I-0.2825 J-0.2466
G1 X4.0534 Y0.2824
G3 X4.5738 Y-0.0951 I0.3736 J-0.0324
G1 X5.1328 Y0.1428
G2 X5.4263 I0.1468 J-0.3451
G1 X5.986 Y-0.095
G3 X6.5062 Y0.283 I0.1466 J0.3451
G1 X6.4531 Y0.8878
G2 X6.5442 Y1.1672 I0.3736 J0.0328
G1 X6.9465 Y1.6282
G3 X6.7476 Y2.2403 I-0.2825 J0.2466
G1 X6.1554 Y2.3758
G2 X5.9166 Y2.5499 I0.0836 J0.3656
G1 X5.6017 Y3.0803
G3 X4.9568 I-0.3224 J-0.1914
G1 X4.6419 Y2.5499
G2 X4.4031 Y2.3758 I-0.3224 J0.1914
G1 X3.8109 Y2.2403
G3 X3.5195 Y1.8786 I0.0836 J-0.3656
G1 F10.0 X3.3928 Y1.8776
G3 F80.0 X3.1015 Y2.2403 I-0.375 J-0.0029
G1 X2.5093 Y2.3758
G2 X2.2705 Y2.5499 I0.0836 J0.3656
G1 X1.9556 Y3.0803
G3 X1.3107 I-0.3224 J-0.1914
G1 X0.9958 Y2.5499
G2 X0.7569 Y2.3758 I-0.3224 J0.1914
G1 X0.1648 Y2.2403
G3 X-0.0341 Y1.6282 I0.0836 J-0.3656
G1 X0.3688 Y1.1665
G2 X0.4598 Y0.8875 I-0.2825 J-0.2466
G1 X0.4073 Y0.2824
G3 X0.9277 Y-0.0951 I0.3736 J-0.0324
G1 X1.4867 Y0.1428
G2 X1.7802 I0.1468 J-0.3451
G1 X2.3399 Y-0.095
G3 X2.8601 Y0.283 I0.1466 J0.3451
G1 X2.807 Y0.8878
G2 X2.898 Y1.1672 I0.3736 J0.0328
G1 X3.3003 Y1.6282
G3 X3.3928 Y1.8776 I-0.2825 J0.2466
G1 F10.0 Z-0.225
G3 F80.0 X3.1015 Y2.2403 I-0.375 J-0.0029
G1 X2.5093 Y2.3758
G2 X2.2705 Y2.5499 I0.0836 J0.3656
G1 X1.9556 Y3.0803
G3 X1.3107 I-0.3224 J-0.1914
G1 X0.9958 Y2.5499
G2 X0.7569 Y2.3758 I-0.3224 J0.1914
G1 X0.1648 Y2.2403
G3 X-0.0341 Y1.6282 I0.0836 J-0.3656
G1 X0.3688 Y1.1665
G2 X0.4598 Y0.8875 I-0.2825 J-0.2466
G1 X0.4073 Y0.2824
G3 X0.9277 Y-0.0951 I0.3736 J-0.0324
G1 X1.4867 Y0.1428
G2 X1.7802 I0.1468 J-0.3451
G1 X2.3399 Y-0.095
G3 X2.8601 Y0.283 I0.1466 J0.3451
G1 X2.807 Y0.8878
G2 X2.898 Y1.1672 I0.3736 J0.0328
G1 X3.3003 Y1.6282
G3 X3.3928 Y1.8776 I-0.2825 J0.2466
G1 F10.0 X3.5195 Y1.8769
G3 F80.0 X3.612 Y1.6282 I0.375 J-0.0022
G1 X4.0149 Y1.1665
G2 X4.106 Y0.8875 I-0.2825 J-0.2466
G1 X4.0534 Y0.2824
G3 X4.5738 Y-0.0951 I0.3736 J-0.0324
G1 X5.1328 Y0.1428
G2 X5.4263 I0.1468 J-0.3451
G1 X5.986 Y-0.095
G3 X6.5062 Y0.283 I0.1466 J0.3451
G1 X6.4531 Y0.8878
G2 X6.5442 Y1.1672 I0.3736 J0.0328
G1 X6.9465 Y1.6282
G3 X6.7476 Y2.2403 I-0.2825 J0.2466
G1 X6.1554 Y2.3758
G2 X5.9166 Y2.5499 I0.0836 J0.3656
G1 X5.6017 Y3.0803
G3 X4.9568 I-0.3224 J-0.1914
G1 X4.6419 Y2.5499
G2 X4.4031 Y2.3758 I-0.3224 J0.1914
G1 X3.8109 Y2.2403
G3 X3.5195 Y1.8769 I0.0836 J-0.3656
G1 F10.0 Z-0.24
G3 F80.0 X3.612 Y1.6282 I0.375 J-0.0022
G1 X4.0149 Y1.1665
G2 X4.106 Y0.8875 I-0.2825 J-0.2466
G1 X4.0534 Y0.2824
G3 X4.5738 Y-0.0951 I0.3736 J-0.0324
G1 X5.1328 Y0.1428
G2 X5.4263 I0.1468 J-0.3451
G1 X5.986 Y-0.095
G3 X6.5062 Y0.283 I0.1466 J0.3451
G1 X6.4531 Y0.8878
G2 X6.5442 Y1.1672 I0.3736 J0.0328
G1 X6.9465 Y1.6282
G3 X6.7476 Y2.2403 I-0.2825 J0.2466
G1 X6.1554 Y2.3758
G2 X5.9166 Y2.5499 I0.0836 J0.3656
G1 X5.6017 Y3.0803
G3 X4.9568 I-0.3224 J-0.1914
G1 X4.6419 Y2.5499
G2 X4.4031 Y2.3758 I-0.3224 J0.1914
G1 X3.8109 Y2.2403
G3 X3.5195 Y1.8769 I0.0836 J-0.3656
G1 F10.0 X3.3928 Y1.8764
G3 F80.0 X3.1015 Y2.2403 I-0.375 J-0.0016
G1 X2.5093 Y2.3758
G2 X2.2705 Y2.5499 I0.0836 J0.3656
G1 X1.9556 Y3.0803
G3 X1.3107 I-0.3224 J-0.1914
G1 X0.9958 Y2.5499
G2 X0.7569 Y2.3758 I-0.3224 J0.1914
G1 X0.1648 Y2.2403
G3 X-0.0341 Y1.6282 I0.0836 J-0.3656
G1 X0.3688 Y1.1665
G2 X0.4598 Y0.8875 I-0.2825 J-0.2466
G1 X0.4073 Y0.2824
G3 X0.9277 Y-0.0951 I0.3736 J-0.0324
G1 X1.4867 Y0.1428
G2 X1.7802 I0.1468 J-0.3451
G1 X2.3399 Y-0.095
G3 X2.8601 Y0.283 I0.1466 J0.3451
G1 X2.807 Y0.8878
G2 X2.898 Y1.1672 I0.3736 J0.0328
G1 X3.3003 Y1.6282
G3 X3.3928 Y1.8764 I-0.2825 J0.2466
G1 F10.0 Z-0.255
G3 F80.0 X3.1015 Y2.2403 I-0.375 J-0.0016
G1 X2.5093 Y2.3758
G2 X2.2705 Y2.5499 I0.0836 J0.3656
G1 X1.9556 Y3.0803
G3 X1.3107 I-0.3224 J-0.1914
G1 X0.9958 Y2.5499
G2 X0.7569 Y2.3758 I-0.3224 J0.1914
G1 X0.1648 Y2.2403
G3 X-0.0341 Y1.6282 I0.0836 J-0.3656
G1 X0.3688 Y1.1665
G2 X0.4598 Y0.8875 I-0.2825 J-0.2466
G1 X0.4073 Y0.2824
G3 X0.9277 Y-0.0951 I0.3736 J-0.0324
G1 X1.4867 Y0.1428
G2 X1.7802 I0.1468 J-0.3451
G1 X2.3399 Y-0.095
G3 X2.8601 Y0.283 I0.1466 J0.3451
G1 X2.807 Y0.8878
G2 X2.898 Y1.1672 I0.3736 J0.0328
G1 X3.3003 Y1.6282
G3 X3.3928 Y1.8764 I-0.2825 J0.2466
G1 F10.0 X3.5195 Y1.8759
G3 F80.0 X3.612 Y1.6282 I0.375 J-0.0012
G1 X4.0149 Y1.1665
G2 X4.106 Y0.8875 I-0.2825 J-0.2466
G1 X4.0534 Y0.2824
G3 X4.5738 Y-0.0951 I0.3736 J-0.0324
G1 X5.1328 Y0.1428
G2 X5.4263 I0.1468 J-0.3451
G1 X5.986 Y-0.095
G3 X6.5062 Y0.283 I0.1466 J0.3451
G1 X6.4531 Y0.8878
G2 X6.5442 Y1.1672 I0.3736 J0.0328
G1 X6.9465 Y1.6282
G3 X6.7476 Y2.2403 I-0.2825 J0.2466
G1 X6.1554 Y2.3758
G2 X5.9166 Y2.5499 I0.0836 J0.3656
G1 X5.6017 Y3.0803
G3 X4.9568 I-0.3224 J-0.1914
G1 X4.6419 Y2.5499
G2 X4.4031 Y2.3758 I-0.3224 J0.1914
G1 X3.8109 Y2.2403
G3 X3.5195 Y1.8759 I0.0836 J-0.3656
G1 F10.0 Z-0.27
G3 F80.0 X3.612 Y1.6282 I0.375 J-0.0012
G1 X4.0149 Y1.1665
G2 X4.106 Y0.8875 I-0.2825 J-0.2466
G1 X4.0534 Y0.2824
G3 X4.5738 Y-0.0951 I0.3736 J-0.0324
G1 X5.1328 Y0.1428
G2 X5.4263 I0.1468 J-0.3451
G1 X5.986 Y-0.095
G3 X6.5062 Y0.283 I0.1466 J0.3451
G1 X6.4531 Y0.8878
G2 X6.5442 Y1.1672 I0.3736 J0.0328
G1 X6.9465 Y1.6282
G3 X6.7476 Y2.2403 I-0.2825 J0.2466
G1 X6.1554 Y2.3758
G2 X5.9166 Y2.5499 I0.0836 J0.3656
G1 X5.6017 Y3.0803
G3 X4.9568 I-0.3224 J-0.1914
G1 X4.6419 Y2.5499
G2 X4.4031 Y2.3758 I-0.3224 J0.1914
G1 X3.8109 Y2.2403
G3 X3.5195 Y1.8759 I0.0836 J-0.3656
G1 F10.0 X3.3928 Y1.8756
G3 F80.0 X3.1015 Y2.2403 I-0.375 J-0.0009
G1 X2.5093 Y2.3758
G2 X2.2705 Y2.5499 I0.0836 J0.3656
G1 X1.9556 Y3.0803
G3 X1.3107 I-0.3224 J-0.1914
G1 X0.9958 Y2.5499
G2 X0.7569 Y2.3758 I-0.3224 J0.1914
G1 X0.1648 Y2.2403
G3 X-0.0341 Y1.6282 I0.0836 J-0.3656
G1 X0.3688 Y1.1665
G2 X0.4598 Y0.8875 I-0.2825 J-0.2466
G1 X0.4073 Y0.2824
G3 X0.9277 Y-0.0951 I0.3736 J-0.0324
G1 X1.4867 Y0.1428
G2 X1.7802 I0.1468 J-0.3451
G1 X2.3399 Y-0.095
G3 X2.8601 Y0.283 I0.1466 J0.3451
G1 X2.807 Y0.8878
G2 X2.898 Y1.1672 I0.3736 J0.0328
G1 X3.3003 Y1.6282
G3 X3.3928 Y1.8756 I-0.2825 J0.2466
G1 F10.0 Z-0.285
G3 F80.0 X3.1015 Y2.2403 I-0.375 J-0.0009
G1 X2.5093 Y2.3758
G2 X2.2705 Y2.5499 I0.0836 J0.3656
G1 X1.9556 Y3.0803
G3 X1.3107 I-0.3224 J-0.1914
G1 X0.9958 Y2.5499
G2 X0.7569 Y2.3758 I-0.3224 J0.1914
G1 X0.1648 Y2.2403
G3 X-0.0341 Y1.6282 I0.0836 J-0.3656
G1 X0.3688 Y1.1665
G2 X0.4598 Y0.8875 I-0.2825 J-0.2466
G1 X0.4073 Y0.2824
G3 X0.9277 Y-0.0951 I0.3736 J-0.0324
G1 X1.4867 Y0.1428
G2 X1.7802 I0.1468 J-0.3451
G1 X2.3399 Y-0.095
G3 X2.8601 Y0.283 I0.1466 J0.3451
G1 X2.807 Y0.8878
G2 X2.898 Y1.1672 I0.3736 J0.0328
G1 X3.3003 Y1.6282
G3 X3.3928 Y1.8756 I-0.2825 J0.2466
G1 F10.0 X3.5195 Y1.8754
G3 F80.0 X3.612 Y1.6282 I0.375 J-0.0007
G1 X4.0149 Y1.1665
G2 X4.106 Y0.8875 I-0.2825 J-0.2466
G1 X4.0534 Y0.2824
G3 X4.5738 Y-0.0951 I0.3736 J-0.0324
G1 X5.1328 Y0.1428
G2 X5.4263 I0.1468 J-0.3451
G1 X5.986 Y-0.095
G3 X6.5062 Y0.283 I0.1466 J0.3451
G1 X6.4531 Y0.8878
G2 X6.5442 Y1.1672 I0.3736 J0.0328
G1 X6.9465 Y1.6282
G3 X6.7476 Y2.2403 I-0.2825 J0.2466
G1 X6.1554 Y2.3758
G2 X5.9166 Y2.5499 I0.0836 J0.3656
G1 X5.6017 Y3.0803
G3 X4.9568 I-0.3224 J-0.1914
G1 X4.6419 Y2.5499
G2 X4.4031 Y2.3758 I-0.3224 J0.1914
G1 X3.8109 Y2.2403
G3 X3.5195 Y1.8754 I0.0836 J-0.3656
G1 F10.0 Z-0.3
G3 F80.0 X3.612 Y1.6282 I0.375 J-0.0007
G1 X4.0149 Y1.1665
G2 X4.106 Y0.8875 I-0.2825 J-0.2466
G1 X4.0534 Y0.2824
G3 X4.5738 Y-0.0951 I0.3736 J-0.0324
G1 X5.1328 Y0.1428
G2 X5.4263 I0.1468 J-0.3451
G1 X5.986 Y-0.095
G3 X6.5062 Y0.283 I0.1466 J0.3451
G1 X6.4531 Y0.8878
G2 X6.5442 Y1.1672 I0.3736 J0.0328
G1 X6.9465 Y1.6282
G3 X6.7476 Y2.2403 I-0.2825 J0.2466
G1 X6.1554 Y2.3758
G2 X5.9166 Y2.5499 I0.0836 J0.3656
G1 X5.6017 Y3.0803
G3 X4.9568 I-0.3224 J-0.1914
G1 X4.6419 Y2.5499
G2 X4.4031 Y2.3758 I-0.3224 J0.1914
G1 X3.8109 Y2.2403
G3 X3.5195 Y1.8754 I0.0836 J-0.3656
G1 F10.0 X3.3928 Y1.8752
G3 F80.0 X3.1015 Y2.2403 I-0.375 J-0.0005
G1 X2.5093 Y2.3758
G2 X2.2705 Y2.5499 I0.0836 J0.3656
G1 X1.9556 Y3.0803
G3 X1.3107 I-0.3224 J-0.1914
G1 X0.9958 Y2.5499
G2 X0.7569 Y2.3758 I-0.3224 J0.1914
G1 X0.1648 Y2.2403
G3 X-0.0341 Y1.6282 I0.0836 J-0.3656
G1 X0.3688 Y1.1665
G2 X0.4598 Y0.8875 I-0.2825 J-0.2466
G1 X0.4073 Y0.2824
G3 X0.9277 Y-0.0951 I0.3736 J-0.0324
G1 X1.4867 Y0.1428
G2 X1.7802 I0.1468 J-0.3451
G1 X2.3399 Y-0.095
G3 X2.8601 Y0.283 I0.1466 J0.3451
G1 X2.807 Y0.8878
G2 X2.898 Y1.1672 I0.3736 J0.0328
G1 X3.3003 Y1.6282
G3 X3.3928 Y1.8752 I-0.2825 J0.2466
G1 F10.0 Z-0.315
G3 F80.0 X3.1015 Y2.2403 I-0.375 J-0.0005
G1 X2.5093 Y2.3758
G2 X2.2705 Y2.5499 I0.0836 J0.3656
G1 X1.9556 Y3.0803
G3 X1.3107 I-0.3224 J-0.1914
G1 X0.9958 Y2.5499
G2 X0.7569 Y2.3758 I-0.3224 J0.1914
G1 X0.1648 Y2.2403
G3 X-0.0341 Y1.6282 I0.0836 J-0.3656
G1 X0.3688 Y1.1665
G2 X0.4598 Y0.8875 I-0.2825 J-0.2466
G1 X0.4073 Y0.2824
G3 X0.9277 Y-0.0951 I0.3736 J-0.0324
G1 X1.4867 Y0.1428
G2 X1.7802 I0.1468 J-0.3451
G1 X2.3399 Y-0.095
G3 X2.8601 Y0.283 I0.1466 J0.3451
G1 X2.807 Y0.8878
G2 X2.898 Y1.1672 I0.3736 J0.0328
G1 X3.3003 Y1.6282
G3 X3.3928 Y1.8752 I-0.2825 J0.2466
G1 F10.0 X3.5195 Y1.8751
G3 F80.0 X3.612 Y1.6282 I0.375 J-0.0004
G1 X4.0149 Y1.1665
G2 X4.106 Y0.8875 I-0.2825 J-0.2466
G1 X4.0534 Y0.2824
G3 X4.5738 Y-0.0951 I0.3736 J-0.0324
G1 X5.1328 Y0.1428
G2 X5.4263 I0.1468 J-0.3451
G1 X5.986 Y-0.095
G3 X6.5062 Y0.283 I0.1466 J0.3451
G1 X6.4531 Y0.8878
G2 X6.5442 Y1.1672 I0.3736 J0.0328
G1 X6.9465 Y1.6282
G3 X6.7476 Y2.2403 I-0.2825 J0.2466
G1 X6.1554 Y2.3758
G2 X5.9166 Y2.5499 I0.0836 J0.3656
G1 X5.6017 Y3.0803
G3 X4.9568 I-0.3224 J-0.1914
G1 X4.6419 Y2.5499
G2 X4.4031 Y2.3758 I-0.3224 J0.1914
G1 X3.8109 Y2.2403
G3 X3.5195 Y1.8751 I0.0836 J-0.3656
G1 F10.0 Z-0.33
G3 F80.0 X3.612 Y1.6282 I0.375 J-0.0004
G1 X4.0149 Y1.1665
G2 X4.106 Y0.8875 I-0.2825 J-0.2466
G1 X4.0534 Y0.2824
G3 X4.5738 Y-0.0951 I0.3736 J-0.0324
G1 X5.1328 Y0.1428
G2 X5.4263 I0.1468 J-0.3451
G1 X5.986 Y-0.095
G3 X6.5062 Y0.283 I0.1466 J0.3451
G1 X6.4531 Y0.8878
G2 X6.5442 Y1.1672 I0.3736 J0.0328
G1 X6.9465 Y1.6282
G3 X6.7476 Y2.2403 I-0.2825 J0.2466
G1 X6.1554 Y2.3758
G2 X5.9166 Y2.5499 I0.0836 J0.3656
G1 X5.6017 Y3.0803
G3 X4.9568 I-0.3224 J-0.1914
G1 X4.6419 Y2.5499
G2 X4.4031 Y2.3758 I-0.3224 J0.1914
G1 X3.8109 Y2.2403
G3 X3.5195 Y1.8751 I0.0836 J-0.3656
G1 F10.0 X3.3928 Y1.875
G3 F80.0 X3.1015 Y2.2403 I-0.375 J-0.0003
G1 X2.5093 Y2.3758
G2 X2.2705 Y2.5499 I0.0836 J0.3656
G1 X1.9556 Y3.0803
G3 X1.3107 I-0.3224 J-0.1914
G1 X0.9958 Y2.5499
G2 X0.7569 Y2.3758 I-0.3224 J0.1914
G1 X0.1648 Y2.2403
G3 X-0.0341 Y1.6282 I0.0836 J-0.3656
G1 X0.3688 Y1.1665
G2 X0.4598 Y0.8875 I-0.2825 J-0.2466
G1 X0.4073 Y0.2824
G3 X0.9277 Y-0.0951 I0.3736 J-0.0324
G1 X1.4867 Y0.1428
G2 X1.7802 I0.1468 J-0.3451
G1 X2.3399 Y-0.095
G3 X2.8601 Y0.283 I0.1466 J0.3451
G1 X2.807 Y0.8878
G2 X2.898 Y1.1672 I0.3736 J0.0328
G1 X3.3003 Y1.6282
G3 X3.3928 Y1.875 I-0.2825 J0.2466
G1 F10.0 Z-0.345
G3 F80.0 X3.1015 Y2.2403 I-0.375 J-0.0003
G1 X2.5093 Y2.3758
G2 X2.2705 Y2.5499 I0.0836 J0.3656
G1 X1.9556 Y3.0803
G3 X1.3107 I-0.3224 J-0.1914
G1 X0.9958 Y2.5499
G2 X0.7569 Y2.3758 I-0.3224 J0.1914
G1 X0.1648 Y2.2403
G3 X-0.0341 Y1.6282 I0.0836 J-0.3656
G1 X0.3688 Y1.1665
G2 X0.4598 Y0.8875 I-0.2825 J-0.2466
G1 X0.4073 Y0.2824
G3 X0.9277 Y-0.0951 I0.3736 J-0.0324
G1 X1.4867 Y0.1428
G2 X1.7802 I0.1468 J-0.3451
G1 X2.3399 Y-0.095
G3 X2.8601 Y0.283 I0.1466 J0.3451
G1 X2.807 Y0.8878
G2 X2.898 Y1.1672 I0.3736 J0.0328
G1 X3.3003 Y1.6282
G3 X3.3928 Y1.875 I-0.2825 J0.2466
G1 F10.0 X3.5195
G3 F80.0 X3.612 Y1.6282 I0.375 J-0.0002
G1 X4.0149 Y1.1665
G2 X4.106 Y0.8875 I-0.2825 J-0.2466
G1 X4.0534 Y0.2824
G3 X4.5738 Y-0.0951 I0.3736 J-0.0324
G1 X5.1328 Y0.1428
G2 X5.4263 I0.1468 J-0.3451
G1 X5.986 Y-0.095
G3 X6.5062 Y0.283 I0.1466 J0.3451
G1 X6.4531 Y0.8878
G2 X6.5442 Y1.1672 I0.3736 J0.0328
G1 X6.9465 Y1.6282
G3 X6.7476 Y2.2403 I-0.2825 J0.2466
G1 X6.1554 Y2.3758
G2 X5.9166 Y2.5499 I0.0836 J0.3656
G1 X5.6017 Y3.0803
G3 X4.9568 I-0.3224 J-0.1914
G1 X4.6419 Y2.5499
G2 X4.4031 Y2.3758 I-0.3224 J0.1914
G1 X3.8109 Y2.2403
G3 X3.5195 Y1.875 I0.0836 J-0.3656
G1 F10.0 Z-0.36
G3 F80.0 X3.612 Y1.6282 I0.375 J-0.0002
G1 X4.0149 Y1.1665
G2 X4.106 Y0.8875 I-0.2825 J-0.2466
G1 X4.0534 Y0.2824
G3 X4.5738 Y-0.0951 I0.3736 J-0.0324
G1 X5.1328 Y0.1428
G2 X5.4263 I0.1468 J-0.3451
G1 X5.986 Y-0.095
G3 X6.5062 Y0.283 I0.1466 J0.3451
G1 X6.4531 Y0.8878
G2 X6.5442 Y1.1672 I0.3736 J0.0328
G1 X6.9465 Y1.6282
G3 X6.7476 Y2.2403 I-0.2825 J0.2466
G1 X6.1554 Y2.3758
G2 X5.9166 Y2.5499 I0.0836 J0.3656
G1 X5.6017 Y3.0803
G3 X4.9568 I-0.3224 J-0.1914
G1 X4.6419 Y2.5499
G2 X4.4031 Y2.3758 I-0.3224 J0.1914
G1 X3.8109 Y2.2403
G3 X3.5195 Y1.875 I0.0836 J-0.3656
G1 F10.0 X3.3928 Y1.8749
G3 F80.0 X3.1015 Y2.2403 I-0.375 J-0.0002
G1 X2.5093 Y2.3758
G2 X2.2705 Y2.5499 I0.0836 J0.3656
G1 X1.9556 Y3.0803
G3 X1.3107 I-0.3224 J-0.1914
G1 X0.9958 Y2.5499
G2 X0.7569 Y2.3758 I-0.3224 J0.1914
G1 X0.1648 Y2.2403
G3 X-0.0341 Y1.6282 I0.0836 J-0.3656
G1 X0.3688 Y1.1665
G2 X0.4598 Y0.8875 I-0.2825 J-0.2466
G1 X0.4073 Y0.2824
G3 X0.9277 Y-0.0951 I0.3736 J-0.0324
G1 X1.4867 Y0.1428
G2 X1.7802 I0.1468 J-0.3451
G1 X2.3399 Y-0.095
G3 X2.8601 Y0.283 I0.1466 J0.3451
G1 X2.807 Y0.8878
G2 X2.898 Y1.1672 I0.3736 J0.0328
G1 X3.3003 Y1.6282
G3 X3.3928 Y1.8749 I-0.2825 J0.2466
G1 F10.0 Z-0.375
G3 F80.0 X3.1015 Y2.2403 I-0.375 J-0.0002
G1 X2.5093 Y2.3758
G2 X2.2705 Y2.5499 I0.0836 J0.3656
G1 X1.9556 Y3.0803
G3 X1.3107 I-0.3224 J-0.1914
G1 X0.9958 Y2.5499
G2 X0.7569 Y2.3758 I-0.3224 J0.1914
G1 X0.1648 Y2.2403
G3 X-0.0341 Y1.6282 I0.0836 J-0.3656
G1 X0.3688 Y1.1665
G2 X0.4598 Y0.8875 I-0.2825 J-0.2466
G1 X0.4073 Y0.2824
G3 X0.9277 Y-0.0951 I0.3736 J-0.0324
G1 X1.4867 Y0.1428
G2 X1.7802 I0.1468 J-0.3451
G1 X2.3399 Y-0.095
G3 X2.8601 Y0.283 I0.1466 J0.3451
G1 X2.807 Y0.8878
G2 X2.898 Y1.1672 I0.3736 J0.0328
G1 X3.3003 Y1.6282
G3 X3.3928 Y1.8749 I-0.2825 J0.2466
G1 F10.0 X3.5195
G3 F80.0 X3.612 Y1.6282 I0.375 J-0.0001
G1 X4.0149 Y1.1665
G2 X4.106 Y0.8875 I-0.2825 J-0.2466
G1 X4.0534 Y0.2824
G3 X4.5738 Y-0.0951 I0.3736 J-0.0324
G1 X5.1328 Y0.1428
G2 X5.4263 I0.1468 J-0.3451
G1 X5.986 Y-0.095
G3 X6.5062 Y0.283 I0.1466 J0.3451
G1 X6.4531 Y0.8878
G2 X6.5442 Y1.1672 I0.3736 J0.0328
G1 X6.9465 Y1.6282
G3 X6.7476 Y2.2403 I-0.2825 J0.2466
G1 X6.1554 Y2.3758
G2 X5.9166 Y2.5499 I0.0836 J0.3656
G1 X5.6017 Y3.0803
G3 X4.9568 I-0.3224 J-0.1914
G1 X4.6419 Y2.5499
G2 X4.4031 Y2.3758 I-0.3224 J0.1914
G1 X3.8109 Y2.2403
G3 X3.5195 Y1.8749 I0.0836 J-0.3656
G1 F10.0 Z-0.39
G3 F80.0 X3.612 Y1.6282 I0.375 J-0.0001
G1 X4.0149 Y1.1665
G2 X4.106 Y0.8875 I-0.2825 J-0.2466
G1 X4.0534 Y0.2824
G3 X4.5738 Y-0.0951 I0.3736 J-0.0324
G1 X5.1328 Y0.1428
G2 X5.4263 I0.1468 J-0.3451
G1 X5.986 Y-0.095
G3 X6.5062 Y0.283 I0.1466 J0.3451
G1 X6.4531 Y0.8878
G2 X6.5442 Y1.1672 I0.3736 J0.0328
G1 X6.9465 Y1.6282
G3 X6.7476 Y2.2403 I-0.2825 J0.2466
G1 X6.1554 Y2.3758
G2 X5.9166 Y2.5499 I0.0836 J0.3656
G1 X5.6017 Y3.0803
G3 X4.9568 I-0.3224 J-0.1914
G1 X4.6419 Y2.5499
G2 X4.4031 Y2.3758 I-0.3224 J0.1914
G1 X3.8109 Y2.2403
G3 X3.5195 Y1.8749 I0.0836 J-0.3656
G1 F10.0 X3.3928 Y1.8748
G3 F80.0 X3.1015 Y2.2403 I-0.375 J-0.0001
G1 X2.5093 Y2.3758
G2 X2.2705 Y2.5499 I0.0836 J0.3656
G1 X1.9556 Y3.0803
G3 X1.3107 I-0.3224 J-0.1914
G1 X0.9958 Y2.5499
G2 X0.7569 Y2.3758 I-0.3224 J0.1914
G1 X0.1648 Y2.2403
G3 X-0.0341 Y1.6282 I0.0836 J-0.3656
G1 X0.3688 Y1.1665
G2 X0.4598 Y0.8875 I-0.2825 J-0.2466
G1 X0.4073 Y0.2824
G3 X0.9277 Y-0.0951 I0.3736 J-0.0324
G1 X1.4867 Y0.1428
G2 X1.7802 I0.1468 J-0.3451
G1 X2.3399 Y-0.095
G3 X2.8601 Y0.283 I0.1466 J0.3451
G1 X2.807 Y0.8878
G2 X2.898 Y1.1672 I0.3736 J0.0328
G1 X3.3003 Y1.6282
G3 X3.3928 Y1.8748 I-0.2825 J0.2466
G0 Z0.125
M5
M30
