( Made using CamBam - http://www.cambam.info )
( drive_coupler_b_x2 5/4/2016 10:41:19 PM )
( T1 : 0.125 )
G20 G90 G64 G40
G0 Z0.125
( T1 : 0.125 )
T1 M6
( Drills )
G17
M3
G0 X1.6331 Y2.0918
G98
G83 X1.6331 Y2.0918 Z-0.39 Q0.125 R0.125 F10.0
G83 X2.1048 Y1.8965 Z-0.39
G83 X2.3001 Y1.4248 Z-0.39
G83 X2.1048 Y0.9532 Z-0.39
G83 X1.6331 Y0.7578 Z-0.39
G83 X1.1615 Y0.9532 Z-0.39
G83 X0.9661 Y1.4248 Z-0.39
G83 X1.1615 Y1.8965 Z-0.39
G83 X4.6122 Y1.4248 Z-0.39
G83 X4.8076 Y1.8965 Z-0.39
G83 X5.2792 Y2.0918 Z-0.39
G83 X5.7509 Y1.8965 Z-0.39
G83 X5.9462 Y1.4248 Z-0.39
G83 X5.7509 Y0.9532 Z-0.39
G83 X5.2792 Y0.7578 Z-0.39
G83 X4.8076 Y0.9532 Z-0.39
G80
( 0_25drills )
G0 Z0.125
G0 X1.6711 Y2.8888
G0 Z0.0625
G1 F10.0 Z-0.015
G2 F15.0 X1.6141 Y2.8559 I-0.038 J0.0
G2 Y2.9217 I0.019 J0.0329
G2 X1.6711 Y2.8888 I0.019 J-0.0329
G1 F10.0 Z-0.03
G2 F15.0 X1.6141 Y2.8559 I-0.038 J0.0
G2 Y2.9217 I0.019 J0.0329
G2 X1.6711 Y2.8888 I0.019 J-0.0329
G1 F10.0 Z-0.045
G2 F15.0 X1.6141 Y2.8559 I-0.038 J0.0
G2 Y2.9217 I0.019 J0.0329
G2 X1.6711 Y2.8888 I0.019 J-0.0329
G1 F10.0 Z-0.06
G2 F15.0 X1.6141 Y2.8559 I-0.038 J0.0
G2 Y2.9217 I0.019 J0.0329
G2 X1.6711 Y2.8888 I0.019 J-0.0329
G1 F10.0 Z-0.075
G2 F15.0 X1.6141 Y2.8559 I-0.038 J0.0
G2 Y2.9217 I0.019 J0.0329
G2 X1.6711 Y2.8888 I0.019 J-0.0329
G1 F10.0 Z-0.09
G2 F15.0 X1.6141 Y2.8559 I-0.038 J0.0
G2 Y2.9217 I0.019 J0.0329
G2 X1.6711 Y2.8888 I0.019 J-0.0329
G1 F10.0 Z-0.105
G2 F15.0 X1.6141 Y2.8559 I-0.038 J0.0
G2 Y2.9217 I0.019 J0.0329
G2 X1.6711 Y2.8888 I0.019 J-0.0329
G1 F10.0 Z-0.12
G2 F15.0 X1.6141 Y2.8559 I-0.038 J0.0
G2 Y2.9217 I0.019 J0.0329
G2 X1.6711 Y2.8888 I0.019 J-0.0329
G1 F10.0 Z-0.135
G2 F15.0 X1.6141 Y2.8559 I-0.038 J0.0
G2 Y2.9217 I0.019 J0.0329
G2 X1.6711 Y2.8888 I0.019 J-0.0329
G1 F10.0 Z-0.15
G2 F15.0 X1.6141 Y2.8559 I-0.038 J0.0
G2 Y2.9217 I0.019 J0.0329
G2 X1.6711 Y2.8888 I0.019 J-0.0329
G1 F10.0 Z-0.165
G2 F15.0 X1.6141 Y2.8559 I-0.038 J0.0
G2 Y2.9217 I0.019 J0.0329
G2 X1.6711 Y2.8888 I0.019 J-0.0329
G1 F10.0 Z-0.18
G2 F15.0 X1.6141 Y2.8559 I-0.038 J0.0
G2 Y2.9217 I0.019 J0.0329
G2 X1.6711 Y2.8888 I0.019 J-0.0329
G1 F10.0 Z-0.195
G2 F15.0 X1.6141 Y2.8559 I-0.038 J0.0
G2 Y2.9217 I0.019 J0.0329
G2 X1.6711 Y2.8888 I0.019 J-0.0329
G1 F10.0 Z-0.21
G2 F15.0 X1.6141 Y2.8559 I-0.038 J0.0
G2 Y2.9217 I0.019 J0.0329
G2 X1.6711 Y2.8888 I0.019 J-0.0329
G1 F10.0 Z-0.225
G2 F15.0 X1.6141 Y2.8559 I-0.038 J0.0
G2 Y2.9217 I0.019 J0.0329
G2 X1.6711 Y2.8888 I0.019 J-0.0329
G1 F10.0 Z-0.24
G2 F15.0 X1.6141 Y2.8559 I-0.038 J0.0
G2 Y2.9217 I0.019 J0.0329
G2 X1.6711 Y2.8888 I0.019 J-0.0329
G1 F10.0 Z-0.255
G2 F15.0 X1.6141 Y2.8559 I-0.038 J0.0
G2 Y2.9217 I0.019 J0.0329
G2 X1.6711 Y2.8888 I0.019 J-0.0329
G1 F10.0 Z-0.27
G2 F15.0 X1.6141 Y2.8559 I-0.038 J0.0
G2 Y2.9217 I0.019 J0.0329
G2 X1.6711 Y2.8888 I0.019 J-0.0329
G1 F10.0 Z-0.285
G2 F15.0 X1.6141 Y2.8559 I-0.038 J0.0
G2 Y2.9217 I0.019 J0.0329
G2 X1.6711 Y2.8888 I0.019 J-0.0329
G1 F10.0 Z-0.3
G2 F15.0 X1.6141 Y2.8559 I-0.038 J0.0
G2 Y2.9217 I0.019 J0.0329
G2 X1.6711 Y2.8888 I0.019 J-0.0329
G1 F10.0 Z-0.315
G2 F15.0 X1.6141 Y2.8559 I-0.038 J0.0
G2 Y2.9217 I0.019 J0.0329
G2 X1.6711 Y2.8888 I0.019 J-0.0329
G1 F10.0 Z-0.33
G2 F15.0 X1.6141 Y2.8559 I-0.038 J0.0
G2 Y2.9217 I0.019 J0.0329
G2 X1.6711 Y2.8888 I0.019 J-0.0329
G1 F10.0 Z-0.345
G2 F15.0 X1.6141 Y2.8559 I-0.038 J0.0
G2 Y2.9217 I0.019 J0.0329
G2 X1.6711 Y2.8888 I0.019 J-0.0329
G1 F10.0 Z-0.36
G2 F15.0 X1.6141 Y2.8559 I-0.038 J0.0
G2 Y2.9217 I0.019 J0.0329
G2 X1.6711 Y2.8888 I0.019 J-0.0329
G1 F10.0 Z-0.375
G2 F15.0 X1.6141 Y2.8559 I-0.038 J0.0
G2 Y2.9217 I0.019 J0.0329
G2 X1.6711 Y2.8888 I0.019 J-0.0329
G1 F10.0 Z-0.39
G2 F15.0 X1.6141 Y2.8559 I-0.038 J0.0
G2 Y2.9217 I0.019 J0.0329
G2 X1.6711 Y2.8888 I0.019 J-0.0329
G0 Z0.125
G0 X2.9875 Y1.8976
G0 Z0.0625
G1 F10.0 Z-0.015
G2 F15.0 X2.9988 Y1.9076 I0.0304 J-0.0229
G2 X3.0558 Y1.8747 I0.019 J-0.0329
G2 X2.9988 Y1.8418 I-0.038 J0.0
G2 X2.9875 Y1.8976 I0.019 J0.0329
G1 F10.0 Z-0.03
G2 F15.0 X2.9988 Y1.9076 I0.0304 J-0.0229
G2 X3.0558 Y1.8747 I0.019 J-0.0329
G2 X2.9988 Y1.8418 I-0.038 J0.0
G2 X2.9875 Y1.8976 I0.019 J0.0329
G1 F10.0 Z-0.045
G2 F15.0 X2.9988 Y1.9076 I0.0304 J-0.0229
G2 X3.0558 Y1.8747 I0.019 J-0.0329
G2 X2.9988 Y1.8418 I-0.038 J0.0
G2 X2.9875 Y1.8976 I0.019 J0.0329
G1 F10.0 Z-0.06
G2 F15.0 X2.9988 Y1.9076 I0.0304 J-0.0229
G2 X3.0558 Y1.8747 I0.019 J-0.0329
G2 X2.9988 Y1.8418 I-0.038 J0.0
G2 X2.9875 Y1.8976 I0.019 J0.0329
G1 F10.0 Z-0.075
G2 F15.0 X2.9988 Y1.9076 I0.0304 J-0.0229
G2 X3.0558 Y1.8747 I0.019 J-0.0329
G2 X2.9988 Y1.8418 I-0.038 J0.0
G2 X2.9875 Y1.8976 I0.019 J0.0329
G1 F10.0 Z-0.09
G2 F15.0 X2.9988 Y1.9076 I0.0304 J-0.0229
G2 X3.0558 Y1.8747 I0.019 J-0.0329
G2 X2.9988 Y1.8418 I-0.038 J0.0
G2 X2.9875 Y1.8976 I0.019 J0.0329
G1 F10.0 Z-0.105
G2 F15.0 X2.9988 Y1.9076 I0.0304 J-0.0229
G2 X3.0558 Y1.8747 I0.019 J-0.0329
G2 X2.9988 Y1.8418 I-0.038 J0.0
G2 X2.9875 Y1.8976 I0.019 J0.0329
G1 F10.0 Z-0.12
G2 F15.0 X2.9988 Y1.9076 I0.0304 J-0.0229
G2 X3.0558 Y1.8747 I0.019 J-0.0329
G2 X2.9988 Y1.8418 I-0.038 J0.0
G2 X2.9875 Y1.8976 I0.019 J0.0329
G1 F10.0 Z-0.135
G2 F15.0 X2.9988 Y1.9076 I0.0304 J-0.0229
G2 X3.0558 Y1.8747 I0.019 J-0.0329
G2 X2.9988 Y1.8418 I-0.038 J0.0
G2 X2.9875 Y1.8976 I0.019 J0.0329
G1 F10.0 Z-0.15
G2 F15.0 X2.9988 Y1.9076 I0.0304 J-0.0229
G2 X3.0558 Y1.8747 I0.019 J-0.0329
G2 X2.9988 Y1.8418 I-0.038 J0.0
G2 X2.9875 Y1.8976 I0.019 J0.0329
G1 F10.0 Z-0.165
G2 F15.0 X2.9988 Y1.9076 I0.0304 J-0.0229
G2 X3.0558 Y1.8747 I0.019 J-0.0329
G2 X2.9988 Y1.8418 I-0.038 J0.0
G2 X2.9875 Y1.8976 I0.019 J0.0329
G1 F10.0 Z-0.18
G2 F15.0 X2.9988 Y1.9076 I0.0304 J-0.0229
G2 X3.0558 Y1.8747 I0.019 J-0.0329
G2 X2.9988 Y1.8418 I-0.038 J0.0
G2 X2.9875 Y1.8976 I0.019 J0.0329
G1 F10.0 Z-0.195
G2 F15.0 X2.9988 Y1.9076 I0.0304 J-0.0229
G2 X3.0558 Y1.8747 I0.019 J-0.0329
G2 X2.9988 Y1.8418 I-0.038 J0.0
G2 X2.9875 Y1.8976 I0.019 J0.0329
G1 F10.0 Z-0.21
G2 F15.0 X2.9988 Y1.9076 I0.0304 J-0.0229
G2 X3.0558 Y1.8747 I0.019 J-0.0329
G2 X2.9988 Y1.8418 I-0.038 J0.0
G2 X2.9875 Y1.8976 I0.019 J0.0329
G1 F10.0 Z-0.225
G2 F15.0 X2.9988 Y1.9076 I0.0304 J-0.0229
G2 X3.0558 Y1.8747 I0.019 J-0.0329
G2 X2.9988 Y1.8418 I-0.038 J0.0
G2 X2.9875 Y1.8976 I0.019 J0.0329
G1 F10.0 Z-0.24
G2 F15.0 X2.9988 Y1.9076 I0.0304 J-0.0229
G2 X3.0558 Y1.8747 I0.019 J-0.0329
G2 X2.9988 Y1.8418 I-0.038 J0.0
G2 X2.9875 Y1.8976 I0.019 J0.0329
G1 F10.0 Z-0.255
G2 F15.0 X2.9988 Y1.9076 I0.0304 J-0.0229
G2 X3.0558 Y1.8747 I0.019 J-0.0329
G2 X2.9988 Y1.8418 I-0.038 J0.0
G2 X2.9875 Y1.8976 I0.019 J0.0329
G1 F10.0 Z-0.27
G2 F15.0 X2.9988 Y1.9076 I0.0304 J-0.0229
G2 X3.0558 Y1.8747 I0.019 J-0.0329
G2 X2.9988 Y1.8418 I-0.038 J0.0
G2 X2.9875 Y1.8976 I0.019 J0.0329
G1 F10.0 Z-0.285
G2 F15.0 X2.9988 Y1.9076 I0.0304 J-0.0229
G2 X3.0558 Y1.8747 I0.019 J-0.0329
G2 X2.9988 Y1.8418 I-0.038 J0.0
G2 X2.9875 Y1.8976 I0.019 J0.0329
G1 F10.0 Z-0.3
G2 F15.0 X2.9988 Y1.9076 I0.0304 J-0.0229
G2 X3.0558 Y1.8747 I0.019 J-0.0329
G2 X2.9988 Y1.8418 I-0.038 J0.0
G2 X2.9875 Y1.8976 I0.019 J0.0329
G1 F10.0 Z-0.315
G2 F15.0 X2.9988 Y1.9076 I0.0304 J-0.0229
G2 X3.0558 Y1.8747 I0.019 J-0.0329
G2 X2.9988 Y1.8418 I-0.038 J0.0
G2 X2.9875 Y1.8976 I0.019 J0.0329
G1 F10.0 Z-0.33
G2 F15.0 X2.9988 Y1.9076 I0.0304 J-0.0229
G2 X3.0558 Y1.8747 I0.019 J-0.0329
G2 X2.9988 Y1.8418 I-0.038 J0.0
G2 X2.9875 Y1.8976 I0.019 J0.0329
G1 F10.0 Z-0.345
G2 F15.0 X2.9988 Y1.9076 I0.0304 J-0.0229
G2 X3.0558 Y1.8747 I0.019 J-0.0329
G2 X2.9988 Y1.8418 I-0.038 J0.0
G2 X2.9875 Y1.8976 I0.019 J0.0329
G1 F10.0 Z-0.36
G2 F15.0 X2.9988 Y1.9076 I0.0304 J-0.0229
G2 X3.0558 Y1.8747 I0.019 J-0.0329
G2 X2.9988 Y1.8418 I-0.038 J0.0
G2 X2.9875 Y1.8976 I0.019 J0.0329
G1 F10.0 Z-0.375
G2 F15.0 X2.9988 Y1.9076 I0.0304 J-0.0229
G2 X3.0558 Y1.8747 I0.019 J-0.0329
G2 X2.9988 Y1.8418 I-0.038 J0.0
G2 X2.9875 Y1.8976 I0.019 J0.0329
G1 F10.0 Z-0.39
G2 F15.0 X2.9988 Y1.9076 I0.0304 J-0.0229
G2 X3.0558 Y1.8747 I0.019 J-0.0329
G2 X2.9988 Y1.8418 I-0.038 J0.0
G2 X2.9875 Y1.8976 I0.019 J0.0329
G0 Z0.125
G0 X3.8565 Y1.8757
G0 Z0.0625
G1 F10.0 Z-0.015
G2 F15.0 X3.8755 Y1.9076 I0.038 J-0.001
G2 X3.9325 Y1.8747 I0.019 J-0.0329
G2 X3.8755 Y1.8418 I-0.038 J0.0
G2 X3.8565 Y1.8757 I0.019 J0.0329
G1 F10.0 Z-0.03
G2 F15.0 X3.8755 Y1.9076 I0.038 J-0.001
G2 X3.9325 Y1.8747 I0.019 J-0.0329
G2 X3.8755 Y1.8418 I-0.038 J0.0
G2 X3.8565 Y1.8757 I0.019 J0.0329
G1 F10.0 Z-0.045
G2 F15.0 X3.8755 Y1.9076 I0.038 J-0.001
G2 X3.9325 Y1.8747 I0.019 J-0.0329
G2 X3.8755 Y1.8418 I-0.038 J0.0
G2 X3.8565 Y1.8757 I0.019 J0.0329
G1 F10.0 Z-0.06
G2 F15.0 X3.8755 Y1.9076 I0.038 J-0.001
G2 X3.9325 Y1.8747 I0.019 J-0.0329
G2 X3.8755 Y1.8418 I-0.038 J0.0
G2 X3.8565 Y1.8757 I0.019 J0.0329
G1 F10.0 Z-0.075
G2 F15.0 X3.8755 Y1.9076 I0.038 J-0.001
G2 X3.9325 Y1.8747 I0.019 J-0.0329
G2 X3.8755 Y1.8418 I-0.038 J0.0
G2 X3.8565 Y1.8757 I0.019 J0.0329
G1 F10.0 Z-0.09
G2 F15.0 X3.8755 Y1.9076 I0.038 J-0.001
G2 X3.9325 Y1.8747 I0.019 J-0.0329
G2 X3.8755 Y1.8418 I-0.038 J0.0
G2 X3.8565 Y1.8757 I0.019 J0.0329
G1 F10.0 Z-0.105
G2 F15.0 X3.8755 Y1.9076 I0.038 J-0.001
G2 X3.9325 Y1.8747 I0.019 J-0.0329
G2 X3.8755 Y1.8418 I-0.038 J0.0
G2 X3.8565 Y1.8757 I0.019 J0.0329
G1 F10.0 Z-0.12
G2 F15.0 X3.8755 Y1.9076 I0.038 J-0.001
G2 X3.9325 Y1.8747 I0.019 J-0.0329
G2 X3.8755 Y1.8418 I-0.038 J0.0
G2 X3.8565 Y1.8757 I0.019 J0.0329
G1 F10.0 Z-0.135
G2 F15.0 X3.8755 Y1.9076 I0.038 J-0.001
G2 X3.9325 Y1.8747 I0.019 J-0.0329
G2 X3.8755 Y1.8418 I-0.038 J0.0
G2 X3.8565 Y1.8757 I0.019 J0.0329
G1 F10.0 Z-0.15
G2 F15.0 X3.8755 Y1.9076 I0.038 J-0.001
G2 X3.9325 Y1.8747 I0.019 J-0.0329
G2 X3.8755 Y1.8418 I-0.038 J0.0
G2 X3.8565 Y1.8757 I0.019 J0.0329
G1 F10.0 Z-0.165
G2 F15.0 X3.8755 Y1.9076 I0.038 J-0.001
G2 X3.9325 Y1.8747 I0.019 J-0.0329
G2 X3.8755 Y1.8418 I-0.038 J0.0
G2 X3.8565 Y1.8757 I0.019 J0.0329
G1 F10.0 Z-0.18
G2 F15.0 X3.8755 Y1.9076 I0.038 J-0.001
G2 X3.9325 Y1.8747 I0.019 J-0.0329
G2 X3.8755 Y1.8418 I-0.038 J0.0
G2 X3.8565 Y1.8757 I0.019 J0.0329
G1 F10.0 Z-0.195
G2 F15.0 X3.8755 Y1.9076 I0.038 J-0.001
G2 X3.9325 Y1.8747 I0.019 J-0.0329
G2 X3.8755 Y1.8418 I-0.038 J0.0
G2 X3.8565 Y1.8757 I0.019 J0.0329
G1 F10.0 Z-0.21
G2 F15.0 X3.8755 Y1.9076 I0.038 J-0.001
G2 X3.9325 Y1.8747 I0.019 J-0.0329
G2 X3.8755 Y1.8418 I-0.038 J0.0
G2 X3.8565 Y1.8757 I0.019 J0.0329
G1 F10.0 Z-0.225
G2 F15.0 X3.8755 Y1.9076 I0.038 J-0.001
G2 X3.9325 Y1.8747 I0.019 J-0.0329
G2 X3.8755 Y1.8418 I-0.038 J0.0
G2 X3.8565 Y1.8757 I0.019 J0.0329
G1 F10.0 Z-0.24
G2 F15.0 X3.8755 Y1.9076 I0.038 J-0.001
G2 X3.9325 Y1.8747 I0.019 J-0.0329
G2 X3.8755 Y1.8418 I-0.038 J0.0
G2 X3.8565 Y1.8757 I0.019 J0.0329
G1 F10.0 Z-0.255
G2 F15.0 X3.8755 Y1.9076 I0.038 J-0.001
G2 X3.9325 Y1.8747 I0.019 J-0.0329
G2 X3.8755 Y1.8418 I-0.038 J0.0
G2 X3.8565 Y1.8757 I0.019 J0.0329
G1 F10.0 Z-0.27
G2 F15.0 X3.8755 Y1.9076 I0.038 J-0.001
G2 X3.9325 Y1.8747 I0.019 J-0.0329
G2 X3.8755 Y1.8418 I-0.038 J0.0
G2 X3.8565 Y1.8757 I0.019 J0.0329
G1 F10.0 Z-0.285
G2 F15.0 X3.8755 Y1.9076 I0.038 J-0.001
G2 X3.9325 Y1.8747 I0.019 J-0.0329
G2 X3.8755 Y1.8418 I-0.038 J0.0
G2 X3.8565 Y1.8757 I0.019 J0.0329
G1 F10.0 Z-0.3
G2 F15.0 X3.8755 Y1.9076 I0.038 J-0.001
G2 X3.9325 Y1.8747 I0.019 J-0.0329
G2 X3.8755 Y1.8418 I-0.038 J0.0
G2 X3.8565 Y1.8757 I0.019 J0.0329
G1 F10.0 Z-0.315
G2 F15.0 X3.8755 Y1.9076 I0.038 J-0.001
G2 X3.9325 Y1.8747 I0.019 J-0.0329
G2 X3.8755 Y1.8418 I-0.038 J0.0
G2 X3.8565 Y1.8757 I0.019 J0.0329
G1 F10.0 Z-0.33
G2 F15.0 X3.8755 Y1.9076 I0.038 J-0.001
G2 X3.9325 Y1.8747 I0.019 J-0.0329
G2 X3.8755 Y1.8418 I-0.038 J0.0
G2 X3.8565 Y1.8757 I0.019 J0.0329
G1 F10.0 Z-0.345
G2 F15.0 X3.8755 Y1.9076 I0.038 J-0.001
G2 X3.9325 Y1.8747 I0.019 J-0.0329
G2 X3.8755 Y1.8418 I-0.038 J0.0
G2 X3.8565 Y1.8757 I0.019 J0.0329
G1 F10.0 Z-0.36
G2 F15.0 X3.8755 Y1.9076 I0.038 J-0.001
G2 X3.9325 Y1.8747 I0.019 J-0.0329
G2 X3.8755 Y1.8418 I-0.038 J0.0
G2 X3.8565 Y1.8757 I0.019 J0.0329
G1 F10.0 Z-0.375
G2 F15.0 X3.8755 Y1.9076 I0.038 J-0.001
G2 X3.9325 Y1.8747 I0.019 J-0.0329
G2 X3.8755 Y1.8418 I-0.038 J0.0
G2 X3.8565 Y1.8757 I0.019 J0.0329
G1 F10.0 Z-0.39
G2 F15.0 X3.8755 Y1.9076 I0.038 J-0.001
G2 X3.9325 Y1.8747 I0.019 J-0.0329
G2 X3.8755 Y1.8418 I-0.038 J0.0
G2 X3.8565 Y1.8757 I0.019 J0.0329
G0 Z0.125
G0 X4.4144 Y0.2858
G0 Z0.0625
G1 F10.0 Z-0.015
G2 F15.0 X4.465 Y0.25 I0.0126 J-0.0359
G2 X4.408 Y0.2171 I-0.038 J0.0
G2 Y0.2829 I0.019 J0.0329
G2 X4.4144 Y0.2858 I0.019 J-0.0329
G1 F10.0 Z-0.03
G2 F15.0 X4.465 Y0.25 I0.0126 J-0.0359
G2 X4.408 Y0.2171 I-0.038 J0.0
G2 Y0.2829 I0.019 J0.0329
G2 X4.4144 Y0.2858 I0.019 J-0.0329
G1 F10.0 Z-0.045
G2 F15.0 X4.465 Y0.25 I0.0126 J-0.0359
G2 X4.408 Y0.2171 I-0.038 J0.0
G2 Y0.2829 I0.019 J0.0329
G2 X4.4144 Y0.2858 I0.019 J-0.0329
G1 F10.0 Z-0.06
G2 F15.0 X4.465 Y0.25 I0.0126 J-0.0359
G2 X4.408 Y0.2171 I-0.038 J0.0
G2 Y0.2829 I0.019 J0.0329
G2 X4.4144 Y0.2858 I0.019 J-0.0329
G1 F10.0 Z-0.075
G2 F15.0 X4.465 Y0.25 I0.0126 J-0.0359
G2 X4.408 Y0.2171 I-0.038 J0.0
G2 Y0.2829 I0.019 J0.0329
G2 X4.4144 Y0.2858 I0.019 J-0.0329
G1 F10.0 Z-0.09
G2 F15.0 X4.465 Y0.25 I0.0126 J-0.0359
G2 X4.408 Y0.2171 I-0.038 J0.0
G2 Y0.2829 I0.019 J0.0329
G2 X4.4144 Y0.2858 I0.019 J-0.0329
G1 F10.0 Z-0.105
G2 F15.0 X4.465 Y0.25 I0.0126 J-0.0359
G2 X4.408 Y0.2171 I-0.038 J0.0
G2 Y0.2829 I0.019 J0.0329
G2 X4.4144 Y0.2858 I0.019 J-0.0329
G1 F10.0 Z-0.12
G2 F15.0 X4.465 Y0.25 I0.0126 J-0.0359
G2 X4.408 Y0.2171 I-0.038 J0.0
G2 Y0.2829 I0.019 J0.0329
G2 X4.4144 Y0.2858 I0.019 J-0.0329
G1 F10.0 Z-0.135
G2 F15.0 X4.465 Y0.25 I0.0126 J-0.0359
G2 X4.408 Y0.2171 I-0.038 J0.0
G2 Y0.2829 I0.019 J0.0329
G2 X4.4144 Y0.2858 I0.019 J-0.0329
G1 F10.0 Z-0.15
G2 F15.0 X4.465 Y0.25 I0.0126 J-0.0359
G2 X4.408 Y0.2171 I-0.038 J0.0
G2 Y0.2829 I0.019 J0.0329
G2 X4.4144 Y0.2858 I0.019 J-0.0329
G1 F10.0 Z-0.165
G2 F15.0 X4.465 Y0.25 I0.0126 J-0.0359
G2 X4.408 Y0.2171 I-0.038 J0.0
G2 Y0.2829 I0.019 J0.0329
G2 X4.4144 Y0.2858 I0.019 J-0.0329
G1 F10.0 Z-0.18
G2 F15.0 X4.465 Y0.25 I0.0126 J-0.0359
G2 X4.408 Y0.2171 I-0.038 J0.0
G2 Y0.2829 I0.019 J0.0329
G2 X4.4144 Y0.2858 I0.019 J-0.0329
G1 F10.0 Z-0.195
G2 F15.0 X4.465 Y0.25 I0.0126 J-0.0359
G2 X4.408 Y0.2171 I-0.038 J0.0
G2 Y0.2829 I0.019 J0.0329
G2 X4.4144 Y0.2858 I0.019 J-0.0329
G1 F10.0 Z-0.21
G2 F15.0 X4.465 Y0.25 I0.0126 J-0.0359
G2 X4.408 Y0.2171 I-0.038 J0.0
G2 Y0.2829 I0.019 J0.0329
G2 X4.4144 Y0.2858 I0.019 J-0.0329
G1 F10.0 Z-0.225
G2 F15.0 X4.465 Y0.25 I0.0126 J-0.0359
G2 X4.408 Y0.2171 I-0.038 J0.0
G2 Y0.2829 I0.019 J0.0329
G2 X4.4144 Y0.2858 I0.019 J-0.0329
G1 F10.0 Z-0.24
G2 F15.0 X4.465 Y0.25 I0.0126 J-0.0359
G2 X4.408 Y0.2171 I-0.038 J0.0
G2 Y0.2829 I0.019 J0.0329
G2 X4.4144 Y0.2858 I0.019 J-0.0329
G1 F10.0 Z-0.255
G2 F15.0 X4.465 Y0.25 I0.0126 J-0.0359
G2 X4.408 Y0.2171 I-0.038 J0.0
G2 Y0.2829 I0.019 J0.0329
G2 X4.4144 Y0.2858 I0.019 J-0.0329
G1 F10.0 Z-0.27
G2 F15.0 X4.465 Y0.25 I0.0126 J-0.0359
G2 X4.408 Y0.2171 I-0.038 J0.0
G2 Y0.2829 I0.019 J0.0329
G2 X4.4144 Y0.2858 I0.019 J-0.0329
G1 F10.0 Z-0.285
G2 F15.0 X4.465 Y0.25 I0.0126 J-0.0359
G2 X4.408 Y0.2171 I-0.038 J0.0
G2 Y0.2829 I0.019 J0.0329
G2 X4.4144 Y0.2858 I0.019 J-0.0329
G1 F10.0 Z-0.3
G2 F15.0 X4.465 Y0.25 I0.0126 J-0.0359
G2 X4.408 Y0.2171 I-0.038 J0.0
G2 Y0.2829 I0.019 J0.0329
G2 X4.4144 Y0.2858 I0.019 J-0.0329
G1 F10.0 Z-0.315
G2 F15.0 X4.465 Y0.25 I0.0126 J-0.0359
G2 X4.408 Y0.2171 I-0.038 J0.0
G2 Y0.2829 I0.019 J0.0329
G2 X4.4144 Y0.2858 I0.019 J-0.0329
G1 F10.0 Z-0.33
G2 F15.0 X4.465 Y0.25 I0.0126 J-0.0359
G2 X4.408 Y0.2171 I-0.038 J0.0
G2 Y0.2829 I0.019 J0.0329
G2 X4.4144 Y0.2858 I0.019 J-0.0329
G1 F10.0 Z-0.345
G2 F15.0 X4.465 Y0.25 I0.0126 J-0.0359
G2 X4.408 Y0.2171 I-0.038 J0.0
G2 Y0.2829 I0.019 J0.0329
G2 X4.4144 Y0.2858 I0.019 J-0.0329
G1 F10.0 Z-0.36
G2 F15.0 X4.465 Y0.25 I0.0126 J-0.0359
G2 X4.408 Y0.2171 I-0.038 J0.0
G2 Y0.2829 I0.019 J0.0329
G2 X4.4144 Y0.2858 I0.019 J-0.0329
G1 F10.0 Z-0.375
G2 F15.0 X4.465 Y0.25 I0.0126 J-0.0359
G2 X4.408 Y0.2171 I-0.038 J0.0
G2 Y0.2829 I0.019 J0.0329
G2 X4.4144 Y0.2858 I0.019 J-0.0329
G1 F10.0 Z-0.39
G2 F15.0 X4.465 Y0.25 I0.0126 J-0.0359
G2 X4.408 Y0.2171 I-0.038 J0.0
G2 Y0.2829 I0.019 J0.0329
G2 X4.4144 Y0.2858 I0.019 J-0.0329
G0 Z0.125
G0 X6.0947 Y0.2509
G0 Z0.0625
G1 F10.0 Z-0.015
G2 F15.0 X6.1137 Y0.2831 I0.038 J-0.0008
G2 X6.1707 Y0.2502 I0.019 J-0.0329
G2 X6.1137 Y0.2172 I-0.038 J0.0
G2 X6.0947 Y0.2509 I0.019 J0.0329
G1 F10.0 Z-0.03
G2 F15.0 X6.1137 Y0.2831 I0.038 J-0.0008
G2 X6.1707 Y0.2502 I0.019 J-0.0329
G2 X6.1137 Y0.2172 I-0.038 J0.0
G2 X6.0947 Y0.2509 I0.019 J0.0329
G1 F10.0 Z-0.045
G2 F15.0 X6.1137 Y0.2831 I0.038 J-0.0008
G2 X6.1707 Y0.2502 I0.019 J-0.0329
G2 X6.1137 Y0.2172 I-0.038 J0.0
G2 X6.0947 Y0.2509 I0.019 J0.0329
G1 F10.0 Z-0.06
G2 F15.0 X6.1137 Y0.2831 I0.038 J-0.0008
G2 X6.1707 Y0.2502 I0.019 J-0.0329
G2 X6.1137 Y0.2172 I-0.038 J0.0
G2 X6.0947 Y0.2509 I0.019 J0.0329
G1 F10.0 Z-0.075
G2 F15.0 X6.1137 Y0.2831 I0.038 J-0.0008
G2 X6.1707 Y0.2502 I0.019 J-0.0329
G2 X6.1137 Y0.2172 I-0.038 J0.0
G2 X6.0947 Y0.2509 I0.019 J0.0329
G1 F10.0 Z-0.09
G2 F15.0 X6.1137 Y0.2831 I0.038 J-0.0008
G2 X6.1707 Y0.2502 I0.019 J-0.0329
G2 X6.1137 Y0.2172 I-0.038 J0.0
G2 X6.0947 Y0.2509 I0.019 J0.0329
G1 F10.0 Z-0.105
G2 F15.0 X6.1137 Y0.2831 I0.038 J-0.0008
G2 X6.1707 Y0.2502 I0.019 J-0.0329
G2 X6.1137 Y0.2172 I-0.038 J0.0
G2 X6.0947 Y0.2509 I0.019 J0.0329
G1 F10.0 Z-0.12
G2 F15.0 X6.1137 Y0.2831 I0.038 J-0.0008
G2 X6.1707 Y0.2502 I0.019 J-0.0329
G2 X6.1137 Y0.2172 I-0.038 J0.0
G2 X6.0947 Y0.2509 I0.019 J0.0329
G1 F10.0 Z-0.135
G2 F15.0 X6.1137 Y0.2831 I0.038 J-0.0008
G2 X6.1707 Y0.2502 I0.019 J-0.0329
G2 X6.1137 Y0.2172 I-0.038 J0.0
G2 X6.0947 Y0.2509 I0.019 J0.0329
G1 F10.0 Z-0.15
G2 F15.0 X6.1137 Y0.2831 I0.038 J-0.0008
G2 X6.1707 Y0.2502 I0.019 J-0.0329
G2 X6.1137 Y0.2172 I-0.038 J0.0
G2 X6.0947 Y0.2509 I0.019 J0.0329
G1 F10.0 Z-0.165
G2 F15.0 X6.1137 Y0.2831 I0.038 J-0.0008
G2 X6.1707 Y0.2502 I0.019 J-0.0329
G2 X6.1137 Y0.2172 I-0.038 J0.0
G2 X6.0947 Y0.2509 I0.019 J0.0329
G1 F10.0 Z-0.18
G2 F15.0 X6.1137 Y0.2831 I0.038 J-0.0008
G2 X6.1707 Y0.2502 I0.019 J-0.0329
G2 X6.1137 Y0.2172 I-0.038 J0.0
G2 X6.0947 Y0.2509 I0.019 J0.0329
G1 F10.0 Z-0.195
G2 F15.0 X6.1137 Y0.2831 I0.038 J-0.0008
G2 X6.1707 Y0.2502 I0.019 J-0.0329
G2 X6.1137 Y0.2172 I-0.038 J0.0
G2 X6.0947 Y0.2509 I0.019 J0.0329
G1 F10.0 Z-0.21
G2 F15.0 X6.1137 Y0.2831 I0.038 J-0.0008
G2 X6.1707 Y0.2502 I0.019 J-0.0329
G2 X6.1137 Y0.2172 I-0.038 J0.0
G2 X6.0947 Y0.2509 I0.019 J0.0329
G1 F10.0 Z-0.225
G2 F15.0 X6.1137 Y0.2831 I0.038 J-0.0008
G2 X6.1707 Y0.2502 I0.019 J-0.0329
G2 X6.1137 Y0.2172 I-0.038 J0.0
G2 X6.0947 Y0.2509 I0.019 J0.0329
G1 F10.0 Z-0.24
G2 F15.0 X6.1137 Y0.2831 I0.038 J-0.0008
G2 X6.1707 Y0.2502 I0.019 J-0.0329
G2 X6.1137 Y0.2172 I-0.038 J0.0
G2 X6.0947 Y0.2509 I0.019 J0.0329
G1 F10.0 Z-0.255
G2 F15.0 X6.1137 Y0.2831 I0.038 J-0.0008
G2 X6.1707 Y0.2502 I0.019 J-0.0329
G2 X6.1137 Y0.2172 I-0.038 J0.0
G2 X6.0947 Y0.2509 I0.019 J0.0329
G1 F10.0 Z-0.27
G2 F15.0 X6.1137 Y0.2831 I0.038 J-0.0008
G2 X6.1707 Y0.2502 I0.019 J-0.0329
G2 X6.1137 Y0.2172 I-0.038 J0.0
G2 X6.0947 Y0.2509 I0.019 J0.0329
G1 F10.0 Z-0.285
G2 F15.0 X6.1137 Y0.2831 I0.038 J-0.0008
G2 X6.1707 Y0.2502 I0.019 J-0.0329
G2 X6.1137 Y0.2172 I-0.038 J0.0
G2 X6.0947 Y0.2509 I0.019 J0.0329
G1 F10.0 Z-0.3
G2 F15.0 X6.1137 Y0.2831 I0.038 J-0.0008
G2 X6.1707 Y0.2502 I0.019 J-0.0329
G2 X6.1137 Y0.2172 I-0.038 J0.0
G2 X6.0947 Y0.2509 I0.019 J0.0329
G1 F10.0 Z-0.315
G2 F15.0 X6.1137 Y0.2831 I0.038 J-0.0008
G2 X6.1707 Y0.2502 I0.019 J-0.0329
G2 X6.1137 Y0.2172 I-0.038 J0.0
G2 X6.0947 Y0.2509 I0.019 J0.0329
G1 F10.0 Z-0.33
G2 F15.0 X6.1137 Y0.2831 I0.038 J-0.0008
G2 X6.1707 Y0.2502 I0.019 J-0.0329
G2 X6.1137 Y0.2172 I-0.038 J0.0
G2 X6.0947 Y0.2509 I0.019 J0.0329
G1 F10.0 Z-0.345
G2 F15.0 X6.1137 Y0.2831 I0.038 J-0.0008
G2 X6.1707 Y0.2502 I0.019 J-0.0329
G2 X6.1137 Y0.2172 I-0.038 J0.0
G2 X6.0947 Y0.2509 I0.019 J0.0329
G1 F10.0 Z-0.36
G2 F15.0 X6.1137 Y0.2831 I0.038 J-0.0008
G2 X6.1707 Y0.2502 I0.019 J-0.0329
G2 X6.1137 Y0.2172 I-0.038 J0.0
G2 X6.0947 Y0.2509 I0.019 J0.0329
G1 F10.0 Z-0.375
G2 F15.0 X6.1137 Y0.2831 I0.038 J-0.0008
G2 X6.1707 Y0.2502 I0.019 J-0.0329
G2 X6.1137 Y0.2172 I-0.038 J0.0
G2 X6.0947 Y0.2509 I0.019 J0.0329
G1 F10.0 Z-0.39
G2 F15.0 X6.1137 Y0.2831 I0.038 J-0.0008
G2 X6.1707 Y0.2502 I0.019 J-0.0329
G2 X6.1137 Y0.2172 I-0.038 J0.0
G2 X6.0947 Y0.2509 I0.019 J0.0329
G0 Z0.125
G0 X6.6514 Y1.8389
G0 Z0.0625
G1 F10.0 Z-0.015
G2 F15.0 X6.6449 Y1.8418 I0.0126 J0.0359
G2 Y1.9076 I0.019 J0.0329
G2 X6.7019 Y1.8747 I0.019 J-0.0329
G2 X6.6514 Y1.8389 I-0.038 J0.0
G1 F10.0 Z-0.03
G2 F15.0 X6.6449 Y1.8418 I0.0126 J0.0359
G2 Y1.9076 I0.019 J0.0329
G2 X6.7019 Y1.8747 I0.019 J-0.0329
G2 X6.6514 Y1.8389 I-0.038 J0.0
G1 F10.0 Z-0.045
G2 F15.0 X6.6449 Y1.8418 I0.0126 J0.0359
G2 Y1.9076 I0.019 J0.0329
G2 X6.7019 Y1.8747 I0.019 J-0.0329
G2 X6.6514 Y1.8389 I-0.038 J0.0
G1 F10.0 Z-0.06
G2 F15.0 X6.6449 Y1.8418 I0.0126 J0.0359
G2 Y1.9076 I0.019 J0.0329
G2 X6.7019 Y1.8747 I0.019 J-0.0329
G2 X6.6514 Y1.8389 I-0.038 J0.0
G1 F10.0 Z-0.075
G2 F15.0 X6.6449 Y1.8418 I0.0126 J0.0359
G2 Y1.9076 I0.019 J0.0329
G2 X6.7019 Y1.8747 I0.019 J-0.0329
G2 X6.6514 Y1.8389 I-0.038 J0.0
G1 F10.0 Z-0.09
G2 F15.0 X6.6449 Y1.8418 I0.0126 J0.0359
G2 Y1.9076 I0.019 J0.0329
G2 X6.7019 Y1.8747 I0.019 J-0.0329
G2 X6.6514 Y1.8389 I-0.038 J0.0
G1 F10.0 Z-0.105
G2 F15.0 X6.6449 Y1.8418 I0.0126 J0.0359
G2 Y1.9076 I0.019 J0.0329
G2 X6.7019 Y1.8747 I0.019 J-0.0329
G2 X6.6514 Y1.8389 I-0.038 J0.0
G1 F10.0 Z-0.12
G2 F15.0 X6.6449 Y1.8418 I0.0126 J0.0359
G2 Y1.9076 I0.019 J0.0329
G2 X6.7019 Y1.8747 I0.019 J-0.0329
G2 X6.6514 Y1.8389 I-0.038 J0.0
G1 F10.0 Z-0.135
G2 F15.0 X6.6449 Y1.8418 I0.0126 J0.0359
G2 Y1.9076 I0.019 J0.0329
G2 X6.7019 Y1.8747 I0.019 J-0.0329
G2 X6.6514 Y1.8389 I-0.038 J0.0
G1 F10.0 Z-0.15
G2 F15.0 X6.6449 Y1.8418 I0.0126 J0.0359
G2 Y1.9076 I0.019 J0.0329
G2 X6.7019 Y1.8747 I0.019 J-0.0329
G2 X6.6514 Y1.8389 I-0.038 J0.0
G1 F10.0 Z-0.165
G2 F15.0 X6.6449 Y1.8418 I0.0126 J0.0359
G2 Y1.9076 I0.019 J0.0329
G2 X6.7019 Y1.8747 I0.019 J-0.0329
G2 X6.6514 Y1.8389 I-0.038 J0.0
G1 F10.0 Z-0.18
G2 F15.0 X6.6449 Y1.8418 I0.0126 J0.0359
G2 Y1.9076 I0.019 J0.0329
G2 X6.7019 Y1.8747 I0.019 J-0.0329
G2 X6.6514 Y1.8389 I-0.038 J0.0
G1 F10.0 Z-0.195
G2 F15.0 X6.6449 Y1.8418 I0.0126 J0.0359
G2 Y1.9076 I0.019 J0.0329
G2 X6.7019 Y1.8747 I0.019 J-0.0329
G2 X6.6514 Y1.8389 I-0.038 J0.0
G1 F10.0 Z-0.21
G2 F15.0 X6.6449 Y1.8418 I0.0126 J0.0359
G2 Y1.9076 I0.019 J0.0329
G2 X6.7019 Y1.8747 I0.019 J-0.0329
G2 X6.6514 Y1.8389 I-0.038 J0.0
G1 F10.0 Z-0.225
G2 F15.0 X6.6449 Y1.8418 I0.0126 J0.0359
G2 Y1.9076 I0.019 J0.0329
G2 X6.7019 Y1.8747 I0.019 J-0.0329
G2 X6.6514 Y1.8389 I-0.038 J0.0
G1 F10.0 Z-0.24
G2 F15.0 X6.6449 Y1.8418 I0.0126 J0.0359
G2 Y1.9076 I0.019 J0.0329
G2 X6.7019 Y1.8747 I0.019 J-0.0329
G2 X6.6514 Y1.8389 I-0.038 J0.0
G1 F10.0 Z-0.255
G2 F15.0 X6.6449 Y1.8418 I0.0126 J0.0359
G2 Y1.9076 I0.019 J0.0329
G2 X6.7019 Y1.8747 I0.019 J-0.0329
G2 X6.6514 Y1.8389 I-0.038 J0.0
G1 F10.0 Z-0.27
G2 F15.0 X6.6449 Y1.8418 I0.0126 J0.0359
G2 Y1.9076 I0.019 J0.0329
G2 X6.7019 Y1.8747 I0.019 J-0.0329
G2 X6.6514 Y1.8389 I-0.038 J0.0
G1 F10.0 Z-0.285
G2 F15.0 X6.6449 Y1.8418 I0.0126 J0.0359
G2 Y1.9076 I0.019 J0.0329
G2 X6.7019 Y1.8747 I0.019 J-0.0329
G2 X6.6514 Y1.8389 I-0.038 J0.0
G1 F10.0 Z-0.3
G2 F15.0 X6.6449 Y1.8418 I0.0126 J0.0359
G2 Y1.9076 I0.019 J0.0329
G2 X6.7019 Y1.8747 I0.019 J-0.0329
G2 X6.6514 Y1.8389 I-0.038 J0.0
G1 F10.0 Z-0.315
G2 F15.0 X6.6449 Y1.8418 I0.0126 J0.0359
G2 Y1.9076 I0.019 J0.0329
G2 X6.7019 Y1.8747 I0.019 J-0.0329
G2 X6.6514 Y1.8389 I-0.038 J0.0
G1 F10.0 Z-0.33
G2 F15.0 X6.6449 Y1.8418 I0.0126 J0.0359
G2 Y1.9076 I0.019 J0.0329
G2 X6.7019 Y1.8747 I0.019 J-0.0329
G2 X6.6514 Y1.8389 I-0.038 J0.0
G1 F10.0 Z-0.345
G2 F15.0 X6.6449 Y1.8418 I0.0126 J0.0359
G2 Y1.9076 I0.019 J0.0329
G2 X6.7019 Y1.8747 I0.019 J-0.0329
G2 X6.6514 Y1.8389 I-0.038 J0.0
G1 F10.0 Z-0.36
G2 F15.0 X6.6449 Y1.8418 I0.0126 J0.0359
G2 Y1.9076 I0.019 J0.0329
G2 X6.7019 Y1.8747 I0.019 J-0.0329
G2 X6.6514 Y1.8389 I-0.038 J0.0
G1 F10.0 Z-0.375
G2 F15.0 X6.6449 Y1.8418 I0.0126 J0.0359
G2 Y1.9076 I0.019 J0.0329
G2 X6.7019 Y1.8747 I0.019 J-0.0329
G2 X6.6514 Y1.8389 I-0.038 J0.0
G1 F10.0 Z-0.39
G2 F15.0 X6.6449 Y1.8418 I0.0126 J0.0359
G2 Y1.9076 I0.019 J0.0329
G2 X6.7019 Y1.8747 I0.019 J-0.0329
G2 X6.6514 Y1.8389 I-0.038 J0.0
G0 Z0.125
G0 X5.3094 Y2.8657
G0 Z0.0625
G1 F10.0 Z-0.015
G2 F15.0 X5.2602 Y2.8559 I-0.0302 J0.0231
G2 Y2.9217 I0.019 J0.0329
G2 X5.3172 Y2.8888 I0.019 J-0.0329
G2 X5.3094 Y2.8657 I-0.038 J0.0
G1 F10.0 Z-0.03
G2 F15.0 X5.2602 Y2.8559 I-0.0302 J0.0231
G2 Y2.9217 I0.019 J0.0329
G2 X5.3172 Y2.8888 I0.019 J-0.0329
G2 X5.3094 Y2.8657 I-0.038 J0.0
G1 F10.0 Z-0.045
G2 F15.0 X5.2602 Y2.8559 I-0.0302 J0.0231
G2 Y2.9217 I0.019 J0.0329
G2 X5.3172 Y2.8888 I0.019 J-0.0329
G2 X5.3094 Y2.8657 I-0.038 J0.0
G1 F10.0 Z-0.06
G2 F15.0 X5.2602 Y2.8559 I-0.0302 J0.0231
G2 Y2.9217 I0.019 J0.0329
G2 X5.3172 Y2.8888 I0.019 J-0.0329
G2 X5.3094 Y2.8657 I-0.038 J0.0
G1 F10.0 Z-0.075
G2 F15.0 X5.2602 Y2.8559 I-0.0302 J0.0231
G2 Y2.9217 I0.019 J0.0329
G2 X5.3172 Y2.8888 I0.019 J-0.0329
G2 X5.3094 Y2.8657 I-0.038 J0.0
G1 F10.0 Z-0.09
G2 F15.0 X5.2602 Y2.8559 I-0.0302 J0.0231
G2 Y2.9217 I0.019 J0.0329
G2 X5.3172 Y2.8888 I0.019 J-0.0329
G2 X5.3094 Y2.8657 I-0.038 J0.0
G1 F10.0 Z-0.105
G2 F15.0 X5.2602 Y2.8559 I-0.0302 J0.0231
G2 Y2.9217 I0.019 J0.0329
G2 X5.3172 Y2.8888 I0.019 J-0.0329
G2 X5.3094 Y2.8657 I-0.038 J0.0
G1 F10.0 Z-0.12
G2 F15.0 X5.2602 Y2.8559 I-0.0302 J0.0231
G2 Y2.9217 I0.019 J0.0329
G2 X5.3172 Y2.8888 I0.019 J-0.0329
G2 X5.3094 Y2.8657 I-0.038 J0.0
G1 F10.0 Z-0.135
G2 F15.0 X5.2602 Y2.8559 I-0.0302 J0.0231
G2 Y2.9217 I0.019 J0.0329
G2 X5.3172 Y2.8888 I0.019 J-0.0329
G2 X5.3094 Y2.8657 I-0.038 J0.0
G1 F10.0 Z-0.15
G2 F15.0 X5.2602 Y2.8559 I-0.0302 J0.0231
G2 Y2.9217 I0.019 J0.0329
G2 X5.3172 Y2.8888 I0.019 J-0.0329
G2 X5.3094 Y2.8657 I-0.038 J0.0
G1 F10.0 Z-0.165
G2 F15.0 X5.2602 Y2.8559 I-0.0302 J0.0231
G2 Y2.9217 I0.019 J0.0329
G2 X5.3172 Y2.8888 I0.019 J-0.0329
G2 X5.3094 Y2.8657 I-0.038 J0.0
G1 F10.0 Z-0.18
G2 F15.0 X5.2602 Y2.8559 I-0.0302 J0.0231
G2 Y2.9217 I0.019 J0.0329
G2 X5.3172 Y2.8888 I0.019 J-0.0329
G2 X5.3094 Y2.8657 I-0.038 J0.0
G1 F10.0 Z-0.195
G2 F15.0 X5.2602 Y2.8559 I-0.0302 J0.0231
G2 Y2.9217 I0.019 J0.0329
G2 X5.3172 Y2.8888 I0.019 J-0.0329
G2 X5.3094 Y2.8657 I-0.038 J0.0
G1 F10.0 Z-0.21
G2 F15.0 X5.2602 Y2.8559 I-0.0302 J0.0231
G2 Y2.9217 I0.019 J0.0329
G2 X5.3172 Y2.8888 I0.019 J-0.0329
G2 X5.3094 Y2.8657 I-0.038 J0.0
G1 F10.0 Z-0.225
G2 F15.0 X5.2602 Y2.8559 I-0.0302 J0.0231
G2 Y2.9217 I0.019 J0.0329
G2 X5.3172 Y2.8888 I0.019 J-0.0329
G2 X5.3094 Y2.8657 I-0.038 J0.0
G1 F10.0 Z-0.24
G2 F15.0 X5.2602 Y2.8559 I-0.0302 J0.0231
G2 Y2.9217 I0.019 J0.0329
G2 X5.3172 Y2.8888 I0.019 J-0.0329
G2 X5.3094 Y2.8657 I-0.038 J0.0
G1 F10.0 Z-0.255
G2 F15.0 X5.2602 Y2.8559 I-0.0302 J0.0231
G2 Y2.9217 I0.019 J0.0329
G2 X5.3172 Y2.8888 I0.019 J-0.0329
G2 X5.3094 Y2.8657 I-0.038 J0.0
G1 F10.0 Z-0.27
G2 F15.0 X5.2602 Y2.8559 I-0.0302 J0.0231
G2 Y2.9217 I0.019 J0.0329
G2 X5.3172 Y2.8888 I0.019 J-0.0329
G2 X5.3094 Y2.8657 I-0.038 J0.0
G1 F10.0 Z-0.285
G2 F15.0 X5.2602 Y2.8559 I-0.0302 J0.0231
G2 Y2.9217 I0.019 J0.0329
G2 X5.3172 Y2.8888 I0.019 J-0.0329
G2 X5.3094 Y2.8657 I-0.038 J0.0
G1 F10.0 Z-0.3
G2 F15.0 X5.2602 Y2.8559 I-0.0302 J0.0231
G2 Y2.9217 I0.019 J0.0329
G2 X5.3172 Y2.8888 I0.019 J-0.0329
G2 X5.3094 Y2.8657 I-0.038 J0.0
G1 F10.0 Z-0.315
G2 F15.0 X5.2602 Y2.8559 I-0.0302 J0.0231
G2 Y2.9217 I0.019 J0.0329
G2 X5.3172 Y2.8888 I0.019 J-0.0329
G2 X5.3094 Y2.8657 I-0.038 J0.0
G1 F10.0 Z-0.33
G2 F15.0 X5.2602 Y2.8559 I-0.0302 J0.0231
G2 Y2.9217 I0.019 J0.0329
G2 X5.3172 Y2.8888 I0.019 J-0.0329
G2 X5.3094 Y2.8657 I-0.038 J0.0
G1 F10.0 Z-0.345
G2 F15.0 X5.2602 Y2.8559 I-0.0302 J0.0231
G2 Y2.9217 I0.019 J0.0329
G2 X5.3172 Y2.8888 I0.019 J-0.0329
G2 X5.3094 Y2.8657 I-0.038 J0.0
G1 F10.0 Z-0.36
G2 F15.0 X5.2602 Y2.8559 I-0.0302 J0.0231
G2 Y2.9217 I0.019 J0.0329
G2 X5.3172 Y2.8888 I0.019 J-0.0329
G2 X5.3094 Y2.8657 I-0.038 J0.0
G1 F10.0 Z-0.375
G2 F15.0 X5.2602 Y2.8559 I-0.0302 J0.0231
G2 Y2.9217 I0.019 J0.0329
G2 X5.3172 Y2.8888 I0.019 J-0.0329
G2 X5.3094 Y2.8657 I-0.038 J0.0
G1 F10.0 Z-0.39
G2 F15.0 X5.2602 Y2.8559 I-0.0302 J0.0231
G2 Y2.9217 I0.019 J0.0329
G2 X5.3172 Y2.8888 I0.019 J-0.0329
G2 X5.3094 Y2.8657 I-0.038 J0.0
G0 Z0.125
G0 X2.5144 Y0.276
G0 Z0.0625
G1 F10.0 Z-0.015
G2 F15.0 X2.5246 Y0.2502 I-0.0279 J-0.0258
G2 X2.4676 Y0.2172 I-0.038 J0.0
G2 Y0.2831 I0.019 J0.0329
G2 X2.5144 Y0.276 I0.019 J-0.0329
G1 F10.0 Z-0.03
G2 F15.0 X2.5246 Y0.2502 I-0.0279 J-0.0258
G2 X2.4676 Y0.2172 I-0.038 J0.0
G2 Y0.2831 I0.019 J0.0329
G2 X2.5144 Y0.276 I0.019 J-0.0329
G1 F10.0 Z-0.045
G2 F15.0 X2.5246 Y0.2502 I-0.0279 J-0.0258
G2 X2.4676 Y0.2172 I-0.038 J0.0
G2 Y0.2831 I0.019 J0.0329
G2 X2.5144 Y0.276 I0.019 J-0.0329
G1 F10.0 Z-0.06
G2 F15.0 X2.5246 Y0.2502 I-0.0279 J-0.0258
G2 X2.4676 Y0.2172 I-0.038 J0.0
G2 Y0.2831 I0.019 J0.0329
G2 X2.5144 Y0.276 I0.019 J-0.0329
G1 F10.0 Z-0.075
G2 F15.0 X2.5246 Y0.2502 I-0.0279 J-0.0258
G2 X2.4676 Y0.2172 I-0.038 J0.0
G2 Y0.2831 I0.019 J0.0329
G2 X2.5144 Y0.276 I0.019 J-0.0329
G1 F10.0 Z-0.09
G2 F15.0 X2.5246 Y0.2502 I-0.0279 J-0.0258
G2 X2.4676 Y0.2172 I-0.038 J0.0
G2 Y0.2831 I0.019 J0.0329
G2 X2.5144 Y0.276 I0.019 J-0.0329
G1 F10.0 Z-0.105
G2 F15.0 X2.5246 Y0.2502 I-0.0279 J-0.0258
G2 X2.4676 Y0.2172 I-0.038 J0.0
G2 Y0.2831 I0.019 J0.0329
G2 X2.5144 Y0.276 I0.019 J-0.0329
G1 F10.0 Z-0.12
G2 F15.0 X2.5246 Y0.2502 I-0.0279 J-0.0258
G2 X2.4676 Y0.2172 I-0.038 J0.0
G2 Y0.2831 I0.019 J0.0329
G2 X2.5144 Y0.276 I0.019 J-0.0329
G1 F10.0 Z-0.135
G2 F15.0 X2.5246 Y0.2502 I-0.0279 J-0.0258
G2 X2.4676 Y0.2172 I-0.038 J0.0
G2 Y0.2831 I0.019 J0.0329
G2 X2.5144 Y0.276 I0.019 J-0.0329
G1 F10.0 Z-0.15
G2 F15.0 X2.5246 Y0.2502 I-0.0279 J-0.0258
G2 X2.4676 Y0.2172 I-0.038 J0.0
G2 Y0.2831 I0.019 J0.0329
G2 X2.5144 Y0.276 I0.019 J-0.0329
G1 F10.0 Z-0.165
G2 F15.0 X2.5246 Y0.2502 I-0.0279 J-0.0258
G2 X2.4676 Y0.2172 I-0.038 J0.0
G2 Y0.2831 I0.019 J0.0329
G2 X2.5144 Y0.276 I0.019 J-0.0329
G1 F10.0 Z-0.18
G2 F15.0 X2.5246 Y0.2502 I-0.0279 J-0.0258
G2 X2.4676 Y0.2172 I-0.038 J0.0
G2 Y0.2831 I0.019 J0.0329
G2 X2.5144 Y0.276 I0.019 J-0.0329
G1 F10.0 Z-0.195
G2 F15.0 X2.5246 Y0.2502 I-0.0279 J-0.0258
G2 X2.4676 Y0.2172 I-0.038 J0.0
G2 Y0.2831 I0.019 J0.0329
G2 X2.5144 Y0.276 I0.019 J-0.0329
G1 F10.0 Z-0.21
G2 F15.0 X2.5246 Y0.2502 I-0.0279 J-0.0258
G2 X2.4676 Y0.2172 I-0.038 J0.0
G2 Y0.2831 I0.019 J0.0329
G2 X2.5144 Y0.276 I0.019 J-0.0329
G1 F10.0 Z-0.225
G2 F15.0 X2.5246 Y0.2502 I-0.0279 J-0.0258
G2 X2.4676 Y0.2172 I-0.038 J0.0
G2 Y0.2831 I0.019 J0.0329
G2 X2.5144 Y0.276 I0.019 J-0.0329
G1 F10.0 Z-0.24
G2 F15.0 X2.5246 Y0.2502 I-0.0279 J-0.0258
G2 X2.4676 Y0.2172 I-0.038 J0.0
G2 Y0.2831 I0.019 J0.0329
G2 X2.5144 Y0.276 I0.019 J-0.0329
G1 F10.0 Z-0.255
G2 F15.0 X2.5246 Y0.2502 I-0.0279 J-0.0258
G2 X2.4676 Y0.2172 I-0.038 J0.0
G2 Y0.2831 I0.019 J0.0329
G2 X2.5144 Y0.276 I0.019 J-0.0329
G1 F10.0 Z-0.27
G2 F15.0 X2.5246 Y0.2502 I-0.0279 J-0.0258
G2 X2.4676 Y0.2172 I-0.038 J0.0
G2 Y0.2831 I0.019 J0.0329
G2 X2.5144 Y0.276 I0.019 J-0.0329
G1 F10.0 Z-0.285
G2 F15.0 X2.5246 Y0.2502 I-0.0279 J-0.0258
G2 X2.4676 Y0.2172 I-0.038 J0.0
G2 Y0.2831 I0.019 J0.0329
G2 X2.5144 Y0.276 I0.019 J-0.0329
G1 F10.0 Z-0.3
G2 F15.0 X2.5246 Y0.2502 I-0.0279 J-0.0258
G2 X2.4676 Y0.2172 I-0.038 J0.0
G2 Y0.2831 I0.019 J0.0329
G2 X2.5144 Y0.276 I0.019 J-0.0329
G1 F10.0 Z-0.315
G2 F15.0 X2.5246 Y0.2502 I-0.0279 J-0.0258
G2 X2.4676 Y0.2172 I-0.038 J0.0
G2 Y0.2831 I0.019 J0.0329
G2 X2.5144 Y0.276 I0.019 J-0.0329
G1 F10.0 Z-0.33
G2 F15.0 X2.5246 Y0.2502 I-0.0279 J-0.0258
G2 X2.4676 Y0.2172 I-0.038 J0.0
G2 Y0.2831 I0.019 J0.0329
G2 X2.5144 Y0.276 I0.019 J-0.0329
G1 F10.0 Z-0.345
G2 F15.0 X2.5246 Y0.2502 I-0.0279 J-0.0258
G2 X2.4676 Y0.2172 I-0.038 J0.0
G2 Y0.2831 I0.019 J0.0329
G2 X2.5144 Y0.276 I0.019 J-0.0329
G1 F10.0 Z-0.36
G2 F15.0 X2.5246 Y0.2502 I-0.0279 J-0.0258
G2 X2.4676 Y0.2172 I-0.038 J0.0
G2 Y0.2831 I0.019 J0.0329
G2 X2.5144 Y0.276 I0.019 J-0.0329
G1 F10.0 Z-0.375
G2 F15.0 X2.5246 Y0.2502 I-0.0279 J-0.0258
G2 X2.4676 Y0.2172 I-0.038 J0.0
G2 Y0.2831 I0.019 J0.0329
G2 X2.5144 Y0.276 I0.019 J-0.0329
G1 F10.0 Z-0.39
G2 F15.0 X2.5246 Y0.2502 I-0.0279 J-0.0258
G2 X2.4676 Y0.2172 I-0.038 J0.0
G2 Y0.2831 I0.019 J0.0329
G2 X2.5144 Y0.276 I0.019 J-0.0329
G0 Z0.125
G0 X0.8189 Y0.2506
G0 Z0.0625
G1 F10.0 Z-0.015
G1 F15.0 Y0.25
G2 X0.7619 Y0.2171 I-0.038 J0.0
G2 Y0.2829 I0.019 J0.0329
G2 X0.8189 Y0.2506 I0.019 J-0.0329
G1 F10.0 Z-0.03
G1 F15.0 Y0.25
G2 X0.7619 Y0.2171 I-0.038 J0.0
G2 Y0.2829 I0.019 J0.0329
G2 X0.8189 Y0.2506 I0.019 J-0.0329
G1 F10.0 Z-0.045
G1 F15.0 Y0.25
G2 X0.7619 Y0.2171 I-0.038 J0.0
G2 Y0.2829 I0.019 J0.0329
G2 X0.8189 Y0.2506 I0.019 J-0.0329
G1 F10.0 Z-0.06
G1 F15.0 Y0.25
G2 X0.7619 Y0.2171 I-0.038 J0.0
G2 Y0.2829 I0.019 J0.0329
G2 X0.8189 Y0.2506 I0.019 J-0.0329
G1 F10.0 Z-0.075
G1 F15.0 Y0.25
G2 X0.7619 Y0.2171 I-0.038 J0.0
G2 Y0.2829 I0.019 J0.0329
G2 X0.8189 Y0.2506 I0.019 J-0.0329
G1 F10.0 Z-0.09
G1 F15.0 Y0.25
G2 X0.7619 Y0.2171 I-0.038 J0.0
G2 Y0.2829 I0.019 J0.0329
G2 X0.8189 Y0.2506 I0.019 J-0.0329
G1 F10.0 Z-0.105
G1 F15.0 Y0.25
G2 X0.7619 Y0.2171 I-0.038 J0.0
G2 Y0.2829 I0.019 J0.0329
G2 X0.8189 Y0.2506 I0.019 J-0.0329
G1 F10.0 Z-0.12
G1 F15.0 Y0.25
G2 X0.7619 Y0.2171 I-0.038 J0.0
G2 Y0.2829 I0.019 J0.0329
G2 X0.8189 Y0.2506 I0.019 J-0.0329
G1 F10.0 Z-0.135
G1 F15.0 Y0.25
G2 X0.7619 Y0.2171 I-0.038 J0.0
G2 Y0.2829 I0.019 J0.0329
G2 X0.8189 Y0.2506 I0.019 J-0.0329
G1 F10.0 Z-0.15
G1 F15.0 Y0.25
G2 X0.7619 Y0.2171 I-0.038 J0.0
G2 Y0.2829 I0.019 J0.0329
G2 X0.8189 Y0.2506 I0.019 J-0.0329
G1 F10.0 Z-0.165
G1 F15.0 Y0.25
G2 X0.7619 Y0.2171 I-0.038 J0.0
G2 Y0.2829 I0.019 J0.0329
G2 X0.8189 Y0.2506 I0.019 J-0.0329
G1 F10.0 Z-0.18
G1 F15.0 Y0.25
G2 X0.7619 Y0.2171 I-0.038 J0.0
G2 Y0.2829 I0.019 J0.0329
G2 X0.8189 Y0.2506 I0.019 J-0.0329
G1 F10.0 Z-0.195
G1 F15.0 Y0.25
G2 X0.7619 Y0.2171 I-0.038 J0.0
G2 Y0.2829 I0.019 J0.0329
G2 X0.8189 Y0.2506 I0.019 J-0.0329
G1 F10.0 Z-0.21
G1 F15.0 Y0.25
G2 X0.7619 Y0.2171 I-0.038 J0.0
G2 Y0.2829 I0.019 J0.0329
G2 X0.8189 Y0.2506 I0.019 J-0.0329
G1 F10.0 Z-0.225
G1 F15.0 Y0.25
G2 X0.7619 Y0.2171 I-0.038 J0.0
G2 Y0.2829 I0.019 J0.0329
G2 X0.8189 Y0.2506 I0.019 J-0.0329
G1 F10.0 Z-0.24
G1 F15.0 Y0.25
G2 X0.7619 Y0.2171 I-0.038 J0.0
G2 Y0.2829 I0.019 J0.0329
G2 X0.8189 Y0.2506 I0.019 J-0.0329
G1 F10.0 Z-0.255
G1 F15.0 Y0.25
G2 X0.7619 Y0.2171 I-0.038 J0.0
G2 Y0.2829 I0.019 J0.0329
G2 X0.8189 Y0.2506 I0.019 J-0.0329
G1 F10.0 Z-0.27
G1 F15.0 Y0.25
G2 X0.7619 Y0.2171 I-0.038 J0.0
G2 Y0.2829 I0.019 J0.0329
G2 X0.8189 Y0.2506 I0.019 J-0.0329
G1 F10.0 Z-0.285
G1 F15.0 Y0.25
G2 X0.7619 Y0.2171 I-0.038 J0.0
G2 Y0.2829 I0.019 J0.0329
G2 X0.8189 Y0.2506 I0.019 J-0.0329
G1 F10.0 Z-0.3
G1 F15.0 Y0.25
G2 X0.7619 Y0.2171 I-0.038 J0.0
G2 Y0.2829 I0.019 J0.0329
G2 X0.8189 Y0.2506 I0.019 J-0.0329
G1 F10.0 Z-0.315
G1 F15.0 Y0.25
G2 X0.7619 Y0.2171 I-0.038 J0.0
G2 Y0.2829 I0.019 J0.0329
G2 X0.8189 Y0.2506 I0.019 J-0.0329
G1 F10.0 Z-0.33
G1 F15.0 Y0.25
G2 X0.7619 Y0.2171 I-0.038 J0.0
G2 Y0.2829 I0.019 J0.0329
G2 X0.8189 Y0.2506 I0.019 J-0.0329
G1 F10.0 Z-0.345
G1 F15.0 Y0.25
G2 X0.7619 Y0.2171 I-0.038 J0.0
G2 Y0.2829 I0.019 J0.0329
G2 X0.8189 Y0.2506 I0.019 J-0.0329
G1 F10.0 Z-0.36
G1 F15.0 Y0.25
G2 X0.7619 Y0.2171 I-0.038 J0.0
G2 Y0.2829 I0.019 J0.0329
G2 X0.8189 Y0.2506 I0.019 J-0.0329
G1 F10.0 Z-0.375
G1 F15.0 Y0.25
G2 X0.7619 Y0.2171 I-0.038 J0.0
G2 Y0.2829 I0.019 J0.0329
G2 X0.8189 Y0.2506 I0.019 J-0.0329
G1 F10.0 Z-0.39
G1 F15.0 Y0.25
G2 X0.7619 Y0.2171 I-0.038 J0.0
G2 Y0.2829 I0.019 J0.0329
G2 X0.8189 Y0.2506 I0.019 J-0.0329
G0 Z0.125
G0 X0.261 Y1.8389
G0 Z0.0625
G1 F10.0 Z-0.015
G2 F15.0 X0.2294 Y1.8418 I-0.0126 J0.0359
G2 Y1.9076 I0.019 J0.0329
G2 X0.2864 Y1.8747 I0.019 J-0.0329
G2 X0.261 Y1.8389 I-0.038 J0.0
G1 F10.0 Z-0.03
G2 F15.0 X0.2294 Y1.8418 I-0.0126 J0.0359
G2 Y1.9076 I0.019 J0.0329
G2 X0.2864 Y1.8747 I0.019 J-0.0329
G2 X0.261 Y1.8389 I-0.038 J0.0
G1 F10.0 Z-0.045
G2 F15.0 X0.2294 Y1.8418 I-0.0126 J0.0359
G2 Y1.9076 I0.019 J0.0329
G2 X0.2864 Y1.8747 I0.019 J-0.0329
G2 X0.261 Y1.8389 I-0.038 J0.0
G1 F10.0 Z-0.06
G2 F15.0 X0.2294 Y1.8418 I-0.0126 J0.0359
G2 Y1.9076 I0.019 J0.0329
G2 X0.2864 Y1.8747 I0.019 J-0.0329
G2 X0.261 Y1.8389 I-0.038 J0.0
G1 F10.0 Z-0.075
G2 F15.0 X0.2294 Y1.8418 I-0.0126 J0.0359
G2 Y1.9076 I0.019 J0.0329
G2 X0.2864 Y1.8747 I0.019 J-0.0329
G2 X0.261 Y1.8389 I-0.038 J0.0
G1 F10.0 Z-0.09
G2 F15.0 X0.2294 Y1.8418 I-0.0126 J0.0359
G2 Y1.9076 I0.019 J0.0329
G2 X0.2864 Y1.8747 I0.019 J-0.0329
G2 X0.261 Y1.8389 I-0.038 J0.0
G1 F10.0 Z-0.105
G2 F15.0 X0.2294 Y1.8418 I-0.0126 J0.0359
G2 Y1.9076 I0.019 J0.0329
G2 X0.2864 Y1.8747 I0.019 J-0.0329
G2 X0.261 Y1.8389 I-0.038 J0.0
G1 F10.0 Z-0.12
G2 F15.0 X0.2294 Y1.8418 I-0.0126 J0.0359
G2 Y1.9076 I0.019 J0.0329
G2 X0.2864 Y1.8747 I0.019 J-0.0329
G2 X0.261 Y1.8389 I-0.038 J0.0
G1 F10.0 Z-0.135
G2 F15.0 X0.2294 Y1.8418 I-0.0126 J0.0359
G2 Y1.9076 I0.019 J0.0329
G2 X0.2864 Y1.8747 I0.019 J-0.0329
G2 X0.261 Y1.8389 I-0.038 J0.0
G1 F10.0 Z-0.15
G2 F15.0 X0.2294 Y1.8418 I-0.0126 J0.0359
G2 Y1.9076 I0.019 J0.0329
G2 X0.2864 Y1.8747 I0.019 J-0.0329
G2 X0.261 Y1.8389 I-0.038 J0.0
G1 F10.0 Z-0.165
G2 F15.0 X0.2294 Y1.8418 I-0.0126 J0.0359
G2 Y1.9076 I0.019 J0.0329
G2 X0.2864 Y1.8747 I0.019 J-0.0329
G2 X0.261 Y1.8389 I-0.038 J0.0
G1 F10.0 Z-0.18
G2 F15.0 X0.2294 Y1.8418 I-0.0126 J0.0359
G2 Y1.9076 I0.019 J0.0329
G2 X0.2864 Y1.8747 I0.019 J-0.0329
G2 X0.261 Y1.8389 I-0.038 J0.0
G1 F10.0 Z-0.195
G2 F15.0 X0.2294 Y1.8418 I-0.0126 J0.0359
G2 Y1.9076 I0.019 J0.0329
G2 X0.2864 Y1.8747 I0.019 J-0.0329
G2 X0.261 Y1.8389 I-0.038 J0.0
G1 F10.0 Z-0.21
G2 F15.0 X0.2294 Y1.8418 I-0.0126 J0.0359
G2 Y1.9076 I0.019 J0.0329
G2 X0.2864 Y1.8747 I0.019 J-0.0329
G2 X0.261 Y1.8389 I-0.038 J0.0
G1 F10.0 Z-0.225
G2 F15.0 X0.2294 Y1.8418 I-0.0126 J0.0359
G2 Y1.9076 I0.019 J0.0329
G2 X0.2864 Y1.8747 I0.019 J-0.0329
G2 X0.261 Y1.8389 I-0.038 J0.0
G1 F10.0 Z-0.24
G2 F15.0 X0.2294 Y1.8418 I-0.0126 J0.0359
G2 Y1.9076 I0.019 J0.0329
G2 X0.2864 Y1.8747 I0.019 J-0.0329
G2 X0.261 Y1.8389 I-0.038 J0.0
G1 F10.0 Z-0.255
G2 F15.0 X0.2294 Y1.8418 I-0.0126 J0.0359
G2 Y1.9076 I0.019 J0.0329
G2 X0.2864 Y1.8747 I0.019 J-0.0329
G2 X0.261 Y1.8389 I-0.038 J0.0
G1 F10.0 Z-0.27
G2 F15.0 X0.2294 Y1.8418 I-0.0126 J0.0359
G2 Y1.9076 I0.019 J0.0329
G2 X0.2864 Y1.8747 I0.019 J-0.0329
G2 X0.261 Y1.8389 I-0.038 J0.0
G1 F10.0 Z-0.285
G2 F15.0 X0.2294 Y1.8418 I-0.0126 J0.0359
G2 Y1.9076 I0.019 J0.0329
G2 X0.2864 Y1.8747 I0.019 J-0.0329
G2 X0.261 Y1.8389 I-0.038 J0.0
G1 F10.0 Z-0.3
G2 F15.0 X0.2294 Y1.8418 I-0.0126 J0.0359
G2 Y1.9076 I0.019 J0.0329
G2 X0.2864 Y1.8747 I0.019 J-0.0329
G2 X0.261 Y1.8389 I-0.038 J0.0
G1 F10.0 Z-0.315
G2 F15.0 X0.2294 Y1.8418 I-0.0126 J0.0359
G2 Y1.9076 I0.019 J0.0329
G2 X0.2864 Y1.8747 I0.019 J-0.0329
G2 X0.261 Y1.8389 I-0.038 J0.0
G1 F10.0 Z-0.33
G2 F15.0 X0.2294 Y1.8418 I-0.0126 J0.0359
G2 Y1.9076 I0.019 J0.0329
G2 X0.2864 Y1.8747 I0.019 J-0.0329
G2 X0.261 Y1.8389 I-0.038 J0.0
G1 F10.0 Z-0.345
G2 F15.0 X0.2294 Y1.8418 I-0.0126 J0.0359
G2 Y1.9076 I0.019 J0.0329
G2 X0.2864 Y1.8747 I0.019 J-0.0329
G2 X0.261 Y1.8389 I-0.038 J0.0
G1 F10.0 Z-0.36
G2 F15.0 X0.2294 Y1.8418 I-0.0126 J0.0359
G2 Y1.9076 I0.019 J0.0329
G2 X0.2864 Y1.8747 I0.019 J-0.0329
G2 X0.261 Y1.8389 I-0.038 J0.0
G1 F10.0 Z-0.375
G2 F15.0 X0.2294 Y1.8418 I-0.0126 J0.0359
G2 Y1.9076 I0.019 J0.0329
G2 X0.2864 Y1.8747 I0.019 J-0.0329
G2 X0.261 Y1.8389 I-0.038 J0.0
G1 F10.0 Z-0.39
G2 F15.0 X0.2294 Y1.8418 I-0.0126 J0.0359
G2 Y1.9076 I0.019 J0.0329
G2 X0.2864 Y1.8747 I0.019 J-0.0329
G2 X0.261 Y1.8389 I-0.038 J0.0
G0 Z0.125
M5
M30
