( Made using CamBam - http://www.cambam.info )
( tread_cleat_AL_top_deep_slot 4/14/2016 10:29:31 PM )
( T1 : 0.125 )
G20 G90 G64 G40
G0 Z0.125
( T1 : 0.125 )
T1 M6
( Engrave1 )
G17
M3
G0 X0.0 Y-0.7965
G0 Z0.0625
G1 F10.0 Z-0.015
G1 F15.0 X0.15
G1 F10.0 Z-0.03
G1 F15.0 X0.0
G1 F10.0 Z-0.045
G1 F15.0 X0.15
G1 F10.0 Z-0.06
G1 F15.0 X0.0
G1 F10.0 Z-0.075
G1 F15.0 X0.15
G1 F10.0 Z-0.09
G1 F15.0 X0.0
G1 F10.0 Z-0.105
G1 F15.0 X0.15
G1 F10.0 Z-0.12
G1 F15.0 X0.0
G1 F10.0 Z-0.135
G1 F15.0 X0.15
G1 F10.0 Z-0.15
G1 F15.0 X0.0
G1 F10.0 Z-0.165
G1 F15.0 X0.15
G1 F10.0 Z-0.18
G1 F15.0 X0.0
G1 F10.0 Z-0.195
G1 F15.0 X0.15
G1 F10.0 Z-0.21
G1 F15.0 X0.0
G1 F10.0 Z-0.225
G1 F15.0 X0.15
G1 F10.0 Z-0.24
G1 F15.0 X0.0
G1 F10.0 Z-0.255
G1 F15.0 X0.15
G1 F10.0 Z-0.26
G1 F15.0 X0.0
G0 Z0.125
G0 X0.85
G0 Z0.0625
G1 F10.0 Z-0.015
G1 F15.0 X1.0
G1 F10.0 Z-0.03
G1 F15.0 X0.85
G1 F10.0 Z-0.045
G1 F15.0 X1.0
G1 F10.0 Z-0.06
G1 F15.0 X0.85
G1 F10.0 Z-0.075
G1 F15.0 X1.0
G1 F10.0 Z-0.09
G1 F15.0 X0.85
G1 F10.0 Z-0.105
G1 F15.0 X1.0
G1 F10.0 Z-0.12
G1 F15.0 X0.85
G1 F10.0 Z-0.135
G1 F15.0 X1.0
G1 F10.0 Z-0.15
G1 F15.0 X0.85
G1 F10.0 Z-0.165
G1 F15.0 X1.0
G1 F10.0 Z-0.18
G1 F15.0 X0.85
G1 F10.0 Z-0.195
G1 F15.0 X1.0
G1 F10.0 Z-0.21
G1 F15.0 X0.85
G1 F10.0 Z-0.225
G1 F15.0 X1.0
G1 F10.0 Z-0.24
G1 F15.0 X0.85
G1 F10.0 Z-0.255
G1 F15.0 X1.0
G1 F10.0 Z-0.26
G1 F15.0 X0.85
G0 Z0.125
G0 Y-2.425
G0 Z0.0625
G1 F10.0 Z-0.015
G1 F15.0 X1.0
G1 F10.0 Z-0.03
G1 F15.0 X0.85
G1 F10.0 Z-0.045
G1 F15.0 X1.0
G1 F10.0 Z-0.06
G1 F15.0 X0.85
G1 F10.0 Z-0.075
G1 F15.0 X1.0
G1 F10.0 Z-0.09
G1 F15.0 X0.85
G1 F10.0 Z-0.105
G1 F15.0 X1.0
G1 F10.0 Z-0.12
G1 F15.0 X0.85
G1 F10.0 Z-0.135
G1 F15.0 X1.0
G1 F10.0 Z-0.15
G1 F15.0 X0.85
G1 F10.0 Z-0.165
G1 F15.0 X1.0
G1 F10.0 Z-0.18
G1 F15.0 X0.85
G1 F10.0 Z-0.195
G1 F15.0 X1.0
G1 F10.0 Z-0.21
G1 F15.0 X0.85
G1 F10.0 Z-0.225
G1 F15.0 X1.0
G1 F10.0 Z-0.24
G1 F15.0 X0.85
G1 F10.0 Z-0.255
G1 F15.0 X1.0
G1 F10.0 Z-0.26
G1 F15.0 X0.85
G0 Z0.125
G0 X0.15 Y-2.4285
G0 Z0.0625
G1 F10.0 Z-0.015
G1 F15.0 X0.0
G1 F10.0 Z-0.03
G1 F15.0 X0.15
G1 F10.0 Z-0.045
G1 F15.0 X0.0
G1 F10.0 Z-0.06
G1 F15.0 X0.15
G1 F10.0 Z-0.075
G1 F15.0 X0.0
G1 F10.0 Z-0.09
G1 F15.0 X0.15
G1 F10.0 Z-0.105
G1 F15.0 X0.0
G1 F10.0 Z-0.12
G1 F15.0 X0.15
G1 F10.0 Z-0.135
G1 F15.0 X0.0
G1 F10.0 Z-0.15
G1 F15.0 X0.15
G1 F10.0 Z-0.165
G1 F15.0 X0.0
G1 F10.0 Z-0.18
G1 F15.0 X0.15
G1 F10.0 Z-0.195
G1 F15.0 X0.0
G1 F10.0 Z-0.21
G1 F15.0 X0.15
G1 F10.0 Z-0.225
G1 F15.0 X0.0
G1 F10.0 Z-0.24
G1 F15.0 X0.15
G1 F10.0 Z-0.255
G1 F15.0 X0.0
G1 F10.0 Z-0.26
G1 F15.0 X0.15
G0 Z0.125
M5
M30
