( Made using CamBam - http://www.cambam.info )
( tread_cleat_AL_top 4/11/2016 10:02:22 PM )
( T1 : 0.0 )
G20 G90 G64 G40
G0 Z0.125
( T1 : 0.0 )
T1 M6
( bevel )
G17
M3
G0 X1.0 Y0.0
G0 Z0.0625
G1 F10.0 Z-0.015
G1 F15.0 Y-3.225
G1 X0.0
G1 Y0.0
G1 X1.0
G1 F10.0 Z-0.03
G1 F15.0 Y-3.225
G1 X0.0
G1 Y0.0
G1 X1.0
G1 F10.0 Z-0.045
G1 F15.0 Y-3.225
G1 X0.0
G1 Y0.0
G1 X1.0
G1 F10.0 Z-0.06
G1 F15.0 Y-3.225
G1 X0.0
G1 Y0.0
G1 X1.0
G1 F10.0 Z-0.075
G1 F15.0 Y-3.225
G1 X0.0
G1 Y0.0
G1 X1.0
G1 F10.0 Z-0.09
G1 F15.0 Y-3.225
G1 X0.0
G1 Y0.0
G1 X1.0
G1 F10.0 Z-0.105
G1 F15.0 Y-3.225
G1 X0.0
G1 Y0.0
G1 X1.0
G1 F10.0 Z-0.12
G1 F15.0 Y-3.225
G1 X0.0
G1 Y0.0
G1 X1.0
G1 F10.0 Z-0.125
G1 F15.0 Y-3.225
G1 X0.0
G1 Y0.0
G1 X1.0
G0 Z0.125
M5
M30
