( Made using CamBam - http://www.cambam.info )
( tread_cleat_AL_top_deep_slot 4/14/2016 11:58:58 PM )
( T1 : 0.125 )
G20 G90 G64 G40
G0 Z0.125
( T1 : 0.125 )
T1 M6
( drill_recess )
G17
M3
G0 X0.5225 Y-2.8865
G0 Z0.0625
G1 F10.0 Z-0.015
G2 F15.0 X0.4888 Y-2.906 I-0.0225 J0.0
G2 Y-2.867 I0.0113 J0.0195
G2 X0.5225 Y-2.8865 I0.0113 J-0.0195
G1 F10.0 X0.5475
G2 F15.0 X0.4763 Y-2.9276 I-0.0475 J0.0
G2 Y-2.8454 I0.0237 J0.0411
G2 X0.5475 Y-2.8865 I0.0238 J-0.0411
G1 F10.0 X0.5975
G2 F15.0 X0.4513 Y-2.9709 I-0.0975 J0.0
G2 Y-2.8021 I0.0488 J0.0844
G2 X0.5975 Y-2.8865 I0.0487 J-0.0844
G1 F10.0 X0.6475
G2 F15.0 X0.4263 Y-3.0142 I-0.1475 J0.0
G2 Y-2.7588 I0.0738 J0.1277
G2 X0.6475 Y-2.8865 I0.0738 J-0.1277
G0 Z0.125
G0 X0.5225
G0 Z0.0475
G1 F10.0 Z-0.03
G2 F15.0 X0.4888 Y-2.906 I-0.0225 J0.0
G2 Y-2.867 I0.0113 J0.0195
G2 X0.5225 Y-2.8865 I0.0113 J-0.0195
G1 F10.0 X0.5475
G2 F15.0 X0.4763 Y-2.9276 I-0.0475 J0.0
G2 Y-2.8454 I0.0237 J0.0411
G2 X0.5475 Y-2.8865 I0.0238 J-0.0411
G1 F10.0 X0.5975
G2 F15.0 X0.4513 Y-2.9709 I-0.0975 J0.0
G2 Y-2.8021 I0.0488 J0.0844
G2 X0.5975 Y-2.8865 I0.0487 J-0.0844
G1 F10.0 X0.6475
G2 F15.0 X0.4263 Y-3.0142 I-0.1475 J0.0
G2 Y-2.7588 I0.0738 J0.1277
G2 X0.6475 Y-2.8865 I0.0738 J-0.1277
G0 Z0.125
G0 X0.5225
G0 Z0.0325
G1 F10.0 Z-0.045
G2 F15.0 X0.4888 Y-2.906 I-0.0225 J0.0
G2 Y-2.867 I0.0113 J0.0195
G2 X0.5225 Y-2.8865 I0.0113 J-0.0195
G1 F10.0 X0.5475
G2 F15.0 X0.4763 Y-2.9276 I-0.0475 J0.0
G2 Y-2.8454 I0.0237 J0.0411
G2 X0.5475 Y-2.8865 I0.0238 J-0.0411
G1 F10.0 X0.5975
G2 F15.0 X0.4513 Y-2.9709 I-0.0975 J0.0
G2 Y-2.8021 I0.0488 J0.0844
G2 X0.5975 Y-2.8865 I0.0487 J-0.0844
G1 F10.0 X0.6475
G2 F15.0 X0.4263 Y-3.0142 I-0.1475 J0.0
G2 Y-2.7588 I0.0738 J0.1277
G2 X0.6475 Y-2.8865 I0.0738 J-0.1277
G0 Z0.125
G0 X0.5225
G0 Z0.0175
G1 F10.0 Z-0.06
G2 F15.0 X0.4888 Y-2.906 I-0.0225 J0.0
G2 Y-2.867 I0.0113 J0.0195
G2 X0.5225 Y-2.8865 I0.0113 J-0.0195
G1 F10.0 X0.5475
G2 F15.0 X0.4763 Y-2.9276 I-0.0475 J0.0
G2 Y-2.8454 I0.0237 J0.0411
G2 X0.5475 Y-2.8865 I0.0238 J-0.0411
G1 F10.0 X0.5975
G2 F15.0 X0.4513 Y-2.9709 I-0.0975 J0.0
G2 Y-2.8021 I0.0488 J0.0844
G2 X0.5975 Y-2.8865 I0.0487 J-0.0844
G1 F10.0 X0.6475
G2 F15.0 X0.4263 Y-3.0142 I-0.1475 J0.0
G2 Y-2.7588 I0.0738 J0.1277
G2 X0.6475 Y-2.8865 I0.0738 J-0.1277
G0 Z0.125
G0 X0.5225
G0 Z0.0025
G1 F10.0 Z-0.075
G2 F15.0 X0.4888 Y-2.906 I-0.0225 J0.0
G2 Y-2.867 I0.0113 J0.0195
G2 X0.5225 Y-2.8865 I0.0113 J-0.0195
G1 F10.0 X0.5475
G2 F15.0 X0.4763 Y-2.9276 I-0.0475 J0.0
G2 Y-2.8454 I0.0237 J0.0411
G2 X0.5475 Y-2.8865 I0.0238 J-0.0411
G1 F10.0 X0.5975
G2 F15.0 X0.4513 Y-2.9709 I-0.0975 J0.0
G2 Y-2.8021 I0.0488 J0.0844
G2 X0.5975 Y-2.8865 I0.0487 J-0.0844
G1 F10.0 X0.6475
G2 F15.0 X0.4263 Y-3.0142 I-0.1475 J0.0
G2 Y-2.7588 I0.0738 J0.1277
G2 X0.6475 Y-2.8865 I0.0738 J-0.1277
G0 Z0.125
G0 X0.5225
G0 Z-0.0125
G1 F10.0 Z-0.09
G2 F15.0 X0.4888 Y-2.906 I-0.0225 J0.0
G2 Y-2.867 I0.0113 J0.0195
G2 X0.5225 Y-2.8865 I0.0113 J-0.0195
G1 F10.0 X0.5475
G2 F15.0 X0.4763 Y-2.9276 I-0.0475 J0.0
G2 Y-2.8454 I0.0237 J0.0411
G2 X0.5475 Y-2.8865 I0.0238 J-0.0411
G1 F10.0 X0.5975
G2 F15.0 X0.4513 Y-2.9709 I-0.0975 J0.0
G2 Y-2.8021 I0.0488 J0.0844
G2 X0.5975 Y-2.8865 I0.0487 J-0.0844
G1 F10.0 X0.6475
G2 F15.0 X0.4263 Y-3.0142 I-0.1475 J0.0
G2 Y-2.7588 I0.0738 J0.1277
G2 X0.6475 Y-2.8865 I0.0738 J-0.1277
G0 Z0.125
G0 X0.5225
G0 Z-0.0275
G1 F10.0 Z-0.105
G2 F15.0 X0.4888 Y-2.906 I-0.0225 J0.0
G2 Y-2.867 I0.0113 J0.0195
G2 X0.5225 Y-2.8865 I0.0113 J-0.0195
G1 F10.0 X0.5475
G2 F15.0 X0.4763 Y-2.9276 I-0.0475 J0.0
G2 Y-2.8454 I0.0237 J0.0411
G2 X0.5475 Y-2.8865 I0.0238 J-0.0411
G1 F10.0 X0.5975
G2 F15.0 X0.4513 Y-2.9709 I-0.0975 J0.0
G2 Y-2.8021 I0.0488 J0.0844
G2 X0.5975 Y-2.8865 I0.0487 J-0.0844
G1 F10.0 X0.6475
G2 F15.0 X0.4263 Y-3.0142 I-0.1475 J0.0
G2 Y-2.7588 I0.0738 J0.1277
G2 X0.6475 Y-2.8865 I0.0738 J-0.1277
G0 Z0.125
G0 X0.5225
G0 Z-0.0425
G1 F10.0 Z-0.12
G2 F15.0 X0.4888 Y-2.906 I-0.0225 J0.0
G2 Y-2.867 I0.0113 J0.0195
G2 X0.5225 Y-2.8865 I0.0113 J-0.0195
G1 F10.0 X0.5475
G2 F15.0 X0.4763 Y-2.9276 I-0.0475 J0.0
G2 Y-2.8454 I0.0237 J0.0411
G2 X0.5475 Y-2.8865 I0.0238 J-0.0411
G1 F10.0 X0.5975
G2 F15.0 X0.4513 Y-2.9709 I-0.0975 J0.0
G2 Y-2.8021 I0.0488 J0.0844
G2 X0.5975 Y-2.8865 I0.0487 J-0.0844
G1 F10.0 X0.6475
G2 F15.0 X0.4263 Y-3.0142 I-0.1475 J0.0
G2 Y-2.7588 I0.0738 J0.1277
G2 X0.6475 Y-2.8865 I0.0738 J-0.1277
G0 Z0.125
G0 X0.5225
G0 Z-0.0575
G1 F10.0 Z-0.125
G2 F15.0 X0.4888 Y-2.906 I-0.0225 J0.0
G2 Y-2.867 I0.0113 J0.0195
G2 X0.5225 Y-2.8865 I0.0113 J-0.0195
G1 F10.0 X0.5475
G2 F15.0 X0.4763 Y-2.9276 I-0.0475 J0.0
G2 Y-2.8454 I0.0237 J0.0411
G2 X0.5475 Y-2.8865 I0.0238 J-0.0411
G1 F10.0 X0.5975
G2 F15.0 X0.4513 Y-2.9709 I-0.0975 J0.0
G2 Y-2.8021 I0.0488 J0.0844
G2 X0.5975 Y-2.8865 I0.0487 J-0.0844
G1 F10.0 X0.6475
G2 F15.0 X0.4263 Y-3.0142 I-0.1475 J0.0
G2 Y-2.7588 I0.0738 J0.1277
G2 X0.6475 Y-2.8865 I0.0738 J-0.1277
G0 Z0.125
G0 X0.5013 Y-0.361
G0 Z0.0625
G1 F10.0 Z-0.015
G2 F15.0 X0.4888 Y-0.358 I-0.0013 J0.0225
G2 Y-0.319 I0.0113 J0.0195
G2 X0.5225 Y-0.3385 I0.0113 J-0.0195
G2 X0.5013 Y-0.361 I-0.0225 J0.0
G1 F10.0 X0.5027 Y-0.3859
G2 F15.0 X0.4763 Y-0.3796 I-0.0027 J0.0474
G2 Y-0.2974 I0.0238 J0.0411
G2 X0.5475 Y-0.3385 I0.0238 J-0.0411
G2 X0.5027 Y-0.3859 I-0.0475 J0.0
G1 F10.0 X0.5056 Y-0.4358
G2 F15.0 X0.4513 Y-0.4229 I-0.0056 J0.0973
G2 Y-0.2541 I0.0488 J0.0844
G2 X0.5975 Y-0.3385 I0.0487 J-0.0844
G2 X0.5056 Y-0.4358 I-0.0975 J0.0
G1 F10.0 X0.5085 Y-0.4858
G2 F15.0 X0.4263 Y-0.4662 I-0.0085 J0.1473
G2 Y-0.2108 I0.0738 J0.1277
G2 X0.6475 Y-0.3385 I0.0738 J-0.1277
G2 X0.5085 Y-0.4858 I-0.1475 J0.0
G0 Z0.125
G0 X0.5013 Y-0.361
G0 Z0.0475
G1 F10.0 Z-0.03
G2 F15.0 X0.4888 Y-0.358 I-0.0013 J0.0225
G2 Y-0.319 I0.0113 J0.0195
G2 X0.5225 Y-0.3385 I0.0113 J-0.0195
G2 X0.5013 Y-0.361 I-0.0225 J0.0
G1 F10.0 X0.5027 Y-0.3859
G2 F15.0 X0.4763 Y-0.3796 I-0.0027 J0.0474
G2 Y-0.2974 I0.0238 J0.0411
G2 X0.5475 Y-0.3385 I0.0238 J-0.0411
G2 X0.5027 Y-0.3859 I-0.0475 J0.0
G1 F10.0 X0.5056 Y-0.4358
G2 F15.0 X0.4513 Y-0.4229 I-0.0056 J0.0973
G2 Y-0.2541 I0.0488 J0.0844
G2 X0.5975 Y-0.3385 I0.0487 J-0.0844
G2 X0.5056 Y-0.4358 I-0.0975 J0.0
G1 F10.0 X0.5085 Y-0.4858
G2 F15.0 X0.4263 Y-0.4662 I-0.0085 J0.1473
G2 Y-0.2108 I0.0738 J0.1277
G2 X0.6475 Y-0.3385 I0.0738 J-0.1277
G2 X0.5085 Y-0.4858 I-0.1475 J0.0
G0 Z0.125
G0 X0.5013 Y-0.361
G0 Z0.0325
G1 F10.0 Z-0.045
G2 F15.0 X0.4888 Y-0.358 I-0.0013 J0.0225
G2 Y-0.319 I0.0113 J0.0195
G2 X0.5225 Y-0.3385 I0.0113 J-0.0195
G2 X0.5013 Y-0.361 I-0.0225 J0.0
G1 F10.0 X0.5027 Y-0.3859
G2 F15.0 X0.4763 Y-0.3796 I-0.0027 J0.0474
G2 Y-0.2974 I0.0238 J0.0411
G2 X0.5475 Y-0.3385 I0.0238 J-0.0411
G2 X0.5027 Y-0.3859 I-0.0475 J0.0
G1 F10.0 X0.5056 Y-0.4358
G2 F15.0 X0.4513 Y-0.4229 I-0.0056 J0.0973
G2 Y-0.2541 I0.0488 J0.0844
G2 X0.5975 Y-0.3385 I0.0487 J-0.0844
G2 X0.5056 Y-0.4358 I-0.0975 J0.0
G1 F10.0 X0.5085 Y-0.4858
G2 F15.0 X0.4263 Y-0.4662 I-0.0085 J0.1473
G2 Y-0.2108 I0.0738 J0.1277
G2 X0.6475 Y-0.3385 I0.0738 J-0.1277
G2 X0.5085 Y-0.4858 I-0.1475 J0.0
G0 Z0.125
G0 X0.5013 Y-0.361
G0 Z0.0175
G1 F10.0 Z-0.06
G2 F15.0 X0.4888 Y-0.358 I-0.0013 J0.0225
G2 Y-0.319 I0.0113 J0.0195
G2 X0.5225 Y-0.3385 I0.0113 J-0.0195
G2 X0.5013 Y-0.361 I-0.0225 J0.0
G1 F10.0 X0.5027 Y-0.3859
G2 F15.0 X0.4763 Y-0.3796 I-0.0027 J0.0474
G2 Y-0.2974 I0.0238 J0.0411
G2 X0.5475 Y-0.3385 I0.0238 J-0.0411
G2 X0.5027 Y-0.3859 I-0.0475 J0.0
G1 F10.0 X0.5056 Y-0.4358
G2 F15.0 X0.4513 Y-0.4229 I-0.0056 J0.0973
G2 Y-0.2541 I0.0488 J0.0844
G2 X0.5975 Y-0.3385 I0.0487 J-0.0844
G2 X0.5056 Y-0.4358 I-0.0975 J0.0
G1 F10.0 X0.5085 Y-0.4858
G2 F15.0 X0.4263 Y-0.4662 I-0.0085 J0.1473
G2 Y-0.2108 I0.0738 J0.1277
G2 X0.6475 Y-0.3385 I0.0738 J-0.1277
G2 X0.5085 Y-0.4858 I-0.1475 J0.0
G0 Z0.125
G0 X0.5013 Y-0.361
G0 Z0.0025
G1 F10.0 Z-0.075
G2 F15.0 X0.4888 Y-0.358 I-0.0013 J0.0225
G2 Y-0.319 I0.0113 J0.0195
G2 X0.5225 Y-0.3385 I0.0113 J-0.0195
G2 X0.5013 Y-0.361 I-0.0225 J0.0
G1 F10.0 X0.5027 Y-0.3859
G2 F15.0 X0.4763 Y-0.3796 I-0.0027 J0.0474
G2 Y-0.2974 I0.0238 J0.0411
G2 X0.5475 Y-0.3385 I0.0238 J-0.0411
G2 X0.5027 Y-0.3859 I-0.0475 J0.0
G1 F10.0 X0.5056 Y-0.4358
G2 F15.0 X0.4513 Y-0.4229 I-0.0056 J0.0973
G2 Y-0.2541 I0.0488 J0.0844
G2 X0.5975 Y-0.3385 I0.0487 J-0.0844
G2 X0.5056 Y-0.4358 I-0.0975 J0.0
G1 F10.0 X0.5085 Y-0.4858
G2 F15.0 X0.4263 Y-0.4662 I-0.0085 J0.1473
G2 Y-0.2108 I0.0738 J0.1277
G2 X0.6475 Y-0.3385 I0.0738 J-0.1277
G2 X0.5085 Y-0.4858 I-0.1475 J0.0
G0 Z0.125
G0 X0.5013 Y-0.361
G0 Z-0.0125
G1 F10.0 Z-0.09
G2 F15.0 X0.4888 Y-0.358 I-0.0013 J0.0225
G2 Y-0.319 I0.0113 J0.0195
G2 X0.5225 Y-0.3385 I0.0113 J-0.0195
G2 X0.5013 Y-0.361 I-0.0225 J0.0
G1 F10.0 X0.5027 Y-0.3859
G2 F15.0 X0.4763 Y-0.3796 I-0.0027 J0.0474
G2 Y-0.2974 I0.0238 J0.0411
G2 X0.5475 Y-0.3385 I0.0238 J-0.0411
G2 X0.5027 Y-0.3859 I-0.0475 J0.0
G1 F10.0 X0.5056 Y-0.4358
G2 F15.0 X0.4513 Y-0.4229 I-0.0056 J0.0973
G2 Y-0.2541 I0.0488 J0.0844
G2 X0.5975 Y-0.3385 I0.0487 J-0.0844
G2 X0.5056 Y-0.4358 I-0.0975 J0.0
G1 F10.0 X0.5085 Y-0.4858
G2 F15.0 X0.4263 Y-0.4662 I-0.0085 J0.1473
G2 Y-0.2108 I0.0738 J0.1277
G2 X0.6475 Y-0.3385 I0.0738 J-0.1277
G2 X0.5085 Y-0.4858 I-0.1475 J0.0
G0 Z0.125
G0 X0.5013 Y-0.361
G0 Z-0.0275
G1 F10.0 Z-0.105
G2 F15.0 X0.4888 Y-0.358 I-0.0013 J0.0225
G2 Y-0.319 I0.0113 J0.0195
G2 X0.5225 Y-0.3385 I0.0113 J-0.0195
G2 X0.5013 Y-0.361 I-0.0225 J0.0
G1 F10.0 X0.5027 Y-0.3859
G2 F15.0 X0.4763 Y-0.3796 I-0.0027 J0.0474
G2 Y-0.2974 I0.0238 J0.0411
G2 X0.5475 Y-0.3385 I0.0238 J-0.0411
G2 X0.5027 Y-0.3859 I-0.0475 J0.0
G1 F10.0 X0.5056 Y-0.4358
G2 F15.0 X0.4513 Y-0.4229 I-0.0056 J0.0973
G2 Y-0.2541 I0.0488 J0.0844
G2 X0.5975 Y-0.3385 I0.0487 J-0.0844
G2 X0.5056 Y-0.4358 I-0.0975 J0.0
G1 F10.0 X0.5085 Y-0.4858
G2 F15.0 X0.4263 Y-0.4662 I-0.0085 J0.1473
G2 Y-0.2108 I0.0738 J0.1277
G2 X0.6475 Y-0.3385 I0.0738 J-0.1277
G2 X0.5085 Y-0.4858 I-0.1475 J0.0
G0 Z0.125
G0 X0.5013 Y-0.361
G0 Z-0.0425
G1 F10.0 Z-0.12
G2 F15.0 X0.4888 Y-0.358 I-0.0013 J0.0225
G2 Y-0.319 I0.0113 J0.0195
G2 X0.5225 Y-0.3385 I0.0113 J-0.0195
G2 X0.5013 Y-0.361 I-0.0225 J0.0
G1 F10.0 X0.5027 Y-0.3859
G2 F15.0 X0.4763 Y-0.3796 I-0.0027 J0.0474
G2 Y-0.2974 I0.0238 J0.0411
G2 X0.5475 Y-0.3385 I0.0238 J-0.0411
G2 X0.5027 Y-0.3859 I-0.0475 J0.0
G1 F10.0 X0.5056 Y-0.4358
G2 F15.0 X0.4513 Y-0.4229 I-0.0056 J0.0973
G2 Y-0.2541 I0.0488 J0.0844
G2 X0.5975 Y-0.3385 I0.0487 J-0.0844
G2 X0.5056 Y-0.4358 I-0.0975 J0.0
G1 F10.0 X0.5085 Y-0.4858
G2 F15.0 X0.4263 Y-0.4662 I-0.0085 J0.1473
G2 Y-0.2108 I0.0738 J0.1277
G2 X0.6475 Y-0.3385 I0.0738 J-0.1277
G2 X0.5085 Y-0.4858 I-0.1475 J0.0
G0 Z0.125
G0 X0.5013 Y-0.361
G0 Z-0.0575
G1 F10.0 Z-0.125
G2 F15.0 X0.4888 Y-0.358 I-0.0013 J0.0225
G2 Y-0.319 I0.0113 J0.0195
G2 X0.5225 Y-0.3385 I0.0113 J-0.0195
G2 X0.5013 Y-0.361 I-0.0225 J0.0
G1 F10.0 X0.5027 Y-0.3859
G2 F15.0 X0.4763 Y-0.3796 I-0.0027 J0.0474
G2 Y-0.2974 I0.0238 J0.0411
G2 X0.5475 Y-0.3385 I0.0238 J-0.0411
G2 X0.5027 Y-0.3859 I-0.0475 J0.0
G1 F10.0 X0.5056 Y-0.4358
G2 F15.0 X0.4513 Y-0.4229 I-0.0056 J0.0973
G2 Y-0.2541 I0.0488 J0.0844
G2 X0.5975 Y-0.3385 I0.0487 J-0.0844
G2 X0.5056 Y-0.4358 I-0.0975 J0.0
G1 F10.0 X0.5085 Y-0.4858
G2 F15.0 X0.4263 Y-0.4662 I-0.0085 J0.1473
G2 Y-0.2108 I0.0738 J0.1277
G2 X0.6475 Y-0.3385 I0.0738 J-0.1277
G2 X0.5085 Y-0.4858 I-0.1475 J0.0
( internal_recess )
G0 Z0.125
G0 X0.5125 Y-0.95
G0 Z0.0625
G1 F10.0 Z-0.015
G1 F15.0 Y-2.275
G1 X0.4875
G1 Y-0.95
G1 X0.5125
G1 F10.0 X0.5625
G1 F15.0 Y-2.325
G1 X0.4375
G1 Y-0.9
G1 X0.5625
G1 Y-0.95
G1 F10.0 X0.6125
G1 F15.0 Y-2.375
G1 X0.3875
G1 Y-0.85
G1 X0.6125
G1 Y-0.95
G1 F10.0 X0.6625
G1 F15.0 Y-2.425
G1 X0.3375
G1 Y-0.8
G1 X0.6625
G1 Y-0.95
G0 Z0.125
G0 X0.5125
G0 Z0.0475
G1 F10.0 Z-0.03
G1 F15.0 Y-2.275
G1 X0.4875
G1 Y-0.95
G1 X0.5125
G1 F10.0 X0.5625
G1 F15.0 Y-2.325
G1 X0.4375
G1 Y-0.9
G1 X0.5625
G1 Y-0.95
G1 F10.0 X0.6125
G1 F15.0 Y-2.375
G1 X0.3875
G1 Y-0.85
G1 X0.6125
G1 Y-0.95
G1 F10.0 X0.6625
G1 F15.0 Y-2.425
G1 X0.3375
G1 Y-0.8
G1 X0.6625
G1 Y-0.95
G0 Z0.125
G0 X0.5125
G0 Z0.0325
G1 F10.0 Z-0.045
G1 F15.0 Y-2.275
G1 X0.4875
G1 Y-0.95
G1 X0.5125
G1 F10.0 X0.5625
G1 F15.0 Y-2.325
G1 X0.4375
G1 Y-0.9
G1 X0.5625
G1 Y-0.95
G1 F10.0 X0.6125
G1 F15.0 Y-2.375
G1 X0.3875
G1 Y-0.85
G1 X0.6125
G1 Y-0.95
G1 F10.0 X0.6625
G1 F15.0 Y-2.425
G1 X0.3375
G1 Y-0.8
G1 X0.6625
G1 Y-0.95
G0 Z0.125
G0 X0.5125
G0 Z0.0175
G1 F10.0 Z-0.06
G1 F15.0 Y-2.275
G1 X0.4875
G1 Y-0.95
G1 X0.5125
G1 F10.0 X0.5625
G1 F15.0 Y-2.325
G1 X0.4375
G1 Y-0.9
G1 X0.5625
G1 Y-0.95
G1 F10.0 X0.6125
G1 F15.0 Y-2.375
G1 X0.3875
G1 Y-0.85
G1 X0.6125
G1 Y-0.95
G1 F10.0 X0.6625
G1 F15.0 Y-2.425
G1 X0.3375
G1 Y-0.8
G1 X0.6625
G1 Y-0.95
G0 Z0.125
G0 X0.5125
G0 Z0.0025
G1 F10.0 Z-0.0625
G1 F15.0 Y-2.275
G1 X0.4875
G1 Y-0.95
G1 X0.5125
G1 F10.0 X0.5625
G1 F15.0 Y-2.325
G1 X0.4375
G1 Y-0.9
G1 X0.5625
G1 Y-0.95
G1 F10.0 X0.6125
G1 F15.0 Y-2.375
G1 X0.3875
G1 Y-0.85
G1 X0.6125
G1 Y-0.95
G1 F10.0 X0.6625
G1 F15.0 Y-2.425
G1 X0.3375
G1 Y-0.8
G1 X0.6625
G1 Y-0.95
( edge_slots )
G0 Z0.125
G0 X0.0 Y-0.7965
G0 Z0.0625
G1 F10.0 Z-0.015
G1 F15.0 X0.15
G1 F10.0 Z-0.03
G1 F15.0 X0.0
G1 F10.0 Z-0.045
G1 F15.0 X0.15
G1 F10.0 Z-0.06
G1 F15.0 X0.0
G1 F10.0 Z-0.075
G1 F15.0 X0.15
G1 F10.0 Z-0.09
G1 F15.0 X0.0
G1 F10.0 Z-0.105
G1 F15.0 X0.15
G1 F10.0 Z-0.12
G1 F15.0 X0.0
G1 F10.0 Z-0.135
G1 F15.0 X0.15
G1 F10.0 Z-0.15
G1 F15.0 X0.0
G1 F10.0 Z-0.165
G1 F15.0 X0.15
G1 F10.0 Z-0.18
G1 F15.0 X0.0
G1 F10.0 Z-0.195
G1 F15.0 X0.15
G1 F10.0 Z-0.21
G1 F15.0 X0.0
G1 F10.0 Z-0.225
G1 F15.0 X0.15
G1 F10.0 Z-0.24
G1 F15.0 X0.0
G1 F10.0 Z-0.255
G1 F15.0 X0.15
G1 F10.0 Z-0.26
G1 F15.0 X0.0
G0 Z0.125
G0 X0.85
G0 Z0.0625
G1 F10.0 Z-0.015
G1 F15.0 X1.0
G1 F10.0 Z-0.03
G1 F15.0 X0.85
G1 F10.0 Z-0.045
G1 F15.0 X1.0
G1 F10.0 Z-0.06
G1 F15.0 X0.85
G1 F10.0 Z-0.075
G1 F15.0 X1.0
G1 F10.0 Z-0.09
G1 F15.0 X0.85
G1 F10.0 Z-0.105
G1 F15.0 X1.0
G1 F10.0 Z-0.12
G1 F15.0 X0.85
G1 F10.0 Z-0.135
G1 F15.0 X1.0
G1 F10.0 Z-0.15
G1 F15.0 X0.85
G1 F10.0 Z-0.165
G1 F15.0 X1.0
G1 F10.0 Z-0.18
G1 F15.0 X0.85
G1 F10.0 Z-0.195
G1 F15.0 X1.0
G1 F10.0 Z-0.21
G1 F15.0 X0.85
G1 F10.0 Z-0.225
G1 F15.0 X1.0
G1 F10.0 Z-0.24
G1 F15.0 X0.85
G1 F10.0 Z-0.255
G1 F15.0 X1.0
G1 F10.0 Z-0.26
G1 F15.0 X0.85
G0 Z0.125
G0 Y-2.425
G0 Z0.0625
G1 F10.0 Z-0.015
G1 F15.0 X1.0
G1 F10.0 Z-0.03
G1 F15.0 X0.85
G1 F10.0 Z-0.045
G1 F15.0 X1.0
G1 F10.0 Z-0.06
G1 F15.0 X0.85
G1 F10.0 Z-0.075
G1 F15.0 X1.0
G1 F10.0 Z-0.09
G1 F15.0 X0.85
G1 F10.0 Z-0.105
G1 F15.0 X1.0
G1 F10.0 Z-0.12
G1 F15.0 X0.85
G1 F10.0 Z-0.135
G1 F15.0 X1.0
G1 F10.0 Z-0.15
G1 F15.0 X0.85
G1 F10.0 Z-0.165
G1 F15.0 X1.0
G1 F10.0 Z-0.18
G1 F15.0 X0.85
G1 F10.0 Z-0.195
G1 F15.0 X1.0
G1 F10.0 Z-0.21
G1 F15.0 X0.85
G1 F10.0 Z-0.225
G1 F15.0 X1.0
G1 F10.0 Z-0.24
G1 F15.0 X0.85
G1 F10.0 Z-0.255
G1 F15.0 X1.0
G1 F10.0 Z-0.26
G1 F15.0 X0.85
G0 Z0.125
G0 X0.15 Y-2.4285
G0 Z0.0625
G1 F10.0 Z-0.015
G1 F15.0 X0.0
G1 F10.0 Z-0.03
G1 F15.0 X0.15
G1 F10.0 Z-0.045
G1 F15.0 X0.0
G1 F10.0 Z-0.06
G1 F15.0 X0.15
G1 F10.0 Z-0.075
G1 F15.0 X0.0
G1 F10.0 Z-0.09
G1 F15.0 X0.15
G1 F10.0 Z-0.105
G1 F15.0 X0.0
G1 F10.0 Z-0.12
G1 F15.0 X0.15
G1 F10.0 Z-0.135
G1 F15.0 X0.0
G1 F10.0 Z-0.15
G1 F15.0 X0.15
G1 F10.0 Z-0.165
G1 F15.0 X0.0
G1 F10.0 Z-0.18
G1 F15.0 X0.15
G1 F10.0 Z-0.195
G1 F15.0 X0.0
G1 F10.0 Z-0.21
G1 F15.0 X0.15
G1 F10.0 Z-0.225
G1 F15.0 X0.0
G1 F10.0 Z-0.24
G1 F15.0 X0.15
G1 F10.0 Z-0.255
G1 F15.0 X0.0
G1 F10.0 Z-0.26
G1 F15.0 X0.15
( drill )
G0 Z0.125
G0 X0.501 Y-2.8865
G0 Z0.0625
G1 F10.0 Z-0.015
G2 F15.0 X0.4995 Y-2.8874 I-0.001 J0.0
G2 Y-2.8856 I0.0005 J0.0009
G2 X0.501 Y-2.8865 I0.0005 J-0.0009
G1 F10.0 X0.526
G2 F15.0 X0.487 Y-2.909 I-0.026 J0.0
G2 Y-2.864 I0.013 J0.0225
G2 X0.526 Y-2.8865 I0.013 J-0.0225
G1 F10.0 X0.501
G1 Z-0.03
G2 F15.0 X0.4995 Y-2.8874 I-0.001 J0.0
G2 Y-2.8856 I0.0005 J0.0009
G2 X0.501 Y-2.8865 I0.0005 J-0.0009
G1 F10.0 X0.526
G2 F15.0 X0.487 Y-2.909 I-0.026 J0.0
G2 Y-2.864 I0.013 J0.0225
G2 X0.526 Y-2.8865 I0.013 J-0.0225
G1 F10.0 X0.501
G1 Z-0.045
G2 F15.0 X0.4995 Y-2.8874 I-0.001 J0.0
G2 Y-2.8856 I0.0005 J0.0009
G2 X0.501 Y-2.8865 I0.0005 J-0.0009
G1 F10.0 X0.526
G2 F15.0 X0.487 Y-2.909 I-0.026 J0.0
G2 Y-2.864 I0.013 J0.0225
G2 X0.526 Y-2.8865 I0.013 J-0.0225
G1 F10.0 X0.501
G1 Z-0.06
G2 F15.0 X0.4995 Y-2.8874 I-0.001 J0.0
G2 Y-2.8856 I0.0005 J0.0009
G2 X0.501 Y-2.8865 I0.0005 J-0.0009
G1 F10.0 X0.526
G2 F15.0 X0.487 Y-2.909 I-0.026 J0.0
G2 Y-2.864 I0.013 J0.0225
G2 X0.526 Y-2.8865 I0.013 J-0.0225
G1 F10.0 X0.501
G1 Z-0.075
G2 F15.0 X0.4995 Y-2.8874 I-0.001 J0.0
G2 Y-2.8856 I0.0005 J0.0009
G2 X0.501 Y-2.8865 I0.0005 J-0.0009
G1 F10.0 X0.526
G2 F15.0 X0.487 Y-2.909 I-0.026 J0.0
G2 Y-2.864 I0.013 J0.0225
G2 X0.526 Y-2.8865 I0.013 J-0.0225
G1 F10.0 X0.501
G1 Z-0.09
G2 F15.0 X0.4995 Y-2.8874 I-0.001 J0.0
G2 Y-2.8856 I0.0005 J0.0009
G2 X0.501 Y-2.8865 I0.0005 J-0.0009
G1 F10.0 X0.526
G2 F15.0 X0.487 Y-2.909 I-0.026 J0.0
G2 Y-2.864 I0.013 J0.0225
G2 X0.526 Y-2.8865 I0.013 J-0.0225
G1 F10.0 X0.501
G1 Z-0.105
G2 F15.0 X0.4995 Y-2.8874 I-0.001 J0.0
G2 Y-2.8856 I0.0005 J0.0009
G2 X0.501 Y-2.8865 I0.0005 J-0.0009
G1 F10.0 X0.526
G2 F15.0 X0.487 Y-2.909 I-0.026 J0.0
G2 Y-2.864 I0.013 J0.0225
G2 X0.526 Y-2.8865 I0.013 J-0.0225
G1 F10.0 X0.501
G1 Z-0.12
G2 F15.0 X0.4995 Y-2.8874 I-0.001 J0.0
G2 Y-2.8856 I0.0005 J0.0009
G2 X0.501 Y-2.8865 I0.0005 J-0.0009
G1 F10.0 X0.526
G2 F15.0 X0.487 Y-2.909 I-0.026 J0.0
G2 Y-2.864 I0.013 J0.0225
G2 X0.526 Y-2.8865 I0.013 J-0.0225
G1 F10.0 X0.501
G1 Z-0.135
G2 F15.0 X0.4995 Y-2.8874 I-0.001 J0.0
G2 Y-2.8856 I0.0005 J0.0009
G2 X0.501 Y-2.8865 I0.0005 J-0.0009
G1 F10.0 X0.526
G2 F15.0 X0.487 Y-2.909 I-0.026 J0.0
G2 Y-2.864 I0.013 J0.0225
G2 X0.526 Y-2.8865 I0.013 J-0.0225
G1 F10.0 X0.501
G1 Z-0.15
G2 F15.0 X0.4995 Y-2.8874 I-0.001 J0.0
G2 Y-2.8856 I0.0005 J0.0009
G2 X0.501 Y-2.8865 I0.0005 J-0.0009
G1 F10.0 X0.526
G2 F15.0 X0.487 Y-2.909 I-0.026 J0.0
G2 Y-2.864 I0.013 J0.0225
G2 X0.526 Y-2.8865 I0.013 J-0.0225
G1 F10.0 X0.501
G1 Z-0.165
G2 F15.0 X0.4995 Y-2.8874 I-0.001 J0.0
G2 Y-2.8856 I0.0005 J0.0009
G2 X0.501 Y-2.8865 I0.0005 J-0.0009
G1 F10.0 X0.526
G2 F15.0 X0.487 Y-2.909 I-0.026 J0.0
G2 Y-2.864 I0.013 J0.0225
G2 X0.526 Y-2.8865 I0.013 J-0.0225
G1 F10.0 X0.501
G1 Z-0.18
G2 F15.0 X0.4995 Y-2.8874 I-0.001 J0.0
G2 Y-2.8856 I0.0005 J0.0009
G2 X0.501 Y-2.8865 I0.0005 J-0.0009
G1 F10.0 X0.526
G2 F15.0 X0.487 Y-2.909 I-0.026 J0.0
G2 Y-2.864 I0.013 J0.0225
G2 X0.526 Y-2.8865 I0.013 J-0.0225
G1 F10.0 X0.501
G1 Z-0.195
G2 F15.0 X0.4995 Y-2.8874 I-0.001 J0.0
G2 Y-2.8856 I0.0005 J0.0009
G2 X0.501 Y-2.8865 I0.0005 J-0.0009
G1 F10.0 X0.526
G2 F15.0 X0.487 Y-2.909 I-0.026 J0.0
G2 Y-2.864 I0.013 J0.0225
G2 X0.526 Y-2.8865 I0.013 J-0.0225
G1 F10.0 X0.501
G1 Z-0.21
G2 F15.0 X0.4995 Y-2.8874 I-0.001 J0.0
G2 Y-2.8856 I0.0005 J0.0009
G2 X0.501 Y-2.8865 I0.0005 J-0.0009
G1 F10.0 X0.526
G2 F15.0 X0.487 Y-2.909 I-0.026 J0.0
G2 Y-2.864 I0.013 J0.0225
G2 X0.526 Y-2.8865 I0.013 J-0.0225
G1 F10.0 X0.501
G1 Z-0.225
G2 F15.0 X0.4995 Y-2.8874 I-0.001 J0.0
G2 Y-2.8856 I0.0005 J0.0009
G2 X0.501 Y-2.8865 I0.0005 J-0.0009
G1 F10.0 X0.526
G2 F15.0 X0.487 Y-2.909 I-0.026 J0.0
G2 Y-2.864 I0.013 J0.0225
G2 X0.526 Y-2.8865 I0.013 J-0.0225
G1 F10.0 X0.501
G1 Z-0.24
G2 F15.0 X0.4995 Y-2.8874 I-0.001 J0.0
G2 Y-2.8856 I0.0005 J0.0009
G2 X0.501 Y-2.8865 I0.0005 J-0.0009
G1 F10.0 X0.526
G2 F15.0 X0.487 Y-2.909 I-0.026 J0.0
G2 Y-2.864 I0.013 J0.0225
G2 X0.526 Y-2.8865 I0.013 J-0.0225
G1 F10.0 X0.501
G1 Z-0.255
G2 F15.0 X0.4995 Y-2.8874 I-0.001 J0.0
G2 Y-2.8856 I0.0005 J0.0009
G2 X0.501 Y-2.8865 I0.0005 J-0.0009
G1 F10.0 X0.526
G2 F15.0 X0.487 Y-2.909 I-0.026 J0.0
G2 Y-2.864 I0.013 J0.0225
G2 X0.526 Y-2.8865 I0.013 J-0.0225
G1 F10.0 X0.501
G1 Z-0.26
G2 F15.0 X0.4995 Y-2.8874 I-0.001 J0.0
G2 Y-2.8856 I0.0005 J0.0009
G2 X0.501 Y-2.8865 I0.0005 J-0.0009
G1 F10.0 X0.526
G2 F15.0 X0.487 Y-2.909 I-0.026 J0.0
G2 Y-2.864 I0.013 J0.0225
G2 X0.526 Y-2.8865 I0.013 J-0.0225
G0 Z0.125
G0 X0.5 Y-0.3395
G0 Z0.0625
G1 F10.0 Z-0.015
G1 F15.0 X0.4995 Y-0.3394
G2 Y-0.3376 I0.0005 J0.0009
G2 X0.501 Y-0.3385 I0.0005 J-0.0009
G2 X0.5 Y-0.3395 I-0.001 J0.0
G1 F10.0 X0.5003 Y-0.3645
G2 F15.0 X0.487 Y-0.361 I-0.0003 J0.026
G2 Y-0.316 I0.013 J0.0225
G2 X0.526 Y-0.3385 I0.013 J-0.0225
G2 X0.5003 Y-0.3645 I-0.026 J0.0
G1 F10.0 X0.5 Y-0.3395
G1 Z-0.03
G1 F15.0 X0.4995 Y-0.3394
G2 Y-0.3376 I0.0005 J0.0009
G2 X0.501 Y-0.3385 I0.0005 J-0.0009
G2 X0.5 Y-0.3395 I-0.001 J0.0
G1 F10.0 X0.5003 Y-0.3645
G2 F15.0 X0.487 Y-0.361 I-0.0003 J0.026
G2 Y-0.316 I0.013 J0.0225
G2 X0.526 Y-0.3385 I0.013 J-0.0225
G2 X0.5003 Y-0.3645 I-0.026 J0.0
G1 F10.0 X0.5 Y-0.3395
G1 Z-0.045
G1 F15.0 X0.4995 Y-0.3394
G2 Y-0.3376 I0.0005 J0.0009
G2 X0.501 Y-0.3385 I0.0005 J-0.0009
G2 X0.5 Y-0.3395 I-0.001 J0.0
G1 F10.0 X0.5003 Y-0.3645
G2 F15.0 X0.487 Y-0.361 I-0.0003 J0.026
G2 Y-0.316 I0.013 J0.0225
G2 X0.526 Y-0.3385 I0.013 J-0.0225
G2 X0.5003 Y-0.3645 I-0.026 J0.0
G1 F10.0 X0.5 Y-0.3395
G1 Z-0.06
G1 F15.0 X0.4995 Y-0.3394
G2 Y-0.3376 I0.0005 J0.0009
G2 X0.501 Y-0.3385 I0.0005 J-0.0009
G2 X0.5 Y-0.3395 I-0.001 J0.0
G1 F10.0 X0.5003 Y-0.3645
G2 F15.0 X0.487 Y-0.361 I-0.0003 J0.026
G2 Y-0.316 I0.013 J0.0225
G2 X0.526 Y-0.3385 I0.013 J-0.0225
G2 X0.5003 Y-0.3645 I-0.026 J0.0
G1 F10.0 X0.5 Y-0.3395
G1 Z-0.075
G1 F15.0 X0.4995 Y-0.3394
G2 Y-0.3376 I0.0005 J0.0009
G2 X0.501 Y-0.3385 I0.0005 J-0.0009
G2 X0.5 Y-0.3395 I-0.001 J0.0
G1 F10.0 X0.5003 Y-0.3645
G2 F15.0 X0.487 Y-0.361 I-0.0003 J0.026
G2 Y-0.316 I0.013 J0.0225
G2 X0.526 Y-0.3385 I0.013 J-0.0225
G2 X0.5003 Y-0.3645 I-0.026 J0.0
G1 F10.0 X0.5 Y-0.3395
G1 Z-0.09
G1 F15.0 X0.4995 Y-0.3394
G2 Y-0.3376 I0.0005 J0.0009
G2 X0.501 Y-0.3385 I0.0005 J-0.0009
G2 X0.5 Y-0.3395 I-0.001 J0.0
G1 F10.0 X0.5003 Y-0.3645
G2 F15.0 X0.487 Y-0.361 I-0.0003 J0.026
G2 Y-0.316 I0.013 J0.0225
G2 X0.526 Y-0.3385 I0.013 J-0.0225
G2 X0.5003 Y-0.3645 I-0.026 J0.0
G1 F10.0 X0.5 Y-0.3395
G1 Z-0.105
G1 F15.0 X0.4995 Y-0.3394
G2 Y-0.3376 I0.0005 J0.0009
G2 X0.501 Y-0.3385 I0.0005 J-0.0009
G2 X0.5 Y-0.3395 I-0.001 J0.0
G1 F10.0 X0.5003 Y-0.3645
G2 F15.0 X0.487 Y-0.361 I-0.0003 J0.026
G2 Y-0.316 I0.013 J0.0225
G2 X0.526 Y-0.3385 I0.013 J-0.0225
G2 X0.5003 Y-0.3645 I-0.026 J0.0
G1 F10.0 X0.5 Y-0.3395
G1 Z-0.12
G1 F15.0 X0.4995 Y-0.3394
G2 Y-0.3376 I0.0005 J0.0009
G2 X0.501 Y-0.3385 I0.0005 J-0.0009
G2 X0.5 Y-0.3395 I-0.001 J0.0
G1 F10.0 X0.5003 Y-0.3645
G2 F15.0 X0.487 Y-0.361 I-0.0003 J0.026
G2 Y-0.316 I0.013 J0.0225
G2 X0.526 Y-0.3385 I0.013 J-0.0225
G2 X0.5003 Y-0.3645 I-0.026 J0.0
G1 F10.0 X0.5 Y-0.3395
G1 Z-0.135
G1 F15.0 X0.4995 Y-0.3394
G2 Y-0.3376 I0.0005 J0.0009
G2 X0.501 Y-0.3385 I0.0005 J-0.0009
G2 X0.5 Y-0.3395 I-0.001 J0.0
G1 F10.0 X0.5003 Y-0.3645
G2 F15.0 X0.487 Y-0.361 I-0.0003 J0.026
G2 Y-0.316 I0.013 J0.0225
G2 X0.526 Y-0.3385 I0.013 J-0.0225
G2 X0.5003 Y-0.3645 I-0.026 J0.0
G1 F10.0 X0.5 Y-0.3395
G1 Z-0.15
G1 F15.0 X0.4995 Y-0.3394
G2 Y-0.3376 I0.0005 J0.0009
G2 X0.501 Y-0.3385 I0.0005 J-0.0009
G2 X0.5 Y-0.3395 I-0.001 J0.0
G1 F10.0 X0.5003 Y-0.3645
G2 F15.0 X0.487 Y-0.361 I-0.0003 J0.026
G2 Y-0.316 I0.013 J0.0225
G2 X0.526 Y-0.3385 I0.013 J-0.0225
G2 X0.5003 Y-0.3645 I-0.026 J0.0
G1 F10.0 X0.5 Y-0.3395
G1 Z-0.165
G1 F15.0 X0.4995 Y-0.3394
G2 Y-0.3376 I0.0005 J0.0009
G2 X0.501 Y-0.3385 I0.0005 J-0.0009
G2 X0.5 Y-0.3395 I-0.001 J0.0
G1 F10.0 X0.5003 Y-0.3645
G2 F15.0 X0.487 Y-0.361 I-0.0003 J0.026
G2 Y-0.316 I0.013 J0.0225
G2 X0.526 Y-0.3385 I0.013 J-0.0225
G2 X0.5003 Y-0.3645 I-0.026 J0.0
G1 F10.0 X0.5 Y-0.3395
G1 Z-0.18
G1 F15.0 X0.4995 Y-0.3394
G2 Y-0.3376 I0.0005 J0.0009
G2 X0.501 Y-0.3385 I0.0005 J-0.0009
G2 X0.5 Y-0.3395 I-0.001 J0.0
G1 F10.0 X0.5003 Y-0.3645
G2 F15.0 X0.487 Y-0.361 I-0.0003 J0.026
G2 Y-0.316 I0.013 J0.0225
G2 X0.526 Y-0.3385 I0.013 J-0.0225
G2 X0.5003 Y-0.3645 I-0.026 J0.0
G1 F10.0 X0.5 Y-0.3395
G1 Z-0.195
G1 F15.0 X0.4995 Y-0.3394
G2 Y-0.3376 I0.0005 J0.0009
G2 X0.501 Y-0.3385 I0.0005 J-0.0009
G2 X0.5 Y-0.3395 I-0.001 J0.0
G1 F10.0 X0.5003 Y-0.3645
G2 F15.0 X0.487 Y-0.361 I-0.0003 J0.026
G2 Y-0.316 I0.013 J0.0225
G2 X0.526 Y-0.3385 I0.013 J-0.0225
G2 X0.5003 Y-0.3645 I-0.026 J0.0
G1 F10.0 X0.5 Y-0.3395
G1 Z-0.21
G1 F15.0 X0.4995 Y-0.3394
G2 Y-0.3376 I0.0005 J0.0009
G2 X0.501 Y-0.3385 I0.0005 J-0.0009
G2 X0.5 Y-0.3395 I-0.001 J0.0
G1 F10.0 X0.5003 Y-0.3645
G2 F15.0 X0.487 Y-0.361 I-0.0003 J0.026
G2 Y-0.316 I0.013 J0.0225
G2 X0.526 Y-0.3385 I0.013 J-0.0225
G2 X0.5003 Y-0.3645 I-0.026 J0.0
G1 F10.0 X0.5 Y-0.3395
G1 Z-0.225
G1 F15.0 X0.4995 Y-0.3394
G2 Y-0.3376 I0.0005 J0.0009
G2 X0.501 Y-0.3385 I0.0005 J-0.0009
G2 X0.5 Y-0.3395 I-0.001 J0.0
G1 F10.0 X0.5003 Y-0.3645
G2 F15.0 X0.487 Y-0.361 I-0.0003 J0.026
G2 Y-0.316 I0.013 J0.0225
G2 X0.526 Y-0.3385 I0.013 J-0.0225
G2 X0.5003 Y-0.3645 I-0.026 J0.0
G1 F10.0 X0.5 Y-0.3395
G1 Z-0.24
G1 F15.0 X0.4995 Y-0.3394
G2 Y-0.3376 I0.0005 J0.0009
G2 X0.501 Y-0.3385 I0.0005 J-0.0009
G2 X0.5 Y-0.3395 I-0.001 J0.0
G1 F10.0 X0.5003 Y-0.3645
G2 F15.0 X0.487 Y-0.361 I-0.0003 J0.026
G2 Y-0.316 I0.013 J0.0225
G2 X0.526 Y-0.3385 I0.013 J-0.0225
G2 X0.5003 Y-0.3645 I-0.026 J0.0
G1 F10.0 X0.5 Y-0.3395
G1 Z-0.255
G1 F15.0 X0.4995 Y-0.3394
G2 Y-0.3376 I0.0005 J0.0009
G2 X0.501 Y-0.3385 I0.0005 J-0.0009
G2 X0.5 Y-0.3395 I-0.001 J0.0
G1 F10.0 X0.5003 Y-0.3645
G2 F15.0 X0.487 Y-0.361 I-0.0003 J0.026
G2 Y-0.316 I0.013 J0.0225
G2 X0.526 Y-0.3385 I0.013 J-0.0225
G2 X0.5003 Y-0.3645 I-0.026 J0.0
G1 F10.0 X0.5 Y-0.3395
G1 Z-0.26
G1 F15.0 X0.4995 Y-0.3394
G2 Y-0.3376 I0.0005 J0.0009
G2 X0.501 Y-0.3385 I0.0005 J-0.0009
G2 X0.5 Y-0.3395 I-0.001 J0.0
G1 F10.0 X0.5003 Y-0.3645
G2 F15.0 X0.487 Y-0.361 I-0.0003 J0.026
G2 Y-0.316 I0.013 J0.0225
G2 X0.526 Y-0.3385 I0.013 J-0.0225
G2 X0.5003 Y-0.3645 I-0.026 J0.0
( cutoff )
G0 Z0.125
G0 X1.0625 Y-3.2875
G0 Z0.0625
G1 F10.0 Z-0.015
G1 F15.0 X-0.0625
G1 F10.0 Z-0.03
G1 F15.0 X1.0625
G1 F10.0 Z-0.045
G1 F15.0 X-0.0625
G1 F10.0 Z-0.06
G1 F15.0 X1.0625
G1 F10.0 Z-0.075
G1 F15.0 X-0.0625
G1 F10.0 Z-0.09
G1 F15.0 X1.0625
G1 F10.0 Z-0.105
G1 F15.0 X-0.0625
G1 F10.0 Z-0.12
G1 F15.0 X1.0625
G1 F10.0 Z-0.135
G1 F15.0 X-0.0625
G1 F10.0 Z-0.15
G1 F15.0 X1.0625
G1 F10.0 Z-0.165
G1 F15.0 X-0.0625
G1 F10.0 Z-0.18
G1 F15.0 X1.0625
G1 F10.0 Z-0.195
G1 F15.0 X-0.0625
G1 F10.0 Z-0.21
G1 F15.0 X1.0625
G1 F10.0 Z-0.225
G1 F15.0 X-0.0625
G1 F10.0 Z-0.24
G1 F15.0 X1.0625
G1 F10.0 Z-0.255
G1 F15.0 X-0.0625
G1 F10.0 Z-0.26
G1 F15.0 X1.0625
G0 Z0.125
M5
M30
