( Made using CamBam - http://www.cambam.info )
( anderson_plate_6_poles 11/10/2015 12:49:39 AM )
( T1 : 0.0 )
G20 G90 G64 G40
G0 Z0.125
( T1 : 0.0 )
T1 M6
( Engrave1 )
G17
M3
G0 X1.36 Y0.87
G0 Z0.0625
G1 F10.0 Z-0.015
G1 F15.0 X1.4489
G1 F10.0 Z-0.02
G1 F15.0 X1.36
G0 Z0.125
G0 X1.2089 Y0.8744
G0 Z0.0625
G1 F10.0 Z-0.015
G1 F15.0 X1.12
G0 Z0.125
G0 X1.1644 Y0.83
G0 Z0.0625
G1 F10.0 Z-0.015
G1 F15.0 Y0.9189
G1 F10.0 Z-0.02
G1 F15.0 Y0.83
G0 Z0.125
G0 X1.12 Y0.8744
G0 Z0.0475
G1 F10.0 Z-0.02
G1 F15.0 X1.2089
G0 Z0.125
G0 X0.6347 Y0.7885
G0 Z0.0625
G1 F10.0 Z-0.015
G1 F15.0 Y0.9885
G1 X0.5903 Y0.9441
G1 F10.0 Z-0.02
G1 F15.0 X0.6347 Y0.9885
G1 Y0.7885
G0 Z0.125
G0 X0.5236
G0 Z0.0625
G1 F10.0 Z-0.015
G1 F15.0 Y0.9885
G1 X0.4569 Y0.8774
G1 X0.3903 Y0.9885
G1 Y0.7885
G1 F10.0 Z-0.02
G1 F15.0 Y0.9885
G1 X0.4569 Y0.8774
G1 X0.5236 Y0.9885
G1 Y0.7885
G0 Z0.125
G0 X1.9181
G0 Z0.0625
G1 F10.0 Z-0.015
G1 F15.0 Y0.9885
G1 X1.9847 Y0.8774
G1 X2.0514 Y0.9885
G1 Y0.7885
G1 F10.0 Z-0.02
G1 F15.0 Y0.9885
G1 X1.9847 Y0.8774
G1 X1.9181 Y0.9885
G1 Y0.7885
G0 Z0.125
G0 X2.1181 Y0.9552
G0 Z0.0625
G1 F10.0 Z-0.015
G1 F15.0 X2.124 Y0.9663
G2 X2.201 Y0.9218 I0.0385 J-0.0222
G1 X2.1181 Y0.7885
G1 X2.2069
G1 F10.0 Z-0.02
G1 F15.0 X2.1181
G1 X2.201 Y0.9218
G3 X2.124 Y0.9663 I-0.0385 J0.0222
G1 X2.1181 Y0.9552
G0 Z0.125
M5
M30
