( Made using CamBam - http://www.cambam.info )
( anderson_plate_6_poles 11/10/2015 12:50:07 AM )
( T1 : 0.125 )
G20 G90 G64 G40
G0 Z0.125
( T1 : 0.125 )
T1 M6
( cutout )
G17
M3
G0 X0.3125 Y0.3125
G0 Z0.0625
G1 F10.0 Z-0.015
G1 F15.0 Y0.3783
G3 X0.25 Y0.4408 I-0.0625 J0.0
G1 X0.0
G3 X-0.0625 Y0.3783 I0.0 J-0.0625
G1 Y0.0
G3 X0.0 Y-0.0625 I0.0625 J0.0
G1 X2.575
G3 X2.6375 Y0.0 I0.0 J0.0625
G1 Y0.3783
G3 X2.575 Y0.4408 I-0.0625 J0.0
G1 X2.325
G3 X2.2625 Y0.3783 I0.0 J-0.0625
G1 Y0.3125
G1 X2.2808 Y0.2942
G1 X2.2625 Y0.3125
G1 X1.8625
G1 X1.8442 Y0.2942
G1 X1.8625 Y0.3125
G1 Y0.3783
G3 X1.8 Y0.4408 I-0.0625 J0.0
G1 X1.55
G3 X1.4875 Y0.3783 I0.0 J-0.0625
G1 Y0.3125
G1 X1.5058 Y0.2942
G1 X1.4875 Y0.3125
G1 X1.0875
G1 X1.0692 Y0.2942
G1 X1.0875 Y0.3125
G1 Y0.3783
G3 X1.025 Y0.4408 I-0.0625 J0.0
G1 X0.775
G3 X0.7125 Y0.3783 I0.0 J-0.0625
G1 Y0.3125
G1 X0.7308 Y0.2942
G1 X0.7125 Y0.3125
G1 X0.3125
G1 X0.2942 Y0.2942
G1 X0.3125 Y0.3125
G1 F10.0 Z-0.03
G1 F15.0 Y0.3783
G3 X0.25 Y0.4408 I-0.0625 J0.0
G1 X0.0
G3 X-0.0625 Y0.3783 I0.0 J-0.0625
G1 Y0.0
G3 X0.0 Y-0.0625 I0.0625 J0.0
G1 X2.575
G3 X2.6375 Y0.0 I0.0 J0.0625
G1 Y0.3783
G3 X2.575 Y0.4408 I-0.0625 J0.0
G1 X2.325
G3 X2.2625 Y0.3783 I0.0 J-0.0625
G1 Y0.3125
G1 X2.2808 Y0.2942
G1 X2.2625 Y0.3125
G1 X1.8625
G1 X1.8442 Y0.2942
G1 X1.8625 Y0.3125
G1 Y0.3783
G3 X1.8 Y0.4408 I-0.0625 J0.0
G1 X1.55
G3 X1.4875 Y0.3783 I0.0 J-0.0625
G1 Y0.3125
G1 X1.5058 Y0.2942
G1 X1.4875 Y0.3125
G1 X1.0875
G1 X1.0692 Y0.2942
G1 X1.0875 Y0.3125
G1 Y0.3783
G3 X1.025 Y0.4408 I-0.0625 J0.0
G1 X0.775
G3 X0.7125 Y0.3783 I0.0 J-0.0625
G1 Y0.3125
G1 X0.7308 Y0.2942
G1 X0.7125 Y0.3125
G1 X0.3125
G1 X0.2942 Y0.2942
G1 X0.3125 Y0.3125
G1 F10.0 Z-0.045
G1 F15.0 Y0.3783
G3 X0.25 Y0.4408 I-0.0625 J0.0
G1 X0.0
G3 X-0.0625 Y0.3783 I0.0 J-0.0625
G1 Y0.0
G3 X0.0 Y-0.0625 I0.0625 J0.0
G1 X2.575
G3 X2.6375 Y0.0 I0.0 J0.0625
G1 Y0.3783
G3 X2.575 Y0.4408 I-0.0625 J0.0
G1 X2.325
G3 X2.2625 Y0.3783 I0.0 J-0.0625
G1 Y0.3125
G1 X2.2808 Y0.2942
G1 X2.2625 Y0.3125
G1 X1.8625
G1 X1.8442 Y0.2942
G1 X1.8625 Y0.3125
G1 Y0.3783
G3 X1.8 Y0.4408 I-0.0625 J0.0
G1 X1.55
G3 X1.4875 Y0.3783 I0.0 J-0.0625
G1 Y0.3125
G1 X1.5058 Y0.2942
G1 X1.4875 Y0.3125
G1 X1.0875
G1 X1.0692 Y0.2942
G1 X1.0875 Y0.3125
G1 Y0.3783
G3 X1.025 Y0.4408 I-0.0625 J0.0
G1 X0.775
G3 X0.7125 Y0.3783 I0.0 J-0.0625
G1 Y0.3125
G1 X0.7308 Y0.2942
G1 X0.7125 Y0.3125
G1 X0.3125
G1 X0.2942 Y0.2942
G1 X0.3125 Y0.3125
G1 F10.0 Z-0.06
G1 F15.0 Y0.3783
G3 X0.25 Y0.4408 I-0.0625 J0.0
G1 X0.0
G3 X-0.0625 Y0.3783 I0.0 J-0.0625
G1 Y0.0
G3 X0.0 Y-0.0625 I0.0625 J0.0
G1 X2.575
G3 X2.6375 Y0.0 I0.0 J0.0625
G1 Y0.3783
G3 X2.575 Y0.4408 I-0.0625 J0.0
G1 X2.325
G3 X2.2625 Y0.3783 I0.0 J-0.0625
G1 Y0.3125
G1 X2.2808 Y0.2942
G1 X2.2625 Y0.3125
G1 X1.8625
G1 X1.8442 Y0.2942
G1 X1.8625 Y0.3125
G1 Y0.3783
G3 X1.8 Y0.4408 I-0.0625 J0.0
G1 X1.55
G3 X1.4875 Y0.3783 I0.0 J-0.0625
G1 Y0.3125
G1 X1.5058 Y0.2942
G1 X1.4875 Y0.3125
G1 X1.0875
G1 X1.0692 Y0.2942
G1 X1.0875 Y0.3125
G1 Y0.3783
G3 X1.025 Y0.4408 I-0.0625 J0.0
G1 X0.775
G3 X0.7125 Y0.3783 I0.0 J-0.0625
G1 Y0.3125
G1 X0.7308 Y0.2942
G1 X0.7125 Y0.3125
G1 X0.3125
G1 X0.2942 Y0.2942
G1 X0.3125 Y0.3125
G1 F10.0 Z-0.075
G1 F15.0 Y0.3783
G3 X0.25 Y0.4408 I-0.0625 J0.0
G1 X0.0
G3 X-0.0625 Y0.3783 I0.0 J-0.0625
G1 Y0.0
G3 X0.0 Y-0.0625 I0.0625 J0.0
G1 X2.575
G3 X2.6375 Y0.0 I0.0 J0.0625
G1 Y0.3783
G3 X2.575 Y0.4408 I-0.0625 J0.0
G1 X2.325
G3 X2.2625 Y0.3783 I0.0 J-0.0625
G1 Y0.3125
G1 X2.2808 Y0.2942
G1 X2.2625 Y0.3125
G1 X1.8625
G1 X1.8442 Y0.2942
G1 X1.8625 Y0.3125
G1 Y0.3783
G3 X1.8 Y0.4408 I-0.0625 J0.0
G1 X1.55
G3 X1.4875 Y0.3783 I0.0 J-0.0625
G1 Y0.3125
G1 X1.5058 Y0.2942
G1 X1.4875 Y0.3125
G1 X1.0875
G1 X1.0692 Y0.2942
G1 X1.0875 Y0.3125
G1 Y0.3783
G3 X1.025 Y0.4408 I-0.0625 J0.0
G1 X0.775
G3 X0.7125 Y0.3783 I0.0 J-0.0625
G1 Y0.3125
G1 X0.7308 Y0.2942
G1 X0.7125 Y0.3125
G1 X0.3125
G1 X0.2942 Y0.2942
G1 X0.3125 Y0.3125
G0 Z0.125
G0 X0.2621 Y0.5669
G0 Z0.0625
G1 F10.0 Z-0.015
G3 F15.0 X0.3125 Y0.6283 I-0.0121 J0.0613
G1 Y0.694
G1 X0.2942 Y0.7123
G1 X0.3125 Y0.694
G1 X0.7125
G1 X0.7308 Y0.7123
G1 X0.7125 Y0.694
G1 Y0.6283
G3 X0.775 Y0.5658 I0.0625 J0.0
G1 X1.025
G3 X1.0875 Y0.6283 I0.0 J0.0625
G1 Y0.694
G1 X1.0692 Y0.7123
G1 X1.0875 Y0.694
G1 X1.4875
G1 X1.5058 Y0.7123
G1 X1.4875 Y0.694
G1 Y0.6283
G3 X1.55 Y0.5658 I0.0625 J0.0
G1 X1.8
G3 X1.8625 Y0.6283 I0.0 J0.0625
G1 Y0.694
G1 X1.8442 Y0.7123
G1 X1.8625 Y0.694
G1 X2.2625
G1 X2.2808 Y0.7123
G1 X2.2625 Y0.694
G1 Y0.6283
G3 X2.325 Y0.5658 I0.0625 J0.0
G1 X2.575
G3 X2.6375 Y0.6283 I0.0 J0.0625
G1 Y1.0065
G3 X2.575 Y1.069 I-0.0625 J0.0
G1 X0.0
G3 X-0.0625 Y1.0065 I0.0 J-0.0625
G1 Y0.6283
G3 X0.0 Y0.5658 I0.0625 J0.0
G1 X0.25
G3 X0.2621 Y0.5669 I0.0 J0.0625
G1 F10.0 Z-0.03
G3 F15.0 X0.3125 Y0.6283 I-0.0121 J0.0613
G1 Y0.694
G1 X0.2942 Y0.7123
G1 X0.3125 Y0.694
G1 X0.7125
G1 X0.7308 Y0.7123
G1 X0.7125 Y0.694
G1 Y0.6283
G3 X0.775 Y0.5658 I0.0625 J0.0
G1 X1.025
G3 X1.0875 Y0.6283 I0.0 J0.0625
G1 Y0.694
G1 X1.0692 Y0.7123
G1 X1.0875 Y0.694
G1 X1.4875
G1 X1.5058 Y0.7123
G1 X1.4875 Y0.694
G1 Y0.6283
G3 X1.55 Y0.5658 I0.0625 J0.0
G1 X1.8
G3 X1.8625 Y0.6283 I0.0 J0.0625
G1 Y0.694
G1 X1.8442 Y0.7123
G1 X1.8625 Y0.694
G1 X2.2625
G1 X2.2808 Y0.7123
G1 X2.2625 Y0.694
G1 Y0.6283
G3 X2.325 Y0.5658 I0.0625 J0.0
G1 X2.575
G3 X2.6375 Y0.6283 I0.0 J0.0625
G1 Y1.0065
G3 X2.575 Y1.069 I-0.0625 J0.0
G1 X0.0
G3 X-0.0625 Y1.0065 I0.0 J-0.0625
G1 Y0.6283
G3 X0.0 Y0.5658 I0.0625 J0.0
G1 X0.25
G3 X0.2621 Y0.5669 I0.0 J0.0625
G1 F10.0 Z-0.045
G3 F15.0 X0.3125 Y0.6283 I-0.0121 J0.0613
G1 Y0.694
G1 X0.2942 Y0.7123
G1 X0.3125 Y0.694
G1 X0.7125
G1 X0.7308 Y0.7123
G1 X0.7125 Y0.694
G1 Y0.6283
G3 X0.775 Y0.5658 I0.0625 J0.0
G1 X1.025
G3 X1.0875 Y0.6283 I0.0 J0.0625
G1 Y0.694
G1 X1.0692 Y0.7123
G1 X1.0875 Y0.694
G1 X1.4875
G1 X1.5058 Y0.7123
G1 X1.4875 Y0.694
G1 Y0.6283
G3 X1.55 Y0.5658 I0.0625 J0.0
G1 X1.8
G3 X1.8625 Y0.6283 I0.0 J0.0625
G1 Y0.694
G1 X1.8442 Y0.7123
G1 X1.8625 Y0.694
G1 X2.2625
G1 X2.2808 Y0.7123
G1 X2.2625 Y0.694
G1 Y0.6283
G3 X2.325 Y0.5658 I0.0625 J0.0
G1 X2.575
G3 X2.6375 Y0.6283 I0.0 J0.0625
G1 Y1.0065
G3 X2.575 Y1.069 I-0.0625 J0.0
G1 X0.0
G3 X-0.0625 Y1.0065 I0.0 J-0.0625
G1 Y0.6283
G3 X0.0 Y0.5658 I0.0625 J0.0
G1 X0.25
G3 X0.2621 Y0.5669 I0.0 J0.0625
G1 F10.0 Z-0.06
G3 F15.0 X0.3125 Y0.6283 I-0.0121 J0.0613
G1 Y0.694
G1 X0.2942 Y0.7123
G1 X0.3125 Y0.694
G1 X0.7125
G1 X0.7308 Y0.7123
G1 X0.7125 Y0.694
G1 Y0.6283
G3 X0.775 Y0.5658 I0.0625 J0.0
G1 X1.025
G3 X1.0875 Y0.6283 I0.0 J0.0625
G1 Y0.694
G1 X1.0692 Y0.7123
G1 X1.0875 Y0.694
G1 X1.4875
G1 X1.5058 Y0.7123
G1 X1.4875 Y0.694
G1 Y0.6283
G3 X1.55 Y0.5658 I0.0625 J0.0
G1 X1.8
G3 X1.8625 Y0.6283 I0.0 J0.0625
G1 Y0.694
G1 X1.8442 Y0.7123
G1 X1.8625 Y0.694
G1 X2.2625
G1 X2.2808 Y0.7123
G1 X2.2625 Y0.694
G1 Y0.6283
G3 X2.325 Y0.5658 I0.0625 J0.0
G1 X2.575
G3 X2.6375 Y0.6283 I0.0 J0.0625
G1 Y1.0065
G3 X2.575 Y1.069 I-0.0625 J0.0
G1 X0.0
G3 X-0.0625 Y1.0065 I0.0 J-0.0625
G1 Y0.6283
G3 X0.0 Y0.5658 I0.0625 J0.0
G1 X0.25
G3 X0.2621 Y0.5669 I0.0 J0.0625
G1 F10.0 Z-0.075
G3 F15.0 X0.3125 Y0.6283 I-0.0121 J0.0613
G1 Y0.694
G1 X0.2942 Y0.7123
G1 X0.3125 Y0.694
G1 X0.7125
G1 X0.7308 Y0.7123
G1 X0.7125 Y0.694
G1 Y0.6283
G3 X0.775 Y0.5658 I0.0625 J0.0
G1 X1.025
G3 X1.0875 Y0.6283 I0.0 J0.0625
G1 Y0.694
G1 X1.0692 Y0.7123
G1 X1.0875 Y0.694
G1 X1.4875
G1 X1.5058 Y0.7123
G1 X1.4875 Y0.694
G1 Y0.6283
G3 X1.55 Y0.5658 I0.0625 J0.0
G1 X1.8
G3 X1.8625 Y0.6283 I0.0 J0.0625
G1 Y0.694
G1 X1.8442 Y0.7123
G1 X1.8625 Y0.694
G1 X2.2625
G1 X2.2808 Y0.7123
G1 X2.2625 Y0.694
G1 Y0.6283
G3 X2.325 Y0.5658 I0.0625 J0.0
G1 X2.575
G3 X2.6375 Y0.6283 I0.0 J0.0625
G1 Y1.0065
G3 X2.575 Y1.069 I-0.0625 J0.0
G1 X0.0
G3 X-0.0625 Y1.0065 I0.0 J-0.0625
G1 Y0.6283
G3 X0.0 Y0.5658 I0.0625 J0.0
G1 X0.25
G3 X0.2621 Y0.5669 I0.0 J0.0625
G0 Z0.125
M5
M30
