( Made using CamBam - http://www.cambam.info )
( driver_box 11/13/2015 11:45:05 PM )
( T1 : 0.125 )
G20 G90 G64 G40
G0 Z0.125
( T1 : 0.125 )
T1 M6
( Profile1 )
G17
M3
G0 X1.5695 Y1.7369
G0 Z0.0625
G1 F10.0 Z-0.08
G1 F15.0 X3.1445
G1 X3.1628 Y1.7552
G1 X3.1445 Y1.7369
G1 Y1.4074
G1 X3.1628 Y1.3891
G1 X3.1445 Y1.4074
G1 X1.5695
G1 X1.5512 Y1.3891
G1 X1.5695 Y1.4074
G1 Y1.7369
G1 X1.5512 Y1.7552
G1 X1.5695 Y1.7369
G1 F10.0 Z-0.15
G1 F15.0 X3.1445
G1 X3.1628 Y1.7552
G1 X3.1445 Y1.7369
G1 Y1.4074
G1 X3.1628 Y1.3891
G1 X3.1445 Y1.4074
G1 X1.5695
G1 X1.5512 Y1.3891
G1 X1.5695 Y1.4074
G1 Y1.7369
G1 X1.5512 Y1.7552
G1 X1.5695 Y1.7369
G0 Z0.125
G0 Y0.7846
G0 Z0.0625
G1 F10.0 Z-0.08
G1 F15.0 X1.782
G1 X1.8003 Y0.8029
G1 X1.782 Y0.7846
G1 Y0.5736
G1 X1.8003 Y0.5553
G1 X1.782 Y0.5736
G1 X1.382
G1 X1.3637 Y0.5553
G1 X1.382 Y0.5736
G1 Y0.7846
G1 X1.3637 Y0.8029
G1 X1.382 Y0.7846
G1 X1.5695
G1 F10.0 Z-0.15
G1 F15.0 X1.782
G1 X1.8003 Y0.8029
G1 X1.782 Y0.7846
G1 Y0.5736
G1 X1.8003 Y0.5553
G1 X1.782 Y0.5736
G1 X1.382
G1 X1.3637 Y0.5553
G1 X1.382 Y0.5736
G1 Y0.7846
G1 X1.3637 Y0.8029
G1 X1.382 Y0.7846
G1 X1.5695
G0 Z0.125
G0 X2.1387 Y0.8029
G0 Z0.0625
G1 F10.0 Z-0.08
G1 F15.0 X2.157 Y0.7846
G1 X2.557
G1 X2.5753 Y0.8029
G1 X2.557 Y0.7846
G1 Y0.5736
G1 X2.5753 Y0.5553
G1 X2.557 Y0.5736
G1 X2.157
G1 X2.1387 Y0.5553
G1 X2.157 Y0.5736
G1 Y0.7846
G1 X2.1387 Y0.8029
G1 F10.0 Z-0.15
G1 F15.0 X2.157 Y0.7846
G1 X2.557
G1 X2.5753 Y0.8029
G1 X2.557 Y0.7846
G1 Y0.5736
G1 X2.5753 Y0.5553
G1 X2.557 Y0.5736
G1 X2.157
G1 X2.1387 Y0.5553
G1 X2.157 Y0.5736
G1 Y0.7846
G1 X2.1387 Y0.8029
G0 Z0.125
G0 X2.9137
G0 Z0.0625
G1 F10.0 Z-0.08
G1 F15.0 X2.932 Y0.7846
G1 X3.332
G1 X3.3503 Y0.8029
G1 X3.332 Y0.7846
G1 Y0.5736
G1 X3.3503 Y0.5553
G1 X3.332 Y0.5736
G1 X2.932
G1 X2.9137 Y0.5553
G1 X2.932 Y0.5736
G1 Y0.7846
G1 X2.9137 Y0.8029
G1 F10.0 Z-0.15
G1 F15.0 X2.932 Y0.7846
G1 X3.332
G1 X3.3503 Y0.8029
G1 X3.332 Y0.7846
G1 Y0.5736
G1 X3.3503 Y0.5553
G1 X3.332 Y0.5736
G1 X2.932
G1 X2.9137 Y0.5553
G1 X2.932 Y0.5736
G1 Y0.7846
G1 X2.9137 Y0.8029
( Drill1 )
G0 Z0.125
G0 X3.5195 Y0.4503
G98
G81 X3.5195 Y0.4503 Z0.0 R0.0 F10.0
G81 Y0.908
G81 X1.1945
G81 Y0.4503
G80
G0 Z0.125
M5
M30
