( Made using CamBam - http://www.cambam.info )
( fan_output_vent_grill 11/24/2015 12:20:39 AM )
( T1 : 0.0 )
G20 G90 G64 G40
G0 Z0.125
( T1 : 0.0 )
T1 M6
( Drill1 )
G17
M3
G0 X0.25 Y2.8996
G98
G81 X0.25 Y2.8996 Z-0.156 R0.0 F10.0
G81 Y1.5748 Z-0.156
G81 Y0.25 Z-0.156
G81 X1.75 Z-0.156
G81 Y1.5748 Z-0.156
G81 Y2.8996 Z-0.156
G80
( cutout )
G0 Z0.125
G0 X1.6832 Y2.3622
G0 Z0.0625
G1 F10.0 Z-0.065
G2 F15.0 X0.6584 Y1.7706 I-0.6832 J0.0
G2 Y2.9538 I0.3416 J0.5916
G2 X1.6832 Y2.3622 I0.3416 J-0.5916
G1 F10.0 Z-0.13
G2 F15.0 X0.6584 Y1.7706 I-0.6832 J0.0
G2 Y2.9538 I0.3416 J0.5916
G2 X1.6832 Y2.3622 I0.3416 J-0.5916
G1 F10.0 Z-0.156
G2 F15.0 X0.6584 Y1.7706 I-0.6832 J0.0
G2 Y2.9538 I0.3416 J0.5916
G2 X1.6832 Y2.3622 I0.3416 J-0.5916
G0 Z0.125
G0 X1.2719 Y1.4141
G0 Z0.0625
G1 F10.0 Z-0.065
G2 F15.0 X1.6832 Y0.7874 I-0.2719 J-0.6267
G2 X0.6584 Y0.1958 I-0.6832 J0.0
G2 Y1.379 I0.3416 J0.5916
G2 X1.2719 Y1.4141 I0.3416 J-0.5916
G1 F10.0 Z-0.13
G2 F15.0 X1.6832 Y0.7874 I-0.2719 J-0.6267
G2 X0.6584 Y0.1958 I-0.6832 J0.0
G2 Y1.379 I0.3416 J0.5916
G2 X1.2719 Y1.4141 I0.3416 J-0.5916
G1 F10.0 Z-0.156
G2 F15.0 X1.6832 Y0.7874 I-0.2719 J-0.6267
G2 X0.6584 Y0.1958 I-0.6832 J0.0
G2 Y1.379 I0.3416 J0.5916
G2 X1.2719 Y1.4141 I0.3416 J-0.5916
G0 Z0.125
M5
M30
