( Made using CamBam - http://www.cambam.info )
( fan_output_vent_grill 11/24/2015 12:20:46 AM )
( T1 : 0.0 )
G20 G90 G64 G40
G0 Z0.125
( T1 : 0.0 )
T1 M6
( Drill1 )
G17
M3
G0 X0.25 Y2.8996
G98
G81 X0.25 Y2.8996 Z-0.075 R0.0 F10.0
G81 Y1.5748 Z-0.075
G81 Y0.25 Z-0.075
G81 X1.75 Z-0.075
G81 Y1.5748 Z-0.075
G81 Y2.8996 Z-0.075
G80
( Profile1 )
G0 Z0.125
G0 X1.6716 Y0.9124
G0 Z0.0625
G1 F10.0 Z-0.015
G3 F15.0 X1.3625 Y1.3665 I-0.6716 J-0.125
G3 X1.125 Y1.459 I-0.3625 J-0.5791
G2 X1.3625 Y1.3665 I-0.125 J-0.6716
G2 X1.6716 Y0.9124 I-0.3625 J-0.5791
G1 F10.0 Z-0.03
G3 F15.0 X1.3625 Y1.3665 I-0.6716 J-0.125
G3 X1.125 Y1.459 I-0.3625 J-0.5791
G2 X1.3625 Y1.3665 I-0.125 J-0.6716
G2 X1.6716 Y0.9124 I-0.3625 J-0.5791
G1 F10.0 Z-0.045
G3 F15.0 X1.3625 Y1.3665 I-0.6716 J-0.125
G3 X1.125 Y1.459 I-0.3625 J-0.5791
G2 X1.3625 Y1.3665 I-0.125 J-0.6716
G2 X1.6716 Y0.9124 I-0.3625 J-0.5791
G1 F10.0 Z-0.06
G3 F15.0 X1.3625 Y1.3665 I-0.6716 J-0.125
G3 X1.125 Y1.459 I-0.3625 J-0.5791
G2 X1.3625 Y1.3665 I-0.125 J-0.6716
G2 X1.6716 Y0.9124 I-0.3625 J-0.5791
G1 F10.0 Z-0.075
G3 F15.0 X1.3625 Y1.3665 I-0.6716 J-0.125
G3 X1.125 Y1.459 I-0.3625 J-0.5791
G2 X1.3625 Y1.3665 I-0.125 J-0.6716
G2 X1.6716 Y0.9124 I-0.3625 J-0.5791
G0 Z0.125
G0 X1.4667
G0 Z0.0625
G1 F10.0 Z-0.015
G3 F15.0 X1.2904 Y1.1735 I-0.4667 J-0.125
G3 X1.125 Y1.2541 I-0.2904 J-0.3861
G2 X1.2904 Y1.1735 I-0.125 J-0.4667
G2 X1.4667 Y0.9124 I-0.2904 J-0.3861
G1 F10.0 Z-0.03
G3 F15.0 X1.2904 Y1.1735 I-0.4667 J-0.125
G3 X1.125 Y1.2541 I-0.2904 J-0.3861
G2 X1.2904 Y1.1735 I-0.125 J-0.4667
G2 X1.4667 Y0.9124 I-0.2904 J-0.3861
G1 F10.0 Z-0.045
G3 F15.0 X1.2904 Y1.1735 I-0.4667 J-0.125
G3 X1.125 Y1.2541 I-0.2904 J-0.3861
G2 X1.2904 Y1.1735 I-0.125 J-0.4667
G2 X1.4667 Y0.9124 I-0.2904 J-0.3861
G1 F10.0 Z-0.06
G3 F15.0 X1.2904 Y1.1735 I-0.4667 J-0.125
G3 X1.125 Y1.2541 I-0.2904 J-0.3861
G2 X1.2904 Y1.1735 I-0.125 J-0.4667
G2 X1.4667 Y0.9124 I-0.2904 J-0.3861
G1 F10.0 Z-0.075
G3 F15.0 X1.2904 Y1.1735 I-0.4667 J-0.125
G3 X1.125 Y1.2541 I-0.2904 J-0.3861
G2 X1.2904 Y1.1735 I-0.125 J-0.4667
G2 X1.4667 Y0.9124 I-0.2904 J-0.3861
G0 Z0.125
G0 Y0.6624
G0 Z0.0625
G1 F10.0 Z-0.015
G2 F15.0 X1.125 Y0.3207 I-0.4667 J0.125
G3 X1.4667 Y0.6624 I-0.125 J0.4667
G1 F10.0 Z-0.03
G2 F15.0 X1.125 Y0.3207 I-0.4667 J0.125
G3 X1.4667 Y0.6624 I-0.125 J0.4667
G1 F10.0 Z-0.045
G2 F15.0 X1.125 Y0.3207 I-0.4667 J0.125
G3 X1.4667 Y0.6624 I-0.125 J0.4667
G1 F10.0 Z-0.06
G2 F15.0 X1.125 Y0.3207 I-0.4667 J0.125
G3 X1.4667 Y0.6624 I-0.125 J0.4667
G1 F10.0 Z-0.075
G2 F15.0 X1.125 Y0.3207 I-0.4667 J0.125
G3 X1.4667 Y0.6624 I-0.125 J0.4667
G0 Z0.125
G0 X1.125 Y0.1158
G0 Z0.0625
G1 F10.0 Z-0.015
G3 F15.0 X1.6716 Y0.6624 I-0.125 J0.6716
G2 X1.125 Y0.1158 I-0.6716 J0.125
G1 F10.0 Z-0.03
G3 F15.0 X1.6716 Y0.6624 I-0.125 J0.6716
G2 X1.125 Y0.1158 I-0.6716 J0.125
G1 F10.0 Z-0.045
G3 F15.0 X1.6716 Y0.6624 I-0.125 J0.6716
G2 X1.125 Y0.1158 I-0.6716 J0.125
G1 F10.0 Z-0.06
G3 F15.0 X1.6716 Y0.6624 I-0.125 J0.6716
G2 X1.125 Y0.1158 I-0.6716 J0.125
G1 F10.0 Z-0.075
G3 F15.0 X1.6716 Y0.6624 I-0.125 J0.6716
G2 X1.125 Y0.1158 I-0.6716 J0.125
G0 Z0.125
G0 X0.875
G0 Z0.0625
G1 F10.0 Z-0.015
G2 F15.0 X0.3284 Y0.6624 I0.125 J0.6716
G3 X0.875 Y0.1158 I0.6716 J0.125
G1 F10.0 Z-0.03
G2 F15.0 X0.3284 Y0.6624 I0.125 J0.6716
G3 X0.875 Y0.1158 I0.6716 J0.125
G1 F10.0 Z-0.045
G2 F15.0 X0.3284 Y0.6624 I0.125 J0.6716
G3 X0.875 Y0.1158 I0.6716 J0.125
G1 F10.0 Z-0.06
G2 F15.0 X0.3284 Y0.6624 I0.125 J0.6716
G3 X0.875 Y0.1158 I0.6716 J0.125
G1 F10.0 Z-0.075
G2 F15.0 X0.3284 Y0.6624 I0.125 J0.6716
G3 X0.875 Y0.1158 I0.6716 J0.125
G0 Z0.125
G0 Y0.3207
G0 Z0.0625
G1 F10.0 Z-0.015
G2 F15.0 X0.5333 Y0.6624 I0.125 J0.4667
G3 X0.875 Y0.3207 I0.4667 J0.125
G1 F10.0 Z-0.03
G2 F15.0 X0.5333 Y0.6624 I0.125 J0.4667
G3 X0.875 Y0.3207 I0.4667 J0.125
G1 F10.0 Z-0.045
G2 F15.0 X0.5333 Y0.6624 I0.125 J0.4667
G3 X0.875 Y0.3207 I0.4667 J0.125
G1 F10.0 Z-0.06
G2 F15.0 X0.5333 Y0.6624 I0.125 J0.4667
G3 X0.875 Y0.3207 I0.4667 J0.125
G1 F10.0 Z-0.075
G2 F15.0 X0.5333 Y0.6624 I0.125 J0.4667
G3 X0.875 Y0.3207 I0.4667 J0.125
G0 Z0.125
G0 X0.5333 Y0.9124
G0 Z0.0625
G1 F10.0 Z-0.015
G2 F15.0 X0.875 Y1.2541 I0.4667 J-0.125
G3 X0.5333 Y0.9124 I0.125 J-0.4667
G1 F10.0 Z-0.03
G2 F15.0 X0.875 Y1.2541 I0.4667 J-0.125
G3 X0.5333 Y0.9124 I0.125 J-0.4667
G1 F10.0 Z-0.045
G2 F15.0 X0.875 Y1.2541 I0.4667 J-0.125
G3 X0.5333 Y0.9124 I0.125 J-0.4667
G1 F10.0 Z-0.06
G2 F15.0 X0.875 Y1.2541 I0.4667 J-0.125
G3 X0.5333 Y0.9124 I0.125 J-0.4667
G1 F10.0 Z-0.075
G2 F15.0 X0.875 Y1.2541 I0.4667 J-0.125
G3 X0.5333 Y0.9124 I0.125 J-0.4667
G0 Z0.125
G0 X0.3284
G0 Z0.0625
G1 F10.0 Z-0.015
G2 F15.0 X0.875 Y1.459 I0.6716 J-0.125
G3 X0.3284 Y0.9124 I0.125 J-0.6716
G1 F10.0 Z-0.03
G2 F15.0 X0.875 Y1.459 I0.6716 J-0.125
G3 X0.3284 Y0.9124 I0.125 J-0.6716
G1 F10.0 Z-0.045
G2 F15.0 X0.875 Y1.459 I0.6716 J-0.125
G3 X0.3284 Y0.9124 I0.125 J-0.6716
G1 F10.0 Z-0.06
G2 F15.0 X0.875 Y1.459 I0.6716 J-0.125
G3 X0.3284 Y0.9124 I0.125 J-0.6716
G1 F10.0 Z-0.075
G2 F15.0 X0.875 Y1.459 I0.6716 J-0.125
G3 X0.3284 Y0.9124 I0.125 J-0.6716
G0 Z0.125
G0 X0.875 Y1.6906
G0 Z0.0625
G1 F10.0 Z-0.015
G2 F15.0 X0.3284 Y2.2372 I0.125 J0.6716
G3 X0.875 Y1.6906 I0.6716 J0.125
G1 F10.0 Z-0.03
G2 F15.0 X0.3284 Y2.2372 I0.125 J0.6716
G3 X0.875 Y1.6906 I0.6716 J0.125
G1 F10.0 Z-0.045
G2 F15.0 X0.3284 Y2.2372 I0.125 J0.6716
G3 X0.875 Y1.6906 I0.6716 J0.125
G1 F10.0 Z-0.06
G2 F15.0 X0.3284 Y2.2372 I0.125 J0.6716
G3 X0.875 Y1.6906 I0.6716 J0.125
G1 F10.0 Z-0.075
G2 F15.0 X0.3284 Y2.2372 I0.125 J0.6716
G3 X0.875 Y1.6906 I0.6716 J0.125
G0 Z0.125
G0 Y1.8955
G0 Z0.0625
G1 F10.0 Z-0.015
G2 F15.0 X0.5333 Y2.2372 I0.125 J0.4667
G3 X0.875 Y1.8955 I0.4667 J0.125
G1 F10.0 Z-0.03
G2 F15.0 X0.5333 Y2.2372 I0.125 J0.4667
G3 X0.875 Y1.8955 I0.4667 J0.125
G1 F10.0 Z-0.045
G2 F15.0 X0.5333 Y2.2372 I0.125 J0.4667
G3 X0.875 Y1.8955 I0.4667 J0.125
G1 F10.0 Z-0.06
G2 F15.0 X0.5333 Y2.2372 I0.125 J0.4667
G3 X0.875 Y1.8955 I0.4667 J0.125
G1 F10.0 Z-0.075
G2 F15.0 X0.5333 Y2.2372 I0.125 J0.4667
G3 X0.875 Y1.8955 I0.4667 J0.125
G0 Z0.125
G0 X1.125
G0 Z0.0625
G1 F10.0 Z-0.015
G3 F15.0 X1.4667 Y2.2372 I-0.125 J0.4667
G2 X1.125 Y1.8955 I-0.4667 J0.125
G1 F10.0 Z-0.03
G3 F15.0 X1.4667 Y2.2372 I-0.125 J0.4667
G2 X1.125 Y1.8955 I-0.4667 J0.125
G1 F10.0 Z-0.045
G3 F15.0 X1.4667 Y2.2372 I-0.125 J0.4667
G2 X1.125 Y1.8955 I-0.4667 J0.125
G1 F10.0 Z-0.06
G3 F15.0 X1.4667 Y2.2372 I-0.125 J0.4667
G2 X1.125 Y1.8955 I-0.4667 J0.125
G1 F10.0 Z-0.075
G3 F15.0 X1.4667 Y2.2372 I-0.125 J0.4667
G2 X1.125 Y1.8955 I-0.4667 J0.125
G0 Z0.125
G0 Y1.6906
G0 Z0.0625
G1 F10.0 Z-0.015
G3 F15.0 X1.6716 Y2.2372 I-0.125 J0.6716
G2 X1.125 Y1.6906 I-0.6716 J0.125
G1 F10.0 Z-0.03
G3 F15.0 X1.6716 Y2.2372 I-0.125 J0.6716
G2 X1.125 Y1.6906 I-0.6716 J0.125
G1 F10.0 Z-0.045
G3 F15.0 X1.6716 Y2.2372 I-0.125 J0.6716
G2 X1.125 Y1.6906 I-0.6716 J0.125
G1 F10.0 Z-0.06
G3 F15.0 X1.6716 Y2.2372 I-0.125 J0.6716
G2 X1.125 Y1.6906 I-0.6716 J0.125
G1 F10.0 Z-0.075
G3 F15.0 X1.6716 Y2.2372 I-0.125 J0.6716
G2 X1.125 Y1.6906 I-0.6716 J0.125
G0 Z0.125
G0 X1.4667 Y2.4872
G0 Z0.0625
G1 F10.0 Z-0.015
G3 F15.0 X1.125 Y2.8289 I-0.4667 J-0.125
G2 X1.4667 Y2.4872 I-0.125 J-0.4667
G1 F10.0 Z-0.03
G3 F15.0 X1.125 Y2.8289 I-0.4667 J-0.125
G2 X1.4667 Y2.4872 I-0.125 J-0.4667
G1 F10.0 Z-0.045
G3 F15.0 X1.125 Y2.8289 I-0.4667 J-0.125
G2 X1.4667 Y2.4872 I-0.125 J-0.4667
G1 F10.0 Z-0.06
G3 F15.0 X1.125 Y2.8289 I-0.4667 J-0.125
G2 X1.4667 Y2.4872 I-0.125 J-0.4667
G1 F10.0 Z-0.075
G3 F15.0 X1.125 Y2.8289 I-0.4667 J-0.125
G2 X1.4667 Y2.4872 I-0.125 J-0.4667
G0 Z0.125
G0 X1.125 Y3.0338
G0 Z0.0625
G1 F10.0 Z-0.015
G2 F15.0 X1.3625 Y2.9413 I-0.125 J-0.6716
G2 X1.6716 Y2.4872 I-0.3625 J-0.5791
G3 X1.3625 Y2.9413 I-0.6716 J-0.125
G3 X1.125 Y3.0338 I-0.3625 J-0.5791
G1 F10.0 Z-0.03
G2 F15.0 X1.3625 Y2.9413 I-0.125 J-0.6716
G2 X1.6716 Y2.4872 I-0.3625 J-0.5791
G3 X1.3625 Y2.9413 I-0.6716 J-0.125
G3 X1.125 Y3.0338 I-0.3625 J-0.5791
G1 F10.0 Z-0.045
G2 F15.0 X1.3625 Y2.9413 I-0.125 J-0.6716
G2 X1.6716 Y2.4872 I-0.3625 J-0.5791
G3 X1.3625 Y2.9413 I-0.6716 J-0.125
G3 X1.125 Y3.0338 I-0.3625 J-0.5791
G1 F10.0 Z-0.06
G2 F15.0 X1.3625 Y2.9413 I-0.125 J-0.6716
G2 X1.6716 Y2.4872 I-0.3625 J-0.5791
G3 X1.3625 Y2.9413 I-0.6716 J-0.125
G3 X1.125 Y3.0338 I-0.3625 J-0.5791
G1 F10.0 Z-0.075
G2 F15.0 X1.3625 Y2.9413 I-0.125 J-0.6716
G2 X1.6716 Y2.4872 I-0.3625 J-0.5791
G3 X1.3625 Y2.9413 I-0.6716 J-0.125
G3 X1.125 Y3.0338 I-0.3625 J-0.5791
G0 Z0.125
G0 X0.875
G0 Z0.0625
G1 F10.0 Z-0.015
G3 F15.0 X0.3284 Y2.4872 I0.125 J-0.6716
G2 X0.875 Y3.0338 I0.6716 J-0.125
G1 F10.0 Z-0.03
G3 F15.0 X0.3284 Y2.4872 I0.125 J-0.6716
G2 X0.875 Y3.0338 I0.6716 J-0.125
G1 F10.0 Z-0.045
G3 F15.0 X0.3284 Y2.4872 I0.125 J-0.6716
G2 X0.875 Y3.0338 I0.6716 J-0.125
G1 F10.0 Z-0.06
G3 F15.0 X0.3284 Y2.4872 I0.125 J-0.6716
G2 X0.875 Y3.0338 I0.6716 J-0.125
G1 F10.0 Z-0.075
G3 F15.0 X0.3284 Y2.4872 I0.125 J-0.6716
G2 X0.875 Y3.0338 I0.6716 J-0.125
G0 Z0.125
G0 Y2.8289
G0 Z0.0625
G1 F10.0 Z-0.015
G3 F15.0 X0.5333 Y2.4872 I0.125 J-0.4667
G2 X0.875 Y2.8289 I0.4667 J-0.125
G1 F10.0 Z-0.03
G3 F15.0 X0.5333 Y2.4872 I0.125 J-0.4667
G2 X0.875 Y2.8289 I0.4667 J-0.125
G1 F10.0 Z-0.045
G3 F15.0 X0.5333 Y2.4872 I0.125 J-0.4667
G2 X0.875 Y2.8289 I0.4667 J-0.125
G1 F10.0 Z-0.06
G3 F15.0 X0.5333 Y2.4872 I0.125 J-0.4667
G2 X0.875 Y2.8289 I0.4667 J-0.125
G1 F10.0 Z-0.075
G3 F15.0 X0.5333 Y2.4872 I0.125 J-0.4667
G2 X0.875 Y2.8289 I0.4667 J-0.125
( Profile2 )
G0 Z0.125
G0 X0.25 Y3.2121
G0 Z0.0625
G1 F10.0 Z-0.015
G3 F15.0 X-0.0625 Y2.8996 I0.0 J-0.3125
G1 Y0.25
G3 X0.25 Y-0.0625 I0.3125 J0.0
G1 X1.75
G3 X2.0625 Y0.25 I0.0 J0.3125
G1 Y2.8996
G3 X1.75 Y3.2121 I-0.3125 J0.0
G1 X0.25
G1 F10.0 Z-0.03
G3 F15.0 X-0.0625 Y2.8996 I0.0 J-0.3125
G1 Y0.25
G3 X0.25 Y-0.0625 I0.3125 J0.0
G1 X1.75
G3 X2.0625 Y0.25 I0.0 J0.3125
G1 Y2.8996
G3 X1.75 Y3.2121 I-0.3125 J0.0
G1 X0.25
G1 F10.0 Z-0.045
G3 F15.0 X-0.0625 Y2.8996 I0.0 J-0.3125
G1 Y0.25
G3 X0.25 Y-0.0625 I0.3125 J0.0
G1 X1.75
G3 X2.0625 Y0.25 I0.0 J0.3125
G1 Y2.8996
G3 X1.75 Y3.2121 I-0.3125 J0.0
G1 X0.25
G1 F10.0 Z-0.06
G3 F15.0 X-0.0625 Y2.8996 I0.0 J-0.3125
G1 Y0.25
G3 X0.25 Y-0.0625 I0.3125 J0.0
G1 X1.75
G3 X2.0625 Y0.25 I0.0 J0.3125
G1 Y2.8996
G3 X1.75 Y3.2121 I-0.3125 J0.0
G1 X0.25
G1 F10.0 Z-0.075
G3 F15.0 X-0.0625 Y2.8996 I0.0 J-0.3125
G1 Y0.25
G3 X0.25 Y-0.0625 I0.3125 J0.0
G1 X1.75
G3 X2.0625 Y0.25 I0.0 J0.3125
G1 Y2.8996
G3 X1.75 Y3.2121 I-0.3125 J0.0
G1 X0.25
G0 Z0.125
M5
M30
