( Made using CamBam - http://www.cambam.info )
( motor_driver_rt_side 11/14/2015 1:39:05 AM )
( T1 : 0.0 )
G20 G90 G64 G40
G0 Z0.125
( T1 : 0.0 )
T1 M6
( Drill1 )
G17
M3
G0 X1.35 Y1.25
G98
G81 X1.35 Y1.25 Z-0.2 R0.0 F10.0
G81 X1.6 Z-0.2
G81 X1.85 Z-0.2
G81 Y1.5 Z-0.2
G81 X1.6 Z-0.2
G81 X1.35 Z-0.2
G81 Y1.75 Z-0.2
G81 X1.6 Z-0.2
G81 Y2.0 Z-0.2
G81 X1.35 Z-0.2
G81 X1.85 Z-0.2
G81 Y1.75 Z-0.2
G81 X2.1 Z-0.2
G81 Y2.0 Z-0.2
G81 X2.35 Z-0.2
G81 Y1.75 Z-0.2
G81 X2.6 Z-0.2
G81 Y1.5 Z-0.2
G81 X2.35 Z-0.2
G81 Y1.25 Z-0.2
G81 X2.6 Z-0.2
G81 X2.85 Z-0.2
G81 Y1.5 Z-0.2
G81 X3.1 Z-0.2
G81 Y1.25 Z-0.2
G81 X3.35 Z-0.2
G81 Y1.5 Z-0.2
G81 X3.6 Z-0.2
G81 Y1.25 Z-0.2
G81 X3.85 Z-0.2
G81 X4.1 Z-0.2
G81 Y1.5 Z-0.2
G81 X3.85 Z-0.2
G81 Y1.75 Z-0.2
G81 X4.1 Z-0.2
G81 Y2.0 Z-0.2
G81 X3.85 Z-0.2
G81 X3.6 Z-0.2
G81 Y1.75 Z-0.2
G81 X3.35 Z-0.2
G81 Y2.0 Z-0.2
G81 X3.1 Z-0.2
G81 Y1.75 Z-0.2
G81 X2.85 Z-0.2
G81 Y2.0 Z-0.2
G81 X2.6 Z-0.2
G81 X2.1 Y1.5 Z-0.2
G81 Y1.25 Z-0.2
G80
G0 Z0.125
M5
M30
