( Made using CamBam - http://www.cambam.info )
( motor_driver_lid 11/14/2015 1:36:21 AM )
( T1 : 0.125 )
G20 G90 G64 G40
G0 Z0.125
( T1 : 0.125 )
T1 M6
( Profile1 )
G17
M3
G0 X3.8443 Y2.0318
G0 Z0.0625
G1 F10.0 Z-0.05
G2 F15.0 X1.6404 Y0.7593 I-1.4693 J0.0
G2 Y3.3042 I0.7346 J1.2724
G2 X3.8443 Y2.0318 I0.7346 J-1.2724
G1 F10.0 Z-0.1
G2 F15.0 X1.6404 Y0.7593 I-1.4693 J0.0
G2 Y3.3042 I0.7346 J1.2724
G2 X3.8443 Y2.0318 I0.7346 J-1.2724
G1 F10.0 Z-0.15
G2 F15.0 X1.6404 Y0.7593 I-1.4693 J0.0
G2 Y3.3042 I0.7346 J1.2724
G2 X3.8443 Y2.0318 I0.7346 J-1.2724
G0 Z0.125
G0 X3.7929 Y0.6307
G0 Z0.0625
G1 F10.0 Z-0.05
G2 F15.0 X3.8086 Y0.6145 I-0.0006 J-0.0162
G2 X3.7842 Y0.6004 I-0.0162 J0.0
G2 Y0.6285 I0.0081 J0.0141
G2 X3.7929 Y0.6307 I0.0081 J-0.0141
G1 F10.0 Z-0.1
G2 F15.0 X3.8086 Y0.6145 I-0.0006 J-0.0162
G2 X3.7842 Y0.6004 I-0.0162 J0.0
G2 Y0.6285 I0.0081 J0.0141
G2 X3.7929 Y0.6307 I0.0081 J-0.0141
G1 F10.0 Z-0.15
G2 F15.0 X3.8086 Y0.6145 I-0.0006 J-0.0162
G2 X3.7842 Y0.6004 I-0.0162 J0.0
G2 Y0.6285 I0.0081 J0.0141
G2 X3.7929 Y0.6307 I0.0081 J-0.0141
G0 Z0.125
G0 X3.7923 Y3.4329
G0 Z0.0625
G1 F10.0 Z-0.05
G2 F15.0 X3.7842 Y3.435 I0.0 J0.0162
G2 Y3.4632 I0.0081 J0.0141
G2 X3.8086 Y3.4491 I0.0081 J-0.0141
G2 X3.7923 Y3.4329 I-0.0162 J0.0
G1 F10.0 Z-0.1
G2 F15.0 X3.7842 Y3.435 I0.0 J0.0162
G2 Y3.4632 I0.0081 J0.0141
G2 X3.8086 Y3.4491 I0.0081 J-0.0141
G2 X3.7923 Y3.4329 I-0.0162 J0.0
G1 F10.0 Z-0.15
G2 F15.0 X3.7842 Y3.435 I0.0 J0.0162
G2 Y3.4632 I0.0081 J0.0141
G2 X3.8086 Y3.4491 I0.0081 J-0.0141
G2 X3.7923 Y3.4329 I-0.0162 J0.0
G0 Z0.125
G0 X0.9739 Y3.449
G0 Z0.0625
G1 F10.0 Z-0.05
G2 F15.0 X0.9496 Y3.435 I-0.0162 J0.0001
G2 Y3.4632 I0.0081 J0.0141
G2 X0.9739 Y3.4491 I0.0081 J-0.0141
G1 Y3.449
G1 F10.0 Z-0.1
G2 F15.0 X0.9496 Y3.435 I-0.0162 J0.0001
G2 Y3.4632 I0.0081 J0.0141
G2 X0.9739 Y3.4491 I0.0081 J-0.0141
G1 Y3.449
G1 F10.0 Z-0.15
G2 F15.0 X0.9496 Y3.435 I-0.0162 J0.0001
G2 Y3.4632 I0.0081 J0.0141
G2 X0.9739 Y3.4491 I0.0081 J-0.0141
G1 Y3.449
G0 Z0.125
G0 X0.9578 Y0.6307
G0 Z0.0625
G1 F10.0 Z-0.05
G2 F15.0 X0.9739 Y0.6145 I-0.0001 J-0.0162
G2 X0.9496 Y0.6004 I-0.0162 J0.0
G2 Y0.6285 I0.0081 J0.0141
G2 X0.9578 Y0.6307 I0.0081 J-0.0141
G1 F10.0 Z-0.1
G2 F15.0 X0.9739 Y0.6145 I-0.0001 J-0.0162
G2 X0.9496 Y0.6004 I-0.0162 J0.0
G2 Y0.6285 I0.0081 J0.0141
G2 X0.9578 Y0.6307 I0.0081 J-0.0141
G1 F10.0 Z-0.15
G2 F15.0 X0.9739 Y0.6145 I-0.0001 J-0.0162
G2 X0.9496 Y0.6004 I-0.0162 J0.0
G2 Y0.6285 I0.0081 J0.0141
G2 X0.9578 Y0.6307 I0.0081 J-0.0141
G0 Z0.125
M5
M30
