( Made using CamBam - http://www.cambam.info )
( end_stop 4/22/2016 9:14:58 PM )
( T1 : 0.0 )
G20 G90 G64 G40
G0 Z0.125
( T1 : 0.0 )
T1 M6
( Drill1 )
G17
M3
G0 X0.4375 Y-0.6875
G98
G81 X0.4375 Y-0.6875 Z-0.26 R0.0 F10.0
G81 X0.8125 Z-0.26
G80
( Engrave1 )
G0 Z0.125
G0 X1.0625 Y-1.1875
G0 Z0.0625
G1 F10.0 Z-0.015
G1 F15.0 X-0.0625
G1 F10.0 Z-0.03
G1 F15.0 X1.0625
G1 F10.0 Z-0.045
G1 F15.0 X-0.0625
G1 F10.0 Z-0.06
G1 F15.0 X1.0625
G1 F10.0 Z-0.075
G1 F15.0 X-0.0625
G1 F10.0 Z-0.09
G1 F15.0 X1.0625
G1 F10.0 Z-0.105
G1 F15.0 X-0.0625
G1 F10.0 Z-0.12
G1 F15.0 X1.0625
G1 F10.0 Z-0.135
G1 F15.0 X-0.0625
G1 F10.0 Z-0.15
G1 F15.0 X1.0625
G1 F10.0 Z-0.165
G1 F15.0 X-0.0625
G1 F10.0 Z-0.18
G1 F15.0 X1.0625
G1 F10.0 Z-0.195
G1 F15.0 X-0.0625
G1 F10.0 Z-0.21
G1 F15.0 X1.0625
G1 F10.0 Z-0.225
G1 F15.0 X-0.0625
G1 F10.0 Z-0.24
G1 F15.0 X1.0625
G1 F10.0 Z-0.255
G1 F15.0 X-0.0625
G1 F10.0 Z-0.26
G1 F15.0 X1.0625
G0 Z0.125
M5
M30
