( Made using CamBam - http://www.cambam.info )
( jaw 4/22/2016 9:06:45 PM )
( T1 : 0.125 )
G20 G90 G64 G40
G0 Z0.125
( T1 : 0.125 )
T1 M6
( cutouts )
G17
M3
G0 X0.5 Y-0.5
G0 Z0.0625
G1 F10.0 Z-0.015
G2 F15.0 X0.4062 Y-0.5541 I-0.0625 J0.0
G2 Y-0.4459 I0.0313 J0.0541
G2 X0.5 Y-0.5 I0.0313 J-0.0541
G1 F10.0 Z-0.03
G2 F15.0 X0.4062 Y-0.5541 I-0.0625 J0.0
G2 Y-0.4459 I0.0313 J0.0541
G2 X0.5 Y-0.5 I0.0313 J-0.0541
G1 F10.0 Z-0.045
G2 F15.0 X0.4062 Y-0.5541 I-0.0625 J0.0
G2 Y-0.4459 I0.0313 J0.0541
G2 X0.5 Y-0.5 I0.0313 J-0.0541
G1 F10.0 Z-0.06
G2 F15.0 X0.4062 Y-0.5541 I-0.0625 J0.0
G2 Y-0.4459 I0.0313 J0.0541
G2 X0.5 Y-0.5 I0.0313 J-0.0541
G1 F10.0 Z-0.075
G2 F15.0 X0.4062 Y-0.5541 I-0.0625 J0.0
G2 Y-0.4459 I0.0313 J0.0541
G2 X0.5 Y-0.5 I0.0313 J-0.0541
G1 F10.0 Z-0.09
G2 F15.0 X0.4062 Y-0.5541 I-0.0625 J0.0
G2 Y-0.4459 I0.0313 J0.0541
G2 X0.5 Y-0.5 I0.0313 J-0.0541
G1 F10.0 Z-0.105
G2 F15.0 X0.4062 Y-0.5541 I-0.0625 J0.0
G2 Y-0.4459 I0.0313 J0.0541
G2 X0.5 Y-0.5 I0.0313 J-0.0541
G1 F10.0 Z-0.12
G2 F15.0 X0.4062 Y-0.5541 I-0.0625 J0.0
G2 Y-0.4459 I0.0313 J0.0541
G2 X0.5 Y-0.5 I0.0313 J-0.0541
G1 F10.0 Z-0.135
G2 F15.0 X0.4062 Y-0.5541 I-0.0625 J0.0
G2 Y-0.4459 I0.0313 J0.0541
G2 X0.5 Y-0.5 I0.0313 J-0.0541
G1 F10.0 Z-0.15
G2 F15.0 X0.4062 Y-0.5541 I-0.0625 J0.0
G2 Y-0.4459 I0.0313 J0.0541
G2 X0.5 Y-0.5 I0.0313 J-0.0541
G1 F10.0 Z-0.165
G2 F15.0 X0.4062 Y-0.5541 I-0.0625 J0.0
G2 Y-0.4459 I0.0313 J0.0541
G2 X0.5 Y-0.5 I0.0313 J-0.0541
G1 F10.0 Z-0.18
G2 F15.0 X0.4062 Y-0.5541 I-0.0625 J0.0
G2 Y-0.4459 I0.0313 J0.0541
G2 X0.5 Y-0.5 I0.0313 J-0.0541
G1 F10.0 Z-0.195
G2 F15.0 X0.4062 Y-0.5541 I-0.0625 J0.0
G2 Y-0.4459 I0.0313 J0.0541
G2 X0.5 Y-0.5 I0.0313 J-0.0541
G1 F10.0 Z-0.21
G2 F15.0 X0.4062 Y-0.5541 I-0.0625 J0.0
G2 Y-0.4459 I0.0313 J0.0541
G2 X0.5 Y-0.5 I0.0313 J-0.0541
G1 F10.0 Z-0.225
G2 F15.0 X0.4062 Y-0.5541 I-0.0625 J0.0
G2 Y-0.4459 I0.0313 J0.0541
G2 X0.5 Y-0.5 I0.0313 J-0.0541
G1 F10.0 Z-0.24
G2 F15.0 X0.4062 Y-0.5541 I-0.0625 J0.0
G2 Y-0.4459 I0.0313 J0.0541
G2 X0.5 Y-0.5 I0.0313 J-0.0541
G1 F10.0 Z-0.255
G2 F15.0 X0.4062 Y-0.5541 I-0.0625 J0.0
G2 Y-0.4459 I0.0313 J0.0541
G2 X0.5 Y-0.5 I0.0313 J-0.0541
G1 F10.0 Z-0.26
G2 F15.0 X0.4062 Y-0.5541 I-0.0625 J0.0
G2 Y-0.4459 I0.0313 J0.0541
G2 X0.5 Y-0.5 I0.0313 J-0.0541
G0 Z0.125
G0 X0.4407 Y-1.1926
G0 Z0.0625
G1 F10.0 Z-0.015
G2 F15.0 X0.475 Y-1.23 I-0.0032 J-0.0374
G2 X0.4187 Y-1.2625 I-0.0375 J0.0
G2 Y-1.1975 I0.0188 J0.0325
G2 X0.4407 Y-1.1926 I0.0188 J-0.0325
G1 F10.0 Z-0.03
G2 F15.0 X0.475 Y-1.23 I-0.0032 J-0.0374
G2 X0.4187 Y-1.2625 I-0.0375 J0.0
G2 Y-1.1975 I0.0188 J0.0325
G2 X0.4407 Y-1.1926 I0.0188 J-0.0325
G1 F10.0 Z-0.045
G2 F15.0 X0.475 Y-1.23 I-0.0032 J-0.0374
G2 X0.4187 Y-1.2625 I-0.0375 J0.0
G2 Y-1.1975 I0.0188 J0.0325
G2 X0.4407 Y-1.1926 I0.0188 J-0.0325
G1 F10.0 Z-0.06
G2 F15.0 X0.475 Y-1.23 I-0.0032 J-0.0374
G2 X0.4187 Y-1.2625 I-0.0375 J0.0
G2 Y-1.1975 I0.0188 J0.0325
G2 X0.4407 Y-1.1926 I0.0188 J-0.0325
G1 F10.0 Z-0.075
G2 F15.0 X0.475 Y-1.23 I-0.0032 J-0.0374
G2 X0.4187 Y-1.2625 I-0.0375 J0.0
G2 Y-1.1975 I0.0188 J0.0325
G2 X0.4407 Y-1.1926 I0.0188 J-0.0325
G1 F10.0 Z-0.09
G2 F15.0 X0.475 Y-1.23 I-0.0032 J-0.0374
G2 X0.4187 Y-1.2625 I-0.0375 J0.0
G2 Y-1.1975 I0.0188 J0.0325
G2 X0.4407 Y-1.1926 I0.0188 J-0.0325
G1 F10.0 Z-0.105
G2 F15.0 X0.475 Y-1.23 I-0.0032 J-0.0374
G2 X0.4187 Y-1.2625 I-0.0375 J0.0
G2 Y-1.1975 I0.0188 J0.0325
G2 X0.4407 Y-1.1926 I0.0188 J-0.0325
G1 F10.0 Z-0.12
G2 F15.0 X0.475 Y-1.23 I-0.0032 J-0.0374
G2 X0.4187 Y-1.2625 I-0.0375 J0.0
G2 Y-1.1975 I0.0188 J0.0325
G2 X0.4407 Y-1.1926 I0.0188 J-0.0325
G1 F10.0 Z-0.135
G2 F15.0 X0.475 Y-1.23 I-0.0032 J-0.0374
G2 X0.4187 Y-1.2625 I-0.0375 J0.0
G2 Y-1.1975 I0.0188 J0.0325
G2 X0.4407 Y-1.1926 I0.0188 J-0.0325
G1 F10.0 Z-0.15
G2 F15.0 X0.475 Y-1.23 I-0.0032 J-0.0374
G2 X0.4187 Y-1.2625 I-0.0375 J0.0
G2 Y-1.1975 I0.0188 J0.0325
G2 X0.4407 Y-1.1926 I0.0188 J-0.0325
G1 F10.0 Z-0.165
G2 F15.0 X0.475 Y-1.23 I-0.0032 J-0.0374
G2 X0.4187 Y-1.2625 I-0.0375 J0.0
G2 Y-1.1975 I0.0188 J0.0325
G2 X0.4407 Y-1.1926 I0.0188 J-0.0325
G1 F10.0 Z-0.18
G2 F15.0 X0.475 Y-1.23 I-0.0032 J-0.0374
G2 X0.4187 Y-1.2625 I-0.0375 J0.0
G2 Y-1.1975 I0.0188 J0.0325
G2 X0.4407 Y-1.1926 I0.0188 J-0.0325
G1 F10.0 Z-0.195
G2 F15.0 X0.475 Y-1.23 I-0.0032 J-0.0374
G2 X0.4187 Y-1.2625 I-0.0375 J0.0
G2 Y-1.1975 I0.0188 J0.0325
G2 X0.4407 Y-1.1926 I0.0188 J-0.0325
G1 F10.0 Z-0.21
G2 F15.0 X0.475 Y-1.23 I-0.0032 J-0.0374
G2 X0.4187 Y-1.2625 I-0.0375 J0.0
G2 Y-1.1975 I0.0188 J0.0325
G2 X0.4407 Y-1.1926 I0.0188 J-0.0325
G1 F10.0 Z-0.225
G2 F15.0 X0.475 Y-1.23 I-0.0032 J-0.0374
G2 X0.4187 Y-1.2625 I-0.0375 J0.0
G2 Y-1.1975 I0.0188 J0.0325
G2 X0.4407 Y-1.1926 I0.0188 J-0.0325
G1 F10.0 Z-0.24
G2 F15.0 X0.475 Y-1.23 I-0.0032 J-0.0374
G2 X0.4187 Y-1.2625 I-0.0375 J0.0
G2 Y-1.1975 I0.0188 J0.0325
G2 X0.4407 Y-1.1926 I0.0188 J-0.0325
G1 F10.0 Z-0.255
G2 F15.0 X0.475 Y-1.23 I-0.0032 J-0.0374
G2 X0.4187 Y-1.2625 I-0.0375 J0.0
G2 Y-1.1975 I0.0188 J0.0325
G2 X0.4407 Y-1.1926 I0.0188 J-0.0325
G1 F10.0 Z-0.26
G2 F15.0 X0.475 Y-1.23 I-0.0032 J-0.0374
G2 X0.4187 Y-1.2625 I-0.0375 J0.0
G2 Y-1.1975 I0.0188 J0.0325
G2 X0.4407 Y-1.1926 I0.0188 J-0.0325
G0 Z0.125
G0 X0.4924 Y-1.613
G0 Z0.0625
G1 F10.0 Z-0.015
G2 F15.0 X0.5625 Y-1.675 I0.0076 J-0.062
G2 X0.4687 Y-1.7291 I-0.0625 J0.0
G2 Y-1.6209 I0.0312 J0.0541
G2 X0.4924 Y-1.613 I0.0313 J-0.0541
G1 F10.0 Z-0.03
G2 F15.0 X0.5625 Y-1.675 I0.0076 J-0.062
G2 X0.4687 Y-1.7291 I-0.0625 J0.0
G2 Y-1.6209 I0.0312 J0.0541
G2 X0.4924 Y-1.613 I0.0313 J-0.0541
G1 F10.0 Z-0.045
G2 F15.0 X0.5625 Y-1.675 I0.0076 J-0.062
G2 X0.4687 Y-1.7291 I-0.0625 J0.0
G2 Y-1.6209 I0.0312 J0.0541
G2 X0.4924 Y-1.613 I0.0313 J-0.0541
G1 F10.0 Z-0.06
G2 F15.0 X0.5625 Y-1.675 I0.0076 J-0.062
G2 X0.4687 Y-1.7291 I-0.0625 J0.0
G2 Y-1.6209 I0.0312 J0.0541
G2 X0.4924 Y-1.613 I0.0313 J-0.0541
G1 F10.0 Z-0.075
G2 F15.0 X0.5625 Y-1.675 I0.0076 J-0.062
G2 X0.4687 Y-1.7291 I-0.0625 J0.0
G2 Y-1.6209 I0.0312 J0.0541
G2 X0.4924 Y-1.613 I0.0313 J-0.0541
G1 F10.0 Z-0.09
G2 F15.0 X0.5625 Y-1.675 I0.0076 J-0.062
G2 X0.4687 Y-1.7291 I-0.0625 J0.0
G2 Y-1.6209 I0.0312 J0.0541
G2 X0.4924 Y-1.613 I0.0313 J-0.0541
G1 F10.0 Z-0.105
G2 F15.0 X0.5625 Y-1.675 I0.0076 J-0.062
G2 X0.4687 Y-1.7291 I-0.0625 J0.0
G2 Y-1.6209 I0.0312 J0.0541
G2 X0.4924 Y-1.613 I0.0313 J-0.0541
G1 F10.0 Z-0.12
G2 F15.0 X0.5625 Y-1.675 I0.0076 J-0.062
G2 X0.4687 Y-1.7291 I-0.0625 J0.0
G2 Y-1.6209 I0.0312 J0.0541
G2 X0.4924 Y-1.613 I0.0313 J-0.0541
G1 F10.0 Z-0.135
G2 F15.0 X0.5625 Y-1.675 I0.0076 J-0.062
G2 X0.4687 Y-1.7291 I-0.0625 J0.0
G2 Y-1.6209 I0.0312 J0.0541
G2 X0.4924 Y-1.613 I0.0313 J-0.0541
G1 F10.0 Z-0.15
G2 F15.0 X0.5625 Y-1.675 I0.0076 J-0.062
G2 X0.4687 Y-1.7291 I-0.0625 J0.0
G2 Y-1.6209 I0.0312 J0.0541
G2 X0.4924 Y-1.613 I0.0313 J-0.0541
G1 F10.0 Z-0.165
G2 F15.0 X0.5625 Y-1.675 I0.0076 J-0.062
G2 X0.4687 Y-1.7291 I-0.0625 J0.0
G2 Y-1.6209 I0.0312 J0.0541
G2 X0.4924 Y-1.613 I0.0313 J-0.0541
G1 F10.0 Z-0.18
G2 F15.0 X0.5625 Y-1.675 I0.0076 J-0.062
G2 X0.4687 Y-1.7291 I-0.0625 J0.0
G2 Y-1.6209 I0.0312 J0.0541
G2 X0.4924 Y-1.613 I0.0313 J-0.0541
G1 F10.0 Z-0.195
G2 F15.0 X0.5625 Y-1.675 I0.0076 J-0.062
G2 X0.4687 Y-1.7291 I-0.0625 J0.0
G2 Y-1.6209 I0.0312 J0.0541
G2 X0.4924 Y-1.613 I0.0313 J-0.0541
G1 F10.0 Z-0.21
G2 F15.0 X0.5625 Y-1.675 I0.0076 J-0.062
G2 X0.4687 Y-1.7291 I-0.0625 J0.0
G2 Y-1.6209 I0.0312 J0.0541
G2 X0.4924 Y-1.613 I0.0313 J-0.0541
G1 F10.0 Z-0.225
G2 F15.0 X0.5625 Y-1.675 I0.0076 J-0.062
G2 X0.4687 Y-1.7291 I-0.0625 J0.0
G2 Y-1.6209 I0.0312 J0.0541
G2 X0.4924 Y-1.613 I0.0313 J-0.0541
G1 F10.0 Z-0.24
G2 F15.0 X0.5625 Y-1.675 I0.0076 J-0.062
G2 X0.4687 Y-1.7291 I-0.0625 J0.0
G2 Y-1.6209 I0.0312 J0.0541
G2 X0.4924 Y-1.613 I0.0313 J-0.0541
G1 F10.0 Z-0.255
G2 F15.0 X0.5625 Y-1.675 I0.0076 J-0.062
G2 X0.4687 Y-1.7291 I-0.0625 J0.0
G2 Y-1.6209 I0.0312 J0.0541
G2 X0.4924 Y-1.613 I0.0313 J-0.0541
G1 F10.0 Z-0.26
G2 F15.0 X0.5625 Y-1.675 I0.0076 J-0.062
G2 X0.4687 Y-1.7291 I-0.0625 J0.0
G2 Y-1.6209 I0.0312 J0.0541
G2 X0.4924 Y-1.613 I0.0313 J-0.0541
G0 Z0.125
G0 X0.4415 Y-2.0827
G0 Z0.0625
G1 F10.0 Z-0.015
G2 F15.0 X0.475 Y-2.12 I-0.004 J-0.0373
G2 X0.4187 Y-2.1525 I-0.0375 J0.0
G2 Y-2.0875 I0.0187 J0.0325
G2 X0.4415 Y-2.0827 I0.0188 J-0.0325
G1 F10.0 Z-0.03
G2 F15.0 X0.475 Y-2.12 I-0.004 J-0.0373
G2 X0.4187 Y-2.1525 I-0.0375 J0.0
G2 Y-2.0875 I0.0187 J0.0325
G2 X0.4415 Y-2.0827 I0.0188 J-0.0325
G1 F10.0 Z-0.045
G2 F15.0 X0.475 Y-2.12 I-0.004 J-0.0373
G2 X0.4187 Y-2.1525 I-0.0375 J0.0
G2 Y-2.0875 I0.0187 J0.0325
G2 X0.4415 Y-2.0827 I0.0188 J-0.0325
G1 F10.0 Z-0.06
G2 F15.0 X0.475 Y-2.12 I-0.004 J-0.0373
G2 X0.4187 Y-2.1525 I-0.0375 J0.0
G2 Y-2.0875 I0.0187 J0.0325
G2 X0.4415 Y-2.0827 I0.0188 J-0.0325
G1 F10.0 Z-0.075
G2 F15.0 X0.475 Y-2.12 I-0.004 J-0.0373
G2 X0.4187 Y-2.1525 I-0.0375 J0.0
G2 Y-2.0875 I0.0187 J0.0325
G2 X0.4415 Y-2.0827 I0.0188 J-0.0325
G1 F10.0 Z-0.09
G2 F15.0 X0.475 Y-2.12 I-0.004 J-0.0373
G2 X0.4187 Y-2.1525 I-0.0375 J0.0
G2 Y-2.0875 I0.0187 J0.0325
G2 X0.4415 Y-2.0827 I0.0188 J-0.0325
G1 F10.0 Z-0.105
G2 F15.0 X0.475 Y-2.12 I-0.004 J-0.0373
G2 X0.4187 Y-2.1525 I-0.0375 J0.0
G2 Y-2.0875 I0.0187 J0.0325
G2 X0.4415 Y-2.0827 I0.0188 J-0.0325
G1 F10.0 Z-0.12
G2 F15.0 X0.475 Y-2.12 I-0.004 J-0.0373
G2 X0.4187 Y-2.1525 I-0.0375 J0.0
G2 Y-2.0875 I0.0187 J0.0325
G2 X0.4415 Y-2.0827 I0.0188 J-0.0325
G1 F10.0 Z-0.135
G2 F15.0 X0.475 Y-2.12 I-0.004 J-0.0373
G2 X0.4187 Y-2.1525 I-0.0375 J0.0
G2 Y-2.0875 I0.0187 J0.0325
G2 X0.4415 Y-2.0827 I0.0188 J-0.0325
G1 F10.0 Z-0.15
G2 F15.0 X0.475 Y-2.12 I-0.004 J-0.0373
G2 X0.4187 Y-2.1525 I-0.0375 J0.0
G2 Y-2.0875 I0.0187 J0.0325
G2 X0.4415 Y-2.0827 I0.0188 J-0.0325
G1 F10.0 Z-0.165
G2 F15.0 X0.475 Y-2.12 I-0.004 J-0.0373
G2 X0.4187 Y-2.1525 I-0.0375 J0.0
G2 Y-2.0875 I0.0187 J0.0325
G2 X0.4415 Y-2.0827 I0.0188 J-0.0325
G1 F10.0 Z-0.18
G2 F15.0 X0.475 Y-2.12 I-0.004 J-0.0373
G2 X0.4187 Y-2.1525 I-0.0375 J0.0
G2 Y-2.0875 I0.0187 J0.0325
G2 X0.4415 Y-2.0827 I0.0188 J-0.0325
G1 F10.0 Z-0.195
G2 F15.0 X0.475 Y-2.12 I-0.004 J-0.0373
G2 X0.4187 Y-2.1525 I-0.0375 J0.0
G2 Y-2.0875 I0.0187 J0.0325
G2 X0.4415 Y-2.0827 I0.0188 J-0.0325
G1 F10.0 Z-0.21
G2 F15.0 X0.475 Y-2.12 I-0.004 J-0.0373
G2 X0.4187 Y-2.1525 I-0.0375 J0.0
G2 Y-2.0875 I0.0187 J0.0325
G2 X0.4415 Y-2.0827 I0.0188 J-0.0325
G1 F10.0 Z-0.225
G2 F15.0 X0.475 Y-2.12 I-0.004 J-0.0373
G2 X0.4187 Y-2.1525 I-0.0375 J0.0
G2 Y-2.0875 I0.0187 J0.0325
G2 X0.4415 Y-2.0827 I0.0188 J-0.0325
G1 F10.0 Z-0.24
G2 F15.0 X0.475 Y-2.12 I-0.004 J-0.0373
G2 X0.4187 Y-2.1525 I-0.0375 J0.0
G2 Y-2.0875 I0.0187 J0.0325
G2 X0.4415 Y-2.0827 I0.0188 J-0.0325
G1 F10.0 Z-0.255
G2 F15.0 X0.475 Y-2.12 I-0.004 J-0.0373
G2 X0.4187 Y-2.1525 I-0.0375 J0.0
G2 Y-2.0875 I0.0187 J0.0325
G2 X0.4415 Y-2.0827 I0.0188 J-0.0325
G1 F10.0 Z-0.26
G2 F15.0 X0.475 Y-2.12 I-0.004 J-0.0373
G2 X0.4187 Y-2.1525 I-0.0375 J0.0
G2 Y-2.0875 I0.0187 J0.0325
G2 X0.4415 Y-2.0827 I0.0188 J-0.0325
G0 Z0.125
G0 X0.4378 Y-2.7875
G0 Z0.0625
G1 F10.0 Z-0.015
G2 F15.0 X0.5 Y-2.85 I-0.0003 J-0.0625
G2 X0.4062 Y-2.9041 I-0.0625 J0.0
G2 Y-2.7959 I0.0313 J0.0541
G2 X0.4378 Y-2.7875 I0.0313 J-0.0541
G1 F10.0 Z-0.03
G2 F15.0 X0.5 Y-2.85 I-0.0003 J-0.0625
G2 X0.4062 Y-2.9041 I-0.0625 J0.0
G2 Y-2.7959 I0.0313 J0.0541
G2 X0.4378 Y-2.7875 I0.0313 J-0.0541
G1 F10.0 Z-0.045
G2 F15.0 X0.5 Y-2.85 I-0.0003 J-0.0625
G2 X0.4062 Y-2.9041 I-0.0625 J0.0
G2 Y-2.7959 I0.0313 J0.0541
G2 X0.4378 Y-2.7875 I0.0313 J-0.0541
G1 F10.0 Z-0.06
G2 F15.0 X0.5 Y-2.85 I-0.0003 J-0.0625
G2 X0.4062 Y-2.9041 I-0.0625 J0.0
G2 Y-2.7959 I0.0313 J0.0541
G2 X0.4378 Y-2.7875 I0.0313 J-0.0541
G1 F10.0 Z-0.075
G2 F15.0 X0.5 Y-2.85 I-0.0003 J-0.0625
G2 X0.4062 Y-2.9041 I-0.0625 J0.0
G2 Y-2.7959 I0.0313 J0.0541
G2 X0.4378 Y-2.7875 I0.0313 J-0.0541
G1 F10.0 Z-0.09
G2 F15.0 X0.5 Y-2.85 I-0.0003 J-0.0625
G2 X0.4062 Y-2.9041 I-0.0625 J0.0
G2 Y-2.7959 I0.0313 J0.0541
G2 X0.4378 Y-2.7875 I0.0313 J-0.0541
G1 F10.0 Z-0.105
G2 F15.0 X0.5 Y-2.85 I-0.0003 J-0.0625
G2 X0.4062 Y-2.9041 I-0.0625 J0.0
G2 Y-2.7959 I0.0313 J0.0541
G2 X0.4378 Y-2.7875 I0.0313 J-0.0541
G1 F10.0 Z-0.12
G2 F15.0 X0.5 Y-2.85 I-0.0003 J-0.0625
G2 X0.4062 Y-2.9041 I-0.0625 J0.0
G2 Y-2.7959 I0.0313 J0.0541
G2 X0.4378 Y-2.7875 I0.0313 J-0.0541
G1 F10.0 Z-0.135
G2 F15.0 X0.5 Y-2.85 I-0.0003 J-0.0625
G2 X0.4062 Y-2.9041 I-0.0625 J0.0
G2 Y-2.7959 I0.0313 J0.0541
G2 X0.4378 Y-2.7875 I0.0313 J-0.0541
G1 F10.0 Z-0.15
G2 F15.0 X0.5 Y-2.85 I-0.0003 J-0.0625
G2 X0.4062 Y-2.9041 I-0.0625 J0.0
G2 Y-2.7959 I0.0313 J0.0541
G2 X0.4378 Y-2.7875 I0.0313 J-0.0541
G1 F10.0 Z-0.165
G2 F15.0 X0.5 Y-2.85 I-0.0003 J-0.0625
G2 X0.4062 Y-2.9041 I-0.0625 J0.0
G2 Y-2.7959 I0.0313 J0.0541
G2 X0.4378 Y-2.7875 I0.0313 J-0.0541
G1 F10.0 Z-0.18
G2 F15.0 X0.5 Y-2.85 I-0.0003 J-0.0625
G2 X0.4062 Y-2.9041 I-0.0625 J0.0
G2 Y-2.7959 I0.0313 J0.0541
G2 X0.4378 Y-2.7875 I0.0313 J-0.0541
G1 F10.0 Z-0.195
G2 F15.0 X0.5 Y-2.85 I-0.0003 J-0.0625
G2 X0.4062 Y-2.9041 I-0.0625 J0.0
G2 Y-2.7959 I0.0313 J0.0541
G2 X0.4378 Y-2.7875 I0.0313 J-0.0541
G1 F10.0 Z-0.21
G2 F15.0 X0.5 Y-2.85 I-0.0003 J-0.0625
G2 X0.4062 Y-2.9041 I-0.0625 J0.0
G2 Y-2.7959 I0.0313 J0.0541
G2 X0.4378 Y-2.7875 I0.0313 J-0.0541
G1 F10.0 Z-0.225
G2 F15.0 X0.5 Y-2.85 I-0.0003 J-0.0625
G2 X0.4062 Y-2.9041 I-0.0625 J0.0
G2 Y-2.7959 I0.0313 J0.0541
G2 X0.4378 Y-2.7875 I0.0313 J-0.0541
G1 F10.0 Z-0.24
G2 F15.0 X0.5 Y-2.85 I-0.0003 J-0.0625
G2 X0.4062 Y-2.9041 I-0.0625 J0.0
G2 Y-2.7959 I0.0313 J0.0541
G2 X0.4378 Y-2.7875 I0.0313 J-0.0541
G1 F10.0 Z-0.255
G2 F15.0 X0.5 Y-2.85 I-0.0003 J-0.0625
G2 X0.4062 Y-2.9041 I-0.0625 J0.0
G2 Y-2.7959 I0.0313 J0.0541
G2 X0.4378 Y-2.7875 I0.0313 J-0.0541
G1 F10.0 Z-0.26
G2 F15.0 X0.5 Y-2.85 I-0.0003 J-0.0625
G2 X0.4062 Y-2.9041 I-0.0625 J0.0
G2 Y-2.7959 I0.0313 J0.0541
G2 X0.4378 Y-2.7875 I0.0313 J-0.0541
( rough_pocket )
G0 Z0.125
G0 X0.8625 Y-3.2375
G0 Z0.0625
G1 F10.0 Z-0.015
G1 F15.0 Y-0.1125
G1 X0.8875
G1 Y-3.2375
G1 X0.8625
G1 F10.0 X0.8125
G1 F15.0 Y-0.0625
G1 X0.9375
G1 Y-3.2875
G1 X0.8125
G1 Y-3.2375
G1 F10.0 X0.8625
G1 Z-0.03
G1 F15.0 Y-0.1125
G1 X0.8875
G1 Y-3.2375
G1 X0.8625
G1 F10.0 X0.8125
G1 F15.0 Y-0.0625
G1 X0.9375
G1 Y-3.2875
G1 X0.8125
G1 Y-3.2375
G1 F10.0 X0.8625
G1 Z-0.045
G1 F15.0 Y-0.1125
G1 X0.8875
G1 Y-3.2375
G1 X0.8625
G1 F10.0 X0.8125
G1 F15.0 Y-0.0625
G1 X0.9375
G1 Y-3.2875
G1 X0.8125
G1 Y-3.2375
G1 F10.0 X0.8625
G1 Z-0.06
G1 F15.0 Y-0.1125
G1 X0.8875
G1 Y-3.2375
G1 X0.8625
G1 F10.0 X0.8125
G1 F15.0 Y-0.0625
G1 X0.9375
G1 Y-3.2875
G1 X0.8125
G1 Y-3.2375
G1 F10.0 X0.8625
G1 Z-0.0625
G1 F15.0 Y-0.1125
G1 X0.8875
G1 Y-3.2375
G1 X0.8625
G1 F10.0 X0.8125
G1 F15.0 Y-0.0625
G1 X0.9375
G1 Y-3.2875
G1 X0.8125
G1 Y-3.2375
( finish_pocket )
G1 F10.0 X0.8625
G1 Z-0.0775
G1 F15.0 Y-0.1125
G1 X0.8875
G1 Y-3.2375
G1 X0.8625
G1 F10.0 X0.8125
G1 F15.0 Y-0.0625
G1 X0.9375
G1 Y-3.2875
G1 X0.8125
G1 Y-3.2375
G1 F10.0 X0.8625
G1 Z-0.0925
G1 F15.0 Y-0.1125
G1 X0.8875
G1 Y-3.2375
G1 X0.8625
G1 F10.0 X0.8125
G1 F15.0 Y-0.0625
G1 X0.9375
G1 Y-3.2875
G1 X0.8125
G1 Y-3.2375
G1 F10.0 X0.8625
G1 Z-0.1075
G1 F15.0 Y-0.1125
G1 X0.8875
G1 Y-3.2375
G1 X0.8625
G1 F10.0 X0.8125
G1 F15.0 Y-0.0625
G1 X0.9375
G1 Y-3.2875
G1 X0.8125
G1 Y-3.2375
G1 F10.0 X0.8625
G1 Z-0.1225
G1 F15.0 Y-0.1125
G1 X0.8875
G1 Y-3.2375
G1 X0.8625
G1 F10.0 X0.8125
G1 F15.0 Y-0.0625
G1 X0.9375
G1 Y-3.2875
G1 X0.8125
G1 Y-3.2375
G1 F10.0 X0.8625
G1 Z-0.125
G1 F15.0 Y-0.1125
G1 X0.8875
G1 Y-3.2375
G1 X0.8625
G1 F10.0 X0.8125
G1 F15.0 Y-0.0625
G1 X0.9375
G1 Y-3.2875
G1 X0.8125
G1 Y-3.2375
( cutoff )
G0 Z0.125
G0 X-0.0625 Y-3.4125
G0 Z0.0625
G1 F10.0 Z-0.015
G1 F15.0 X1.0625
G1 F10.0 Z-0.03
G1 F15.0 X-0.0625
G1 F10.0 Z-0.045
G1 F15.0 X1.0625
G1 F10.0 Z-0.06
G1 F15.0 X-0.0625
G1 F10.0 Z-0.075
G1 F15.0 X1.0625
G1 F10.0 Z-0.09
G1 F15.0 X-0.0625
G1 F10.0 Z-0.105
G1 F15.0 X1.0625
G1 F10.0 Z-0.12
G1 F15.0 X-0.0625
G1 F10.0 Z-0.135
G1 F15.0 X1.0625
G1 F10.0 Z-0.15
G1 F15.0 X-0.0625
G1 F10.0 Z-0.165
G1 F15.0 X1.0625
G1 F10.0 Z-0.18
G1 F15.0 X-0.0625
G1 F10.0 Z-0.195
G1 F15.0 X1.0625
G1 F10.0 Z-0.21
G1 F15.0 X-0.0625
G1 F10.0 Z-0.225
G1 F15.0 X1.0625
G1 F10.0 Z-0.24
G1 F15.0 X-0.0625
G1 F10.0 Z-0.255
G1 F15.0 X1.0625
G1 F10.0 Z-0.26
G1 F15.0 X-0.0625
G0 Z0.125
M5
M30
