( Made using CamBam - http://www.cambam.info )
( side_guide 4/22/2016 9:12:52 PM )
( T1 : 0.125 )
G20 G90 G64 G40
G0 Z0.125
( T1 : 0.125 )
T1 M6
( cutout )
G17
M3
G0 X0.5885 Y-1.48
G0 Z0.0625
G1 F10.0 Z-0.015
G2 F15.0 X0.5495 Y-1.5025 I-0.026 J0.0
G2 Y-1.4575 I0.013 J0.0225
G2 X0.5885 Y-1.48 I0.013 J-0.0225
G1 F10.0 Z-0.03
G2 F15.0 X0.5495 Y-1.5025 I-0.026 J0.0
G2 Y-1.4575 I0.013 J0.0225
G2 X0.5885 Y-1.48 I0.013 J-0.0225
G1 F10.0 Z-0.045
G2 F15.0 X0.5495 Y-1.5025 I-0.026 J0.0
G2 Y-1.4575 I0.013 J0.0225
G2 X0.5885 Y-1.48 I0.013 J-0.0225
G1 F10.0 Z-0.06
G2 F15.0 X0.5495 Y-1.5025 I-0.026 J0.0
G2 Y-1.4575 I0.013 J0.0225
G2 X0.5885 Y-1.48 I0.013 J-0.0225
G1 F10.0 Z-0.075
G2 F15.0 X0.5495 Y-1.5025 I-0.026 J0.0
G2 Y-1.4575 I0.013 J0.0225
G2 X0.5885 Y-1.48 I0.013 J-0.0225
G1 F10.0 Z-0.09
G2 F15.0 X0.5495 Y-1.5025 I-0.026 J0.0
G2 Y-1.4575 I0.013 J0.0225
G2 X0.5885 Y-1.48 I0.013 J-0.0225
G1 F10.0 Z-0.105
G2 F15.0 X0.5495 Y-1.5025 I-0.026 J0.0
G2 Y-1.4575 I0.013 J0.0225
G2 X0.5885 Y-1.48 I0.013 J-0.0225
G1 F10.0 Z-0.12
G2 F15.0 X0.5495 Y-1.5025 I-0.026 J0.0
G2 Y-1.4575 I0.013 J0.0225
G2 X0.5885 Y-1.48 I0.013 J-0.0225
G1 F10.0 Z-0.135
G2 F15.0 X0.5495 Y-1.5025 I-0.026 J0.0
G2 Y-1.4575 I0.013 J0.0225
G2 X0.5885 Y-1.48 I0.013 J-0.0225
G1 F10.0 Z-0.15
G2 F15.0 X0.5495 Y-1.5025 I-0.026 J0.0
G2 Y-1.4575 I0.013 J0.0225
G2 X0.5885 Y-1.48 I0.013 J-0.0225
G1 F10.0 Z-0.165
G2 F15.0 X0.5495 Y-1.5025 I-0.026 J0.0
G2 Y-1.4575 I0.013 J0.0225
G2 X0.5885 Y-1.48 I0.013 J-0.0225
G1 F10.0 Z-0.18
G2 F15.0 X0.5495 Y-1.5025 I-0.026 J0.0
G2 Y-1.4575 I0.013 J0.0225
G2 X0.5885 Y-1.48 I0.013 J-0.0225
G1 F10.0 Z-0.195
G2 F15.0 X0.5495 Y-1.5025 I-0.026 J0.0
G2 Y-1.4575 I0.013 J0.0225
G2 X0.5885 Y-1.48 I0.013 J-0.0225
G1 F10.0 Z-0.21
G2 F15.0 X0.5495 Y-1.5025 I-0.026 J0.0
G2 Y-1.4575 I0.013 J0.0225
G2 X0.5885 Y-1.48 I0.013 J-0.0225
G1 F10.0 Z-0.225
G2 F15.0 X0.5495 Y-1.5025 I-0.026 J0.0
G2 Y-1.4575 I0.013 J0.0225
G2 X0.5885 Y-1.48 I0.013 J-0.0225
G1 F10.0 Z-0.24
G2 F15.0 X0.5495 Y-1.5025 I-0.026 J0.0
G2 Y-1.4575 I0.013 J0.0225
G2 X0.5885 Y-1.48 I0.013 J-0.0225
G1 F10.0 Z-0.255
G2 F15.0 X0.5495 Y-1.5025 I-0.026 J0.0
G2 Y-1.4575 I0.013 J0.0225
G2 X0.5885 Y-1.48 I0.013 J-0.0225
G1 F10.0 Z-0.26
G2 F15.0 X0.5495 Y-1.5025 I-0.026 J0.0
G2 Y-1.4575 I0.013 J0.0225
G2 X0.5885 Y-1.48 I0.013 J-0.0225
G0 Z0.125
G0 X0.5633 Y-2.344
G0 Z0.0625
G1 F10.0 Z-0.015
G2 F15.0 X0.5885 Y-2.37 I-0.0008 J-0.026
G2 X0.5495 Y-2.3925 I-0.026 J0.0
G2 Y-2.3475 I0.013 J0.0225
G2 X0.5633 Y-2.344 I0.013 J-0.0225
G1 F10.0 Z-0.03
G2 F15.0 X0.5885 Y-2.37 I-0.0008 J-0.026
G2 X0.5495 Y-2.3925 I-0.026 J0.0
G2 Y-2.3475 I0.013 J0.0225
G2 X0.5633 Y-2.344 I0.013 J-0.0225
G1 F10.0 Z-0.045
G2 F15.0 X0.5885 Y-2.37 I-0.0008 J-0.026
G2 X0.5495 Y-2.3925 I-0.026 J0.0
G2 Y-2.3475 I0.013 J0.0225
G2 X0.5633 Y-2.344 I0.013 J-0.0225
G1 F10.0 Z-0.06
G2 F15.0 X0.5885 Y-2.37 I-0.0008 J-0.026
G2 X0.5495 Y-2.3925 I-0.026 J0.0
G2 Y-2.3475 I0.013 J0.0225
G2 X0.5633 Y-2.344 I0.013 J-0.0225
G1 F10.0 Z-0.075
G2 F15.0 X0.5885 Y-2.37 I-0.0008 J-0.026
G2 X0.5495 Y-2.3925 I-0.026 J0.0
G2 Y-2.3475 I0.013 J0.0225
G2 X0.5633 Y-2.344 I0.013 J-0.0225
G1 F10.0 Z-0.09
G2 F15.0 X0.5885 Y-2.37 I-0.0008 J-0.026
G2 X0.5495 Y-2.3925 I-0.026 J0.0
G2 Y-2.3475 I0.013 J0.0225
G2 X0.5633 Y-2.344 I0.013 J-0.0225
G1 F10.0 Z-0.105
G2 F15.0 X0.5885 Y-2.37 I-0.0008 J-0.026
G2 X0.5495 Y-2.3925 I-0.026 J0.0
G2 Y-2.3475 I0.013 J0.0225
G2 X0.5633 Y-2.344 I0.013 J-0.0225
G1 F10.0 Z-0.12
G2 F15.0 X0.5885 Y-2.37 I-0.0008 J-0.026
G2 X0.5495 Y-2.3925 I-0.026 J0.0
G2 Y-2.3475 I0.013 J0.0225
G2 X0.5633 Y-2.344 I0.013 J-0.0225
G1 F10.0 Z-0.135
G2 F15.0 X0.5885 Y-2.37 I-0.0008 J-0.026
G2 X0.5495 Y-2.3925 I-0.026 J0.0
G2 Y-2.3475 I0.013 J0.0225
G2 X0.5633 Y-2.344 I0.013 J-0.0225
G1 F10.0 Z-0.15
G2 F15.0 X0.5885 Y-2.37 I-0.0008 J-0.026
G2 X0.5495 Y-2.3925 I-0.026 J0.0
G2 Y-2.3475 I0.013 J0.0225
G2 X0.5633 Y-2.344 I0.013 J-0.0225
G1 F10.0 Z-0.165
G2 F15.0 X0.5885 Y-2.37 I-0.0008 J-0.026
G2 X0.5495 Y-2.3925 I-0.026 J0.0
G2 Y-2.3475 I0.013 J0.0225
G2 X0.5633 Y-2.344 I0.013 J-0.0225
G1 F10.0 Z-0.18
G2 F15.0 X0.5885 Y-2.37 I-0.0008 J-0.026
G2 X0.5495 Y-2.3925 I-0.026 J0.0
G2 Y-2.3475 I0.013 J0.0225
G2 X0.5633 Y-2.344 I0.013 J-0.0225
G1 F10.0 Z-0.195
G2 F15.0 X0.5885 Y-2.37 I-0.0008 J-0.026
G2 X0.5495 Y-2.3925 I-0.026 J0.0
G2 Y-2.3475 I0.013 J0.0225
G2 X0.5633 Y-2.344 I0.013 J-0.0225
G1 F10.0 Z-0.21
G2 F15.0 X0.5885 Y-2.37 I-0.0008 J-0.026
G2 X0.5495 Y-2.3925 I-0.026 J0.0
G2 Y-2.3475 I0.013 J0.0225
G2 X0.5633 Y-2.344 I0.013 J-0.0225
G1 F10.0 Z-0.225
G2 F15.0 X0.5885 Y-2.37 I-0.0008 J-0.026
G2 X0.5495 Y-2.3925 I-0.026 J0.0
G2 Y-2.3475 I0.013 J0.0225
G2 X0.5633 Y-2.344 I0.013 J-0.0225
G1 F10.0 Z-0.24
G2 F15.0 X0.5885 Y-2.37 I-0.0008 J-0.026
G2 X0.5495 Y-2.3925 I-0.026 J0.0
G2 Y-2.3475 I0.013 J0.0225
G2 X0.5633 Y-2.344 I0.013 J-0.0225
G1 F10.0 Z-0.255
G2 F15.0 X0.5885 Y-2.37 I-0.0008 J-0.026
G2 X0.5495 Y-2.3925 I-0.026 J0.0
G2 Y-2.3475 I0.013 J0.0225
G2 X0.5633 Y-2.344 I0.013 J-0.0225
G1 F10.0 Z-0.26
G2 F15.0 X0.5885 Y-2.37 I-0.0008 J-0.026
G2 X0.5495 Y-2.3925 I-0.026 J0.0
G2 Y-2.3475 I0.013 J0.0225
G2 X0.5633 Y-2.344 I0.013 J-0.0225
( Drill1 )
G0 Z0.125
G0 X0.7387 Y-0.125
G98
G81 X0.7387 Y-0.125 Z-0.26 R0.0 F10.0
G81 X0.2387 Z-0.26
G80
( cutoff )
G0 Z0.125
G0 X0.0 Y-3.6625
G0 Z0.0625
G1 F10.0 Z-0.015
G1 F15.0 X1.0
G1 F10.0 Z-0.03
G1 F15.0 X0.0
G1 F10.0 Z-0.045
G1 F15.0 X1.0
G1 F10.0 Z-0.06
G1 F15.0 X0.0
G1 F10.0 Z-0.075
G1 F15.0 X1.0
G1 F10.0 Z-0.09
G1 F15.0 X0.0
G1 F10.0 Z-0.105
G1 F15.0 X1.0
G1 F10.0 Z-0.12
G1 F15.0 X0.0
G1 F10.0 Z-0.135
G1 F15.0 X1.0
G1 F10.0 Z-0.15
G1 F15.0 X0.0
G1 F10.0 Z-0.165
G1 F15.0 X1.0
G1 F10.0 Z-0.18
G1 F15.0 X0.0
G1 F10.0 Z-0.195
G1 F15.0 X1.0
G1 F10.0 Z-0.21
G1 F15.0 X0.0
G1 F10.0 Z-0.225
G1 F15.0 X1.0
G1 F10.0 Z-0.24
G1 F15.0 X0.0
G1 F10.0 Z-0.255
G1 F15.0 X1.0
G1 F10.0 Z-0.26
G1 F15.0 X0.0
G0 Z0.125
M5
M30
